/* XPM */
static char *_1575c47e2d34a518881b1557c064e65KdQFw1M2iLo77rln[] = {
/* columns rows colors chars-per-pixel */
"128 128 206 2 ",
"   c #4F1F00",
".  c #521F00",
"X  c #5A1F00",
"o  c #562500",
"O  c #5C2501",
"+  c #572C01",
"@  c #5D2B02",
"#  c #572608",
"$  c #59270C",
"%  c #5D2C0B",
"&  c #5F3205",
"*  c #5F3209",
"=  c #5E2C13",
"-  c #612601",
";  c #642C02",
":  c #6A2E01",
">  c #622E0B",
",  c #6A2E0A",
"<  c #653204",
"1  c #6B3403",
"2  c #663805",
"3  c #6D3905",
"4  c #64330B",
"5  c #6A350B",
"6  c #65390D",
"7  c #6D3A0C",
"8  c #713604",
"9  c #733B05",
"0  c #793D06",
"q  c #723609",
"w  c #743C0B",
"e  c #793E0C",
"r  c #653412",
"t  c #6B3712",
"y  c #673A11",
"u  c #6D3C12",
"i  c #653319",
"p  c #6F3E1A",
"a  c #713712",
"s  c #733D13",
"d  c #7A3E12",
"f  c #743E19",
"g  c #6F410C",
"h  c #764106",
"j  c #7A4205",
"k  c #75410D",
"l  c #7B430D",
"z  c #7D490E",
"x  c #6E4114",
"c  c #6E4319",
"v  c #744214",
"b  c #7C4513",
"n  c #774914",
"m  c #7D4914",
"M  c #74441A",
"N  c #7B461A",
"B  c #75491C",
"V  c #7D4A1B",
"C  c #7E511D",
"Z  c #764621",
"A  c #7C4624",
"S  c #764A21",
"D  c #7C4C22",
"F  c #7E4E28",
"G  c #7E5124",
"H  c #7E5329",
"J  c #824607",
"K  c #81450D",
"L  c #834A0D",
"P  c #894D0F",
"I  c #814613",
"U  c #834B15",
"Y  c #894D15",
"T  c #824719",
"R  c #834D1B",
"E  c #894E1B",
"W  c #845016",
"Q  c #8A5216",
"!  c #87511B",
"~  c #87531A",
"^  c #855119",
"/  c #87521C",
"(  c #87521E",
")  c #86511D",
"_  c #85511C",
"`  c #885119",
"'  c #89521B",
"]  c #88541B",
"[  c #88501D",
"{  c #89521C",
"}  c #88531D",
"|  c #8A531D",
" . c #8B521D",
".. c #89511E",
"X. c #88501F",
"o. c #8B511F",
"O. c #8A501E",
"+. c #8A521F",
"@. c #88531F",
"#. c #8B541C",
"$. c #8A561D",
"%. c #8A561C",
"&. c #8A551F",
"*. c #8B541E",
"=. c #8C551D",
"-. c #8D561E",
";. c #8E571F",
":. c #8B531D",
">. c #86581D",
",. c #8C581F",
"<. c #8D581E",
"1. c #91561C",
"2. c #915A1D",
"3. c #854F20",
"4. c #834E21",
"5. c #894F21",
"6. c #855323",
"7. c #885021",
"8. c #895120",
"9. c #8B5320",
"0. c #8B5123",
"q. c #8B5322",
"w. c #8C5220",
"e. c #8D5321",
"r. c #8C5222",
"t. c #8A5521",
"y. c #8B5620",
"u. c #8B5622",
"i. c #8C5721",
"p. c #8D5620",
"a. c #8E5721",
"s. c #8D5522",
"d. c #8F5523",
"f. c #8E5623",
"g. c #895324",
"h. c #8A5425",
"j. c #8E5424",
"k. c #8F5527",
"l. c #8B5523",
"z. c #865925",
"x. c #8F5820",
"c. c #8D5822",
"v. c #8F5822",
"b. c #8F5B22",
"n. c #8E5A21",
"m. c #8D5824",
"M. c #8E5925",
"N. c #8F5A24",
"B. c #8D5924",
"V. c #84542A",
"C. c #8B5629",
"Z. c #86592B",
"A. c #8E5829",
"S. c #8C5B2A",
"D. c #905626",
"F. c #915623",
"G. c #915821",
"H. c #915923",
"J. c #915A22",
"K. c #915D23",
"L. c #915A24",
"P. c #925826",
"I. c #925B25",
"U. c #915D24",
"Y. c #935C24",
"T. c #935F25",
"R. c #935C26",
"E. c #935F26",
"W. c #955C25",
"Q. c #955E26",
"!. c #945D27",
"~. c #925B24",
"^. c #995D25",
"/. c #915629",
"(. c #915C28",
"). c #935E28",
"_. c #935E2A",
"`. c #935D2A",
"'. c #995F29",
"]. c #875530",
"[. c #865B31",
"{. c #8D5D32",
"}. c #935F32",
"|. c #8E602E",
" X c #946026",
".X c #946127",
"XX c #996126",
"oX c #956128",
"OX c #95602A",
"+X c #95612B",
"@X c #98642B",
"#X c #9A632B",
"$X c #9D682F",
"%X c #8F6131",
"&X c #946232",
"*X c #9B6433",
"=X c #9C6934",
"-X c #946438",
";X c #996438",
":X c #A1652F",
">X c #A1692F",
",X c #A16634",
"<X c #A26A34",
"1X c #A1663A",
"2X c #A16A39",
"3X c #A4713A",
/* pixels */
"9 9 9 9 8 1 1 8 1 0 9 9 h z Q z W U m l k 9 9 9 9 3 9 0 e e l b 8 w w w w w q 1 q 1 ; b b T U U I I U U T T T U I I b l l l l l b l l l b b I b l 0 w e b b 0 8 w 1 0 l 9 0 E U Y Y Y Y &.^ m U U ` ^ U R ` R R ` ` ` ` &.&.&.-.e.R U ^ m h l W c.R. XK.m U &.R.",
"0 0 l l l e w w I b l l 0 9 l U z z m m U W W W W U I I U U T E T T b b b b b b T b e E E j.D.L.e.e.e.g.E R R { e.{ E E E { e.{ T T R R R { G.e.T T T T E E E R E E R R I T G.G.G.W.R.G.c.e.l.c.L.W.G.e.R.R.e.{ c.c.-.-.&.-.G.W.M.M.&.e.OXOXR.@XR.c.^ W ] R.K.W ",
"9 l L l l Y { R l 9 1 l b l l k l l l l l k k h k k l k w w w w b e w s d s w s w 5 1 b b b b b T T T T T I T { l.{ R U T T T b { { { R U b I b T I l w 9 w l I b T T N b b T E T T E U N V R R T U U R e.e.{ ) { e.G.e.e.c.c.e.M.).e.l.).c.) &.&.^ &.c.).&.{ <.",
"0 0 0 j 0 9 w l l b e w 9 9 w w 9 9 w k k l l l k l m U R R T U b b b N T N b b d e q N N b b b b b b N T T T R ) R U b b b b l e l b U b m b l l l I U U I b b s b N N d b g.e.f.g.g.g.4.h.S.g.g.E E { g.R U U T E { &.c.L.e.R l.b ) ).) ) M.&.M.).).) l.) R U ",
"l I z l 0 l l 0 1 w l l m U z z b m b b l l k h z m m m U U R V N N N N T 4.4.4.R N s N N N T R b N N N N T R T R T N T E E E T U U R Y U l l 9 l l 0 l l l l l w 5 s b w N `.f.`.g.g.f.g.g.h.g.7.R R l.f.l.7.l.) ) ) ) &.M.c.&.e._.g.g.@XM.T L.f._._.{ `._.`.{ ",
"b U b 9 q b T b R b k 9 k k 9 l m m m m U U U W m m m U R U m m b b b d b N T N s s 5 a d e e s b T R b d b N N T b b T R E R T R U R R R ` { Y b b I R E Y b w s 7 q w 1 b g.E g.{ g.g.) R ) l.g.R R R R R R V l.e.l.) ) ) &.&.L.`._.`.e.f.`.g.L.f.g.T T E L.&X",
"v < O ; ; - < s s b V b l 9 1 l w 7 w w 9 9 w w 9 9 k b m l b m R R 4.4.4.4.4.R N N b V 7.R V N V R V N N N V V V N N V R V V N E E 4.4.4.g.g.g.E E E 4.g.g.g.g.g.7.m b b T g.E ` { ^ R R U R l.R R R V b b R U R R U U U U U m w b b w < ; < ; < q l b T f.g.b ",
"a s 7 5 7 a a 5 w s b V 7.l.) ).=X*X@X+X).R.R.L.M.&.&.&.R m U g.g.7.4.7.4.V V 4.6.4.V R C.g.7.7.g.R R R 7.7.R V N N N V R R R R E E E R b b b b b T R R R N N N 4.M.R b { { R ` ^ ` I l z m m m ) l.h.m 1 1 w w k 3 1 9 b U m b l b b b T T T E g.T b T l e q q ",
"_ R ) B.7.l.m N N w 7 3 3 7 7 l.S.S.B.M.oX*X@XoXoXoXOX@X+X).M.M.S.`.`.`.}.`.`.`.&X&X`.`.}.&X}.S.`.`.`.`.`.`._.&X`.V M.f.h.S.M.f.l.h.M.M.M.M.h.l.) h.7.4.h.g.4.h.l.l.l.l.e.M.e.{ c.e.c.&.^ l.l._ { l.l.m b R R U ^ ) &.&.^ &.] R ) m R ) U R R k 3 w k k w k b R ",
"] W U W m ^ _ R _ R ) ) 7.7.m M.R _ @.@.^ _ @.u._ @.&.&.^ _ l.S.`.`.h.4.4.4.4.7.C.h.h.h.C.S.S.S.`.S.C.`.`.`.`._.).m l.l.g.g.g.l.l.l.l.) R R R R l.M.l.E l.M.M.).S.h.7.g.l.l.g.e.e.{ l.l.) l.u.l.) M.M.U k b b m l w k l z m U U b k b U m R ) U R R R R ) l.l.{ ",
"%.%.<.n.&.&.U m m b b b U &.^ R.@XoX).).c.&.^ @._ _ ^ &.l._ m n V R R V V V N N V V R R R V T R V N v V V V T R R 7 v v v k v v b m b w 3 9 w w b R R m ) l.) R 6.4.4.4.4.R R 7.h.4.E 4.R R R R m U U l l R ^ { &.R ) R.R.c.&.&.R R R R R 7.u.M.M.M.R.R.M.c.u.l.",
"*X=X=X=X=X=X<X=X3X=X=X+XOXR.^ &.u._ R ) &.&.^ U _ _ @.l.l.l.u.M.h.S.S.S.`.&X&X&X}.&X;X;X;X&X}.}.&X}.`.&X&X`.`.`.`.R h.h.h.7.7.7.`._.`.M.h.M.S.h.h.`.`.`.}.`.h.4.C.C.C.S.C.6.7.6.7.4.R R 4.4.7.R M.l.) m m &.l.l.l.U R e.c.&.l.M.S.`.S.h.S.).).+X+X+X&X@X@X@X$X*X",
"M M f M v v 4.R R R g.M.).l.R R l.u.&.@.^ _ U m _ m m n k w k v v N v s v N N M N D 4.V D 4.4.R 4.4.4.C.C.C.C.`.V.4.6.4.7.4.R N f f f f s f f u t 5 5 5 t t t t u f f f w 7 5 5 w s 5 7 s s v w e k b k v T ) l.h.{ h.f.l.l.M.M.S.S.h.7.h.7.N N l.R b k n n k k ",
"f M M M v 5 w 5 3 < 7 k b k k b m R ^ U U _ @.^ _ m R t.M.B.t.7.R R N v v f a u u f f u s M N f V V 4.4.V N M N M M D N V V V f f f f f f M M f f u t s f N A 4.D 4.4.4.R 4.4.R 7.g.V V 4.4.7.R R R E R E l.7.7.g.h.S.S.g.g.7.R 4.4.N v b v 7 7 v w w 3 w k b m ",
"c.c.&.<.] k U m l l z m U b m l w 9 3 3 3 3 3 3 3 3 k k k k N V V N a 5 5 5 t u 4 t t 5 5 u t 5 s M A 4.4.4.V.V.4.4.V.4.V.6.V.4.R R 4.6.g.g.6.6.C.6.6.V.V.V.V.6.6.4._ _ 6.7.l.h.) l.m R M.h.S.M.h.7.g.g.C.`.g.E R R R R V R R R N M M f M B V 4.6.B.C.B.t.7.B.S.",
" XK.n.K.<.h z z z z z l z m ` I W U U R R _ ) t._ V V m m m m B v f 7 7 f f u f f M V D D V M f N 4.V.V.V.V.V.V.V.V.V.V.V.4.V.6.7.7.g.S.S.h.7.7.7.7.7.7.7.6.6.R z._ R R R V m R { { b R l.) l.l.R R R R V T b b R R 4.4.V N b s v M M M V V 4.6.z.h.S.S.S.S.C.C.",
"<.<.R.<.<.h j j 0 h j j j 0 h j l l k k l l b b T V R V N N N v N v v N v v N V R R 4.R R R V N R 6.C.V.4.4.4.D V.4.D D D 4.6.6.6.h.h.h.h.h.h.6.S.C.h.h.7.h.C.h.7.) ) ) ) 7.7.) ) &.b R T T ) R V g.C.4.T ) l.g.7.h.h.h.C.h.7.7.v v v v M M M M M M M V N M N 6.",
"M.M.OXL.K.l l h l L L L I L J L U I b l e w w w 5 7 s s 7 7 s s 7 5 7 w 7 7 w 7 v n N m R l.B.t.`.&X&X}.{.{.Z.C.V.C.[.[.Z.Z.Z.6.C.C.C.C.C.C.C.S.6.h.S.`.S.C.h.4.h.h.l.l.h.M.S.M.h.h.V l.h.E E R 4.7.7.7.l.L.M.l.h.`.`.h.S.`.h._ D M f u f M M M M M M M v M 4.C.",
"g.l.M.l.l.b e w l l l l l l l l k w w 7 5 5 4 4 @ > 4 4 4 4 4 4 4 < < 4 4 5 v v w n v v N V m 7 V D 6.z.V.Z.Z.Z.Z.{.{.Z.V.Z.V.4.C.C.].{.{.Z.V.C.C.C.C.S.C.C.S.S.S.M.M.h.M.S.S.S.h.7.N h.h.7.7.7.R t.M.u.l.l.u.l.M.).S.l.7.) m v f p t y u u M N 4.4.6.6.6.7.h.C.",
"b b m b b w w w w l w l b l l l w w 7 7 5 4 < > < < < + 6 y 6 & 4 < < < < 2 4 4 u g 5 2 4 7 v v 4 5 5 5 u u u u u f y 6 4 6 u u 5 4 > > 4 > 4 u a a v N N v v v v v v v N v v s w s 7 v N v s v N v v N m b k 7 v v v w 5 < O @ O 4 > > 5 4 < 5 1 5 7 w k b b m ",
"k l b l b l b m m m m m U U Y ^ W W U R U m m N v n v 2 g k k 2 x M M M v M M c M c M M c x x c D D D V V M B B p u u y 4 % % 4 6 4 > > @ O > u 4 5 u v f u 5 5 5 5 7 7 7 5 4 > 4 u u f u u r t f u u s M u 5 4 O @ > 6 u u u v 7 N N N T V b N m U U m U m l k ",
"l m U m U U U U m m m m U U U W z z U U m U U m b m m 3 3 3 3 2 2 5 6 4 6 u x x y 6 6 6 6 4 y M V V D 6.6.D V.V.V.D Z B M u u u u u p M f 6 5 f 5 4 4 5 5 u f u f f f u t 5 5 4 4 t 4 4 > 4 4 t 6 t u u 5 4 > > > r > 4 u M M s 1 k l l l l l b k l b I U U b l ",
"l z U m m z z z m U m m m m m U U U U U m U m m V R V 7 V m R V V D M u x v v v M x x c c y 6 4 u u M M B M B S V.D Z M M M Z F D D D D S M M S M M M N D 4.4.V N N N N N N M v u u 4 < @ 6 6 u u u 5 u f u t 4 % > % % y x v v 3 l m z l l l l m l l l l l l b ",
"U ] &.^ W U U R _ ^ ) ) R m N m b m m N m V V B V B N 7 6.C 6.6.6.C.C.6.6.6.V n x y y x B S B x 5 5 5 M M M M M M f u 6 4 y u u u u u f u 6 @ 4 4 4 5 u u s u < 5 7 s v v N N N u 4 @ > < 4 + 4 @ 4 4 6 t u t r r r r > % @ 4 7 < w m m b m m m U m U R ^ R R R ",
"l.@.) t.t.7.R R R V V V B v s 7 7 x 7 7 u 5 5 y y 6 + & u B D G 6.z.C.C.z.C.C.z.z.z.z.z.z.V.Z.V.D S S D V.V.V.V.D Z Z p M M A Z M u u 6 6 4 5 f M M M M v v u 7 f 7 5 5 4 4 4 4 6 4 4 4 4 4 u u 4 % 4 t r r % $ = i i r r 4 @ o . O ; > 4 s v v N V V m R _ ) 7.",
"3 3 3 < < 3 3 < 5 < < 4 4 < < < 5 7 4 & 6 4 4 6 6 4 + o + + + & @ < @ @ + < 2 7 v v v M 5 4 2 4 M u u M B M M p M B Z Z Z M Z p M B M u u M N V V V N M N v v s M f f M f s u u u u u u 6 6 6 4 y > % 4 4 4 % # # $ % % % @ o   . # # o . o O O O ; ; ; < < < < ",
"V R R V R z.C.h.h.z.7.7.7.6.4.4.V C V C C.S.S.Z.C.Z.Z.Z.|.%X%X-X+XoXB._ m n n v v n v n n v v M M M M B Z S B M M B S D D u u y 5 5 u N V u 5 u f M v v N B V V b v N V V V R V 4.4.D 6.D D D V V V 6.6.V B D H V.Z.Z.V.D V _ z.[.].V.V.6.6.D V 4.6.7.7.z.h.6.6.",
"4.z.C.B.h.C.S.B.C.C.C.C.C.h.B.C.S.S._ V z.C.C.C.C.Z.Z.Z.C.C.z.Z.S.M.M.B.S.|.|.|.C.z.6.z.z.z.6.6.6.V.V.V.V.Z.].V.V.V.V.V.Z.B M M M M u 4 4 5 u M u M v s 7 u s 7 7 7 7 7 7 7 w w 7 5 5 5 5 5 7 7 7 7 7 7 k v g 5 x v B v k n _ z.6.D D 6.z.6.V B V _ V V 6.6.4.D ",
"6.6.z.z.z.t.t.t.6.t.B.B.u.t.@.t.h.S.R V 7.7.h.7.h.h.C.S.C.C.S.S.S.S.B.z.B.|.&X&X&X|.|.%XS.z.z.z.z.H F S D F F F S Z M M Z u u u 4 u 5 4 4 4 4 4 5 5 7 5 5 5 7 7 s u u s 7 7 7 7 3 5 7 7 5 < < < 5 v V V v 7 k 7 v V V V 6.6._ V V V V _ _ C C ~ _ _ C C z.z.6.6.",
"V B V V V V V 6.V V _ 7.) _ R R R 7.4.h.`.S.`.S.`.S.S.B.z.z.z.7.C.z.t.6.z.Z.S.Z.z.z.z.Z.Z.z.V.V.Z.V.F S S D F F F D B B D u t 6 5 6 4 5 u 4 > 5 s s s u 7 5 7 7 u u u M s s f f 5 7 s s s 7 s 7 v v N V B V B v M V 6.z.C.C.z.6._ C _ ~ ] ~ >.n.C _ C V _ 6.4.4.",
"H H D V B V V V D 6.7.h.S.S.S.`.|.S.6.z.C.B.C.S.|.S.S.|.Z.S.|.C.z.z.z.z.Z.S.S.S.S.z.V.Z.{.{.Z.V.{.Z.V.H H H V.Z.Z.Z.V.F V.M u u u M M u u M f u 5 5 u f f s f M s s M v s s s s v v v N v N V V M D 6.z.6.4.t.h.C.S.{.C.4.D D D B B B V C _ _ _ &.u.t.t.l.z.7.t.",
"B B B u u M M M B B B V R 4.7.z.z.z.V G C.z.z.S.Z.z.Z.Z.z.z.z.6.z.z.z.z.z.z.z.z.H G G D D D D D D B M M B B B S B D S V D u 6 4 5 6 4 4 5 u u u u 5 5 u u 5 5 7 7 5 7 5 5 5 7 s 5 3 5 5 3 3 3 < < 4 5 7 7 7 7 7 w v v v s M v n s v V V m m m m C _ _ R R V m m ",
"t u f V V V V V _ R V N v v s u x x x 6 y x v v x v v v x v n G V.6.V.V.M D D V M D V.6.G G 6.6.z.6.6.G z.C C 6.6.C D V M V D V S D D M M M M M B B S D D D B u f u u u M M M u 5 < < 6 3 3 7 7 3 3 5 w N N N w 7 3 < < 3 3 3 < 7 k b m m m l k k 9 m @.m b k 3 ",
"M N 4.h.S.h.l.) ) ) t.) 6.z.V.V.V.H V.H V.V.H G D D V n v x M v B M B M 5 M M M V V V M M B 6.z.C V 6.z.|.Z.Z.|.|.|.&X{.S.}.&X&X-X{.{.Z.V.V.D D D S S S S S M 6 M u M M D D V B M u v B v v B V N V R V N N b N V V V V V V V N R R R m m m m m U m _ @.) R m N ",
"V B V V V R R m m m V m v B V V Z.F B M M u 5 y M M M n n M n B C C 6.C n 6.z.6.z.6.6.C C 6.6.V 4.S D V G V V D D D V D 6.V.V.V.Z.V.V.H D S V D Z.Z.C.Z.Z.Z.D M D N N D 6.D V V 4.R 4.7.6.R V V V R R V N v b N b b b b b b N N b N b b b m m b m l N m R V N V ",
"R V m v k n n n v B B B V V D V M M B B N M s u S D 6.6.z.z.V.z.z.z.Z.S.6.|.|.|.S.Z.Z.Z.S.&X&XZ.}.{.{.Z.V.6.6.z.V.C.z.z.C.C.V.Z.V.H H S M u x S D D D N B N M 6 s u u M M M N V v v v N V V V V V b b b V b N N R R T T T R R T v N V R R R T b b k N V V V N V ",
"V B B v M v v u y x u M M M B M M v M v N V 6.z.6.z.6.z.h.z.z.z.C.S.S.C.6.z.z.z.z.Z.{.S.Z.Z.Z.V.V.V.Z.S.z.G C V C z.z.z.t.6.z.%XZ.V.V.F B M B D N S D D D 4.B 6 v v v s s v v s v v w w v N N N v w q w v v w q w w w w w s w 7 w s v v v v v s k 7 V 7.V V V V ",
"V V B M u u u 6 u u u p c u p u v V 7.z.h.h.h.7.C.B.h.B.S.).`.S.S.S.`.C.6.z.6.z.D D D D D D B M V V V G n V V V C C C G 6.z.B.S.{.Z.V.H V.V.6.6.V V S V.C.[.D 5 M N B V V 4.4.R V R 4.V B B V V V b N b V N b v b b b b N b v w w s v v s w e k 3 1 m l.R 7.l.R ",
"u 5 4 @ o o o o % % o % 4 @ 6 4 7 7 q w v b N N b v v v b b b b N N N n w w 5 5 5 > O O @ 6 6 4 < @ O & + 5 c x v c c B B n V V H D B M B B x y M f u u f M M 5 v M M M M v u u M v v v M M N s 7 7 7 w w 7 5 7 5 5 5 5 5 7 3 < ; < < 1 1 < < < 1 < k m b m m k ",
"s 5 5 < @ O > 4 u u > u f 5 v v b k k b m m m m U m m m m U U U R R R _ V N 3 5 3 5 7 5 < < 4 4 u 4 @ 4 4 M B B B S H G c x B F D B M u M B M u M S V.[.Z.{.{.{.}.Z.Z.Z.Z.V.V.Z.Z.6.V.C.Z.{.V.M V B V V V V V V V V V N N N N N V m m m R R R R _ _ ) _ _ C k g ",
"< < 3 7 7 7 7 7 < 5 ; 3 3 3 k l b m l l b l l l b m U U m m W W W ] ` W U m m l k k v k v v N v x 5 7 u 6 B D S G H V.G c y c B D H H V.Z.Z.6.D V.6.V B V D D 6.6.V.V.D D D 6.V.H H Z.H Z.[.Z.M V V V D 6.6.4.V V V V 6.V V V B m V V V V C R n n g 7 g k g 3 2 ",
"R m m V R R R R _ m 1 9 l z z h l l 9 9 0 h l l l l z z l l l l j l z z l l z m l 9 3 k b b k k 7 2 6 7 6 G V.V.[.[.[.H S S Z c B D V.Z.{.{.{.%X-X}.Z.6.C.{.C.6.6.z.V.V.H B M M M M S S D B M 6 5 u v u 7 7 M M M u 5 M M D V M v v v v v B V B 7 5 < < < 7 v n ",
"R R 7.7.7.) ) ) l.] 3 h z z l l k k k l m U U ^ ^ W W U U U m l l z I z l l l b b k w k b k k n k k n n v 6.G V B D H G F H F c M M B B M M B G D C.Z.V.6.6.V.V.{.Z.Z.{.S.D B V S M c x c c x 6 B v v v M V V V V V D D M M u u M v M M M B V B B M u u u x B G ",
"6.C.`.&X`.).).).R.M.z z U m l z k l b m ^ { ^ l.^ U U R R ^ ) ^ m m U U R R R _ R R ) R V R R R _ _ _ C V |.S.S.Z.Z.Z.G B S G D x x c B M M x M f f M M V V D V.Z.6.4.C.{.Z.V.V.Z.V.V x M G D M 6.z.C.C.z.z.C.C.z.6.D 6.V D V B V V V S S D S B M u u 6 u u B D ",
"5 5 7 M V R 4.V R R w w b N k v b l b l m m b R ) R _ _ m V R R N N v k w w 7 5 s v v v v v s 7 < < < 2 4 M u u x c Z S S F F S H B D G V B M M M M f M N M M V G B v v V B B B M V v u u M v 7 m V R 7.h.B.S.S.h.4.N v 5 7 7 7 5 7 7 5 u M B M B u 5 6 6 6 4 4 ",
"O O O O ; 3 5 7 k k w v v N v N m b V b N N k N R V _ R B N N v v u s M N B N v v v v M s 5 7 M x M M v u M 4 * 4 4 y y 4 * 4 y x 4 y x M M V 6.4.V.Z.Z.Z.Z.Z.&XC.h.h.6.V B V V V B m V V B v N _ m k k k w 3 < 7 7 7 3 ; < < 3 3 3 3 < < 7 s 5 5 < < 4 7 5 4 < ",
"5 5 5 < @ + + @ < < 3 3 ; < < < 3 3 7 5 7 7 < 5 v n B V B B B V V V V 6.z.6.6.G z.z.z.6.B v B z.z.z.6.G V D B S x x B D M x x M v 6 v n v M M B V M v V S.-X&X&X`.`.}.`.`.).&X&X;X&X`.&X;X*X+X@Xt.@.{ ^ U m m R N N v N v m b w m m b k k N m v v w 7 7 7 7 7 5 ",
"V 6.z.z.t.6._ V C m V R N R V B N v B v v N s V S.C.C.Z.C.C.S.S.C.C.S.&X&X&X&X&X&X&X&XS.S.S.Z.B.C.C.z.C.z.C.6.z.S.V.z.V.z.S.S.S.%XV V.C.z.z.D 6.z.B v B 6.6.6.C.h.7.7.7.l.7.7.7.l.).M.u.t.B.l.M.).M.M.M.L.M.M.M.M.M.M.l.T ) ) ) R U U ^ ^ ) ) R l.l.h.h.l.@._ _ ",
"+X).S.S.S.+X|.B.z.6.Z.C.z.S.`.C.C.V V N V 6.D 4.6.C.S.S.S.&X;X&X&X&X&X&X`.S.`.&X&X&X&X+X`.`.S.l.t.6.6.C V 6.z.6.z.z.z.z.z.z.7.6.S.v v v v V v m V n B V V 6.z.z.z.B.z.t.l.h.t.t.@.u.M.M.M.h.B.M.).S.h.B.M.l.h.t.h.t.h.7.V l.l.S.S.).S.S.oX`.S.S.S.S.S.S.M.M.M.M.",
") @.) @.B.Z.S.B.Z.z.C.C.h.S.S.S.C.6.z.4.4.V.D N V.6.4.4.V 6.h.h.R _ 7.7._ R _ t.t.z.h.7.7.7.7.R R V _ t.z.z.7.7.6.B B 4.4.B m V V 7 v n v V _ z.6._ V V B B B B B V 6.6.t.6.7.B.S.M.u.B.S.S.M.t.t.B.C.B.7._ t.h.t._ 7._ m 7.t.B.6.t.t.B.`.+X+X+XS.M.B.u.u.%.@.@.",
"u.l.@.@.@._ _ C z.6.z.6.7.7.6.C.S.h.7.V 4.C.4.V }.C.6.6.6.6.C.S.B.S.S.S.C.C.S.S.S.S.`.S.h.h.h.M.h._ 7.B.t.R R 6.v V R V V R R V m w B V V _ R _ m B N N m m N m V V v v v 7 k m k k n N V R R R 6.6._ _ R _ ) ) ) _ 7.7.R _ V V _ _ _ 7.h.t.@.l.M.B.l.t.@.@.@.@.",
"m k k k k 3 7 7 7 7 3 ; @ @ < B B v 7 7 7 s s v M 7 7 7 7 w v v k v v w 7 7 w w N N m N v w w w k 3 7 k w 3 7 v 5 7 v N N n N B B v n k k N v n v v v v v n k v v v v m _ _ m V n n m m m m m m B m n 7 3 3 3 < 3 3 7 w w k 7 7 k k w v n n k m k k 7 3 h k k k ",
"m m n n k 7 7 g k n N n v 7 3 N N N V V N v N V V V R R R 7.7.R _ _ V m m m V m V V V V m N b b m m m R m N N V N R h.S.C.h.B.S.M.h.M.h.l.B.h.l.M.M.7.) h.t.R V ) 7.t.l.S.M.t._ B.@._ _ _ _ V V R R R w 1 3 3 3 3 7 1 9 w w w k w 7 7 w k w w k k k 3 3 9 k l l ",
"_ _ _ V m m m V m n k 7 k 7 7 N N V V R 4.7.7.V N V V V V R R R R _ V V V V R R m m m V V V V V m m m m b b N N w R h.7.R t.z.R R l.S.M.l.R R V ) R V R 7.l.7._ ) l.7.) ) u.B.M.B.t.7.t.B.B.S.S.h.h.h.b w b k v b V b R U m b b _ R R R R R m R _ _ R m m R ^ _ ",
"9 k k k w k k k m b v n v k 7 v b N v b V R R b V N R E R R ) _ R V V V R R R R m N N m m m V R m b b b b m R R k N ) h.l.R R ) M.S.M.l._ m R ) _ m m R R ) ) _ ) l.l.l.u.@.) @._ V V R R V R 7.) R R 7 3 w 1 1 1 w 3 l b k w w w k w w k k k b k b l l l l l k ",
"_ _ _ m b n n n N m V B n w 7 N b V N R V v N N N v b R m b N m V m m V R V m m V m m m b b m R m m U R T U V m w R B.h.t.h.h.) t.l.) ) ) ) @.l.l.) ) @.) l.u.l.).e.{ l.M.t._ ) M.) R ) l.t.V m V R t.v w N l b w k 3 w w 3 w k k k k k b b b b b m U U U R U m ",
"m m m m k k k k N V V V V N v N b N v v N v w V 4.R R 7.) R ) ) h.l.7.l.h.h.B.M.g.l.M.h.E ) f.h.{ e.g.E R b l b w m M.l.M.h.S.h.l.l.{ ) l.l.R l.L.M.) ) l.{ R m m ) ^ ^ e.c.) ^ ) ^ _ _ t.l.t._ 7.M.M.b k m m b b b m b b U b U b b b R b b b b m U m b m m b U ",
"m l l m m V m k m m V B N v 7 w e k 7 5 w 7 7 v N v k v k e b b b N V R R R V m R T R R R R R m b I b b b b l U b m ) _ 7.R ) R m b ) l.U R R b b m b b U m m m m R m b m U m m l l k k n m m b k b b w 3 w w w w w k k k l l l b l l R U R ) ) U R U U R U m m ",
"^ @.&.u.B.M.).+XB.t._ V R R R h.S.M.f.f.C.C.h.h.4.h.h.M.g.E e.M.l.l.l.) R R ) { R R R R l.M.l.) R R R e.L.&.U R ^ R R m R R m b m R M.*X).M._.U w k k b b b b b m R U m b l k k k w 9 9 k b N n m m m m b b b m b m l b b b U U m m m M.e.l.) R &.c.).).c.c.c.c.",
"M.@.m m _ @._ _ t._ _ V R 7.) 7.7.) 7.7.7.g.g.R h.S.).).l.R l.l.M.M.M.) R m R R ) { R m R ) R R R T U E -.R m R l.l.) U @.M.M.) R ) b m U R { l k b k k l w 9 3 w b b l l l l l l k k k k k v k k k k b b m m U l m l m m m U b m m U ).).M.&.) &.e.R.L.) { c.M.",
"U _ ) ^ m b m V l.7.l.l.h.`.S.S.S.h.h.h.7.S.`.C.7.7.R 7.R R ) R R ) { ) ) ) { l.{ l.R U E { E { e.M.M.).+XR.n.OX&.^ R U U ^ R U m R b m ^ ) ) w w k w w k w k k w w k k k l U R m m m m m m b k m m m m m m U m b m m U ^ R U l k k k ^ &.&.&.M.R.u.l.&.@.&.c.) ",
"c.c.c.R.+X+XoXS.t._ t.) 7.h.S.S.h.h.h.B.7.h.h.R 7.S.`.&XS.7.S.).M.M.M.M.{ R R R b b b U { e.g.{ e.)._.+XOXM.&.n.@Xc.&.R.c.^ R ) l.) ) l.R l._.U l.M.) R m k m R R R R R U U ^ ^ ^ ^ &.c.c.l.&.) M.M.u.l.@.@.&._ e.c.) ) &.c.M.l.u.u.@. XoXR.M.OX).R.M.M.M.).).M.",
"u.M.R.c.@.@.l.B.S.S.&X+XS.S.C.h.&X;X;X;X}.`.S.S.7.S.`.&Xl.N V 7.l.{ e.).).M.l.l.f.L._._._._._.L.).+XM.u.M.M.c.R.c.&.^ K.l.) ) M.M.u.).).l.@.) k ) l.l.@.) @.).*Xh.7.l.M.l.&.&.R U W ` G.L.G.e.&.l.M.l.B.c.c.R.M.&.@.^ U R l.e.c.M.M.) M.M.&._ ^ @.u.l.@.&.&.u.u.",
"@.@.^ R R _ R m l k V N v m V V 7.7.R V N N R 7.R V N V m k m R R b w k k w k m l b R R b l b b m m m m ) c.&.&.) &.^ ) U R R R _ ) _ m R R k k m R m m m m m V N b m _ ) &.M.&.R U ^ &.e.{ R U b m b m m b m m m m ) R R &.^ ^ ^ _ l _ &.@._ &.&.l.^ m ^ ^ _ W ",
"_ m b m b b l b b b m R R R R ^ ^ U ) m ) ) B.B.B.z.7._ t.h.t.h.L.M.M.) V m b T E e.g.7.R R m U _ ) ) ) { l.l.e.l.c.).).).M.{ M.e.L.).c.^ U U U R m m b b m b b N k N v v m v m ^ @.l.l.e.).L.l.&.u.c.l.) ^ R R l 9 9 1 9 9 9 9 3 k b b b U m w k m R U l b m U ",
"m m b b b b l l U m b l b m I U m m U l _ ^ u.u.B.B.z.t.z.B.B.B.e.l.M.M.M.S.g.g.D.`.f.M.l.M.l.&.M.M.@.R R R R ) ) ) R R { ) m R l l R e.&.^ &.c.R { l.) l.+X).M.).M.`.M.l.) N m _ R k w k m m b w b m m U &.{ R U m ) R { ^ ` &.) M.c.^ U R ^ ^ R R U m m U U U ",
"k k l m R &.e.e.G.c.-.-.G.R.R.G.c.M.R.^ R.).oX+X&X=X=X=X=X&X&X&X_.M.L.).&X*X&X&X=X=X*X=X;X=X*X*X=X=X*X+X+X).).+X_.).L.M.).M.{ f.l.&.l.e.^ m m m l m { l.) R b l R m b U { &.l.) &.L.c.&.c.M.c.c.l.l.&.R R ^ U m w 1 1 1 1 < 1 1 9 9 0 9 9 9 0 l 1 9 l l l l l l ",
"m l 9 3 1 9 l m l l l l l I I l U R U k @.u.l.B.oX@X@XoXS.B.h.h.+XM.M.f.e.e.f._.f.C.`.`.M.M.M.M.M.oX_.).L.e.l.e.M.).+X).).M.f.@XOX@X$X@XOX$X*XOX_._.*X*X_.).).+XM.&.m m U m b k b U l 3 3 k l ^ ^ m U &.c.c.c.R.c.k k w l l m l I l l l l m m m U l l l z I z l ",
"l l I U U b b Y I I I l l U Y Y U Y U l &.M.l.M.M.M.) m m m V R R U ) ) E R R g.g.g.g.g.) ) l.g.) l.) R m b b m b R E T b l w b b b U U T { ` U R { -.Y R e.-.{ { G.W.OXW.W.W.R.G.#XW.G.G.-.Y U l k l U U l l b m < < < 1 1 1 ; - O O - ; < 1 9 9 1 < 1 w b b b ",
"9 9 9 9 9 9 l ` ` -.-.-.-.G.Y.W._.OXR.c.@X=X*X=X=X2X=X*X;X;X*X*X).M.).@X*X=X&X&X=X}.&X&X&X&X=X*X*X*X*X+X@X+X_.+X_.+X@X_.`.e.E e.L.{ R R U b l b U U Y U R ` b 0 9 k l l l l l l I Y Y Y &.-.G.W.)._._.R.R.R.).).) l l k l l l w e s s s e q q e 9 e b e q q w e ",
"l l 0 0 8 < < 1 < 1 9 0 0 9 9 9 9 9 0 9 w k k b m m m m R R m b m l l l l l w 8 1 : w e e q b e b b b N V V b b T U U U E { R g.g.U b R R T E g.&.U U U R ` U Y Y I I l k b k k 0 0 9 1 < < 1 9 9 9 1 < 1 3 9 9 3 < 1 ; < 1 9 9 q w s d d d d d T b d e b T b e ",
"; : < 1 8 9 9 9 8 8 9 9 9 9 9 9 0 9 9 3 < < < 3 3 3 1 1 9 w 3 1 < ; < < < 1 ; - - : b T b q b N b b w q w e e b e q 9 1 q q q b l w l b b l w 9 w l l k k m I I l l U k l Y U ^ R U U Y E { { R Y m b m U m l l k 9 9 3 w k w l w 8 1 8 w e e e e e w 9 e l 1 O ",
"8 8 9 9 9 1 1 < 9 9 9 l w 9 9 w w 0 k 9 w 3 w w 3 k k k b b w k 1 1 w e w w w w e q f.e.e.E 4.E E U U U I U R U b U b b I b b I b l e l b U U l l l l l l l l l l l e 1 O ; : 1 8 w w 8 1 8 q w b l l b m b I R U R &.{ ^ R R ` ` Y Y ` Y I Y Y Y Y Y Y I Y l 1 ",
"l l l K I I l l l I I I b I I I R U U b b k m m m ) R m R m k k l l b b b b l l w 1 I b b b U T T R { R U I b l b U R R R U I T b b U b l l b b 0 0 9 9 w l k l e w e w 1 b e w b b e q 8 8 8 9 9 w 0 9 9 0 9 < 9 1 1 9 9 9 w l l l L Y Y Q %.Q Y Y I L Y Q Y j ",
"9 9 1 < < < < < 1 1 1 < 1 9 w 9 b w w 9 k w k k k k w w k w 3 w 9 9 w w w e 9 0 w < e w w w w w b U U b b b l w l b b l e e l U b l l b b b l 0 0 9 3 3 9 w 0 w 8 8 e b w N b e w w q q e e w w e l b l l U I k 9 9 l I m k l z 0 l l 0 h l l 0 h 0 9 9 l l 9 < ",
"l l l k k l b m I l l l k k l m w l U b l w k m b b k k b b b m b b b l U I l b l 9 b l I b U U U U b l U T b b b b l b b b b b U b w 9 1 9 m ^ U I l l m I b b T b d w ; q q 8 1 1 8 e b b b b k k l l l b U R ^ U U U m l l l l l m l I I l l l b l b ^ U 9 1 ",
"1 9 l k k k k k k w w w w w k k b w w w m b k 3 w 7 3 3 w k k b b e l w l 0 0 0 0 9 l l l l l b m b l l I b l l l 9 9 0 l l l w l 0 9 3 < ; ; ; < 1 < < 9 q 9 1 : - - ; - 1 1 : 1 1 1 8 9 9 8 9 l w 9 w 9 3 9 k b b b b m m b l l l b b b e 1 1 3 q q l m b q 1 ",
"` -.c.c.&.^ R ) R ^ ) R _ l.l.) R R { ) l.) t.l.u.@.) ) ) l.e.M.g.b U I Y I U U #.Q ` ` ` Y R ^ { ` R R R U R -.e.R U U b I Y R U l l I Y Y U b l b b U { f.e.g.T R E g.E E I b R R U b l l l I e.{ Y I U U I l b ` c.e.^ U b l k w b b T T b R T R T R { g.g.{ ",
"&.&.l.e.l.@.l.u.@.l.l.) R _ _ V R R @.) l.@.u.M.l.) _ R U U R U { w b b K 0 U U I U K U Y Y Y ` U b l l l l b U U I U U l l l l l I ` e.^ I l l b U b U { f.e.{ e.f.g.g.E g.E L.f.c.&.Y Y Y Y ` R R I l b R U l l U ^ R m U { L.{ R U m ) { m ) l.&.{ ) &.e.S.e.",
"b l b R ) U m R ^ U R @.7._ _ l.) ) u.&.h.) t.t.) R R ) R ) { l.g.8 e e 0 8 I U I U I Y -.-.-.-.L.e.G.G.-.e.e.R { Y R R U Y E Y R m m Y R { -.e.{ { T U { e.{ R g.g.E E { { b U { e.{ Y Y ` ` ` G.L.e.E { L.L.&.` Y I I U m U W W U U m ^ { k l R U R R U ^ { U ",
"Y Y Y ^ &.&.{ ^ &.e.e.) ) &.l.R l.l.l.l.7.R R 7.R R 7.S.L.l.&.l.`.b e l w w w w 0 9 9 l I b l b Y Y I U Y I U l K 0 0 0 9 0 e l e 9 w w w 9 w e U T U U { f.{ E g.) E R V N b U b m I l m Y Y ` -.-.-.-.-.G.G.G.#.G.G.-.` ` %.%.] ^ ^ m U ^ l m ) &.&.&.^ U m I ",
"#X#X#X#XG.&.&.e.-.) ^ ^ ^ { e.c.e.&.&.) T b N V 7.) h.L.L.e.&.^ ) w 1 w l l b b l l l I b e e l 0 l l l l l I I l l I T I I I I I b I T T T R R R E E E e.L.D.e.E ) g.g.7.) ) ) E R R R ` -.{ ^ Y Y Y ` -.G.#.U U R { { ` Y ` ` <.] <.&.l.e.^ _.M.c.c.R.R.K.K.W.",
"{ R U I U R E E R { e.L.L.f.L.L.G.K.K.K.G.G.G.L.&.-.G.G.G.-.-.&.U 3 < < ; ; 1 9 l I U I b l l I b b e e e w e d d d b T b d d d e e b I b I U I U T R R R E { R g.g.g.E T E E R T b b U b U T b l z l l Y e.E b b d b N b b b V T l U b b b e U b b b R R R R { ",
"b Y { { Y I b l 9 l b 0 9 w l l L L W Y L l l l l l I I I I Y ] K.^ W &.c.<.&.] U W Y m l l I R { E b b T T b d d d e w 8 8 q q 1 8 w w 8 9 w w w w l l w 0 l 0 8 9 1 < 1 9 w w w q w l 9 w U U l z l l l I T T I b b d e w s v b l b l b T b l l l b b I I I b ",
"U Q Y.^.'.^.W.Y.{ W.L.` { e.L.W.%.2.Y.Y.2.2.G.G.-.` ^ &.g.{ g.e.l.] W U W U W ^ W W W W ^ %.R. XR.e.b e T g.f.f.`.`.D.e.E E 5.e.e.f.L.e.#.e.G.G.G.-.G.G.#.G.G.#.G.-.-.-.-.` ` ` -.-.-.` b l { &.W W U U L L Y ` Y Y I l z U ] ] Y Y ` ` Q 2.1.Y -.G.G.-.Q 1.1.` ",
"Q Y U I Y Q Y U I ` ` ` -.#.` G.G.G.G.-.` ` ` ` #XG.e.W._.`.f.e.M.oXoXOX@X Xn.c.R.R.n.c.c.c.u.&.c.L.` R e.E U U I I I I b b I b l e w w 0 l l 0 l w 0 0 0 l l e 9 1 8 0 0 0 l l l l l U m U L.G.G.<.c.K.G.2.-.<.%.] W L L L L l Y L Y Y U K K Y Y Q Y L K Y Y Y ",
"` 2.G.2.%.%.` Q Q %.` W ] ] ` G.-.-.#.-.G.Y.Y.G.-.-.e.L._.`.`.`.&X`.l.@.M.M.R m ^ @.l.M.M.u.h.l.e.G.l 9 9 1 8 0 l l I I l l l l m l l l b I b l I l 0 0 K K K K l l 0 0 w e e e : 1 ; < < ; q q l e l b b U I l U U U E 2.Y.Y.Y.2.^.Y.^.^.2.Y.#XY.Y.1.%.%.1.2.2.",
"Y.W.Y.Y.Y.XXY.2.2.#XW.<.W.W.-.] G.e.#.-.G.G.%.Y Q %.G.-.R I U E R ).*X*X*X+XoX*X).).+X`.M.7.7.l.{ G.R U { R T { e.e.D.G.E E #.{ E ` &.-.{ R E R E E U U Y Y Y E E E E E T R U b I T e w 1 ; 1 1 1 1 1 1 1 w e w q 8 q b E #.G.G.Y.#X'.W.#X'.W._.#X_.W.#X#X#X^.XX",
"Y -.W.#X#X#X#XOXG.OX$X$X@X$X$XOX_.*X#XG.-.%.2.2.2.2.2.2.Q W W m w e e b T R ) &.&.c.).).M.e.).&X2X;XR T 5.g.j.g.j.j.j././././.j.{ { e.{ L.g.e.e.{ e.G.#.#.#.E Y ` Y U U Y Y Y Y I Y Y I 0 l ` U T b b b T T T d q : q q q e d d b b T T R 5.R b T R R E 5.g.E T ",
"3 1 1 1 1 1 3 w 9 9 9 3 w k b U U U l l Y Y L L L Q Q Q Q Q <.] e.R l 0 9 9 k l l k 9 9 3 1 1 1 w s 5 5 q 5 5 5 s s w w q q s q e e w < 1 1 9 e e 0 9 8 8 8 8 1 0 0 9 9 0 0 0 0 l l 9 9 9 0 U I K l l l l e e q 8 : : : : : - O - ; ; ; ; ; ; ; O - ; ; ; ; ; < ",
"< ; ; : ; - - ; ; - - < 3 1 w b w w 9 w l 0 l l W 2.Y.Y.2. X@X Xc.c.R.OX XK.G.G.#XK.-.-.-.-.&.` 4.g.4.4.E R E R b T R g.4.N T b b b b 1 1 1 q e b b T I e w l I l e e w 8 8 1 1 1 1 1 w b I E U Q Y L U Q Q Y U U K K K K 8 : : ; ; ; - O O - ; : 1 1 : ; ; < 1 ",
"e e d b b e q 7 1 < 1 7 5 ; - ; q e b b e < < 9 m G.W.W. X X@X XOXOX$X$X$XOX X X#XW.K.K.W.W.OX#X*X&X&X&X&X&X*X&X=X*X*X,X=X&X,X,X=X2X=Xe.f.e.f.L.`.f.g.f.`.`.`.D.D.f./.e.g.E E E b I e 1 : 1 : ; 0 j l l K L Y %.Y Y Y Y Y J 9 J I b b b b l e l I b b e e l l l ",
"I b I b b b b b b b b b w 5 1 < O O - ; ; O - 1 w E h.g.l.g.l.) M.u.u.u.c.R.OX$XOX XR.R.).)._.+X+X_.&X&X+X`.D.g.`.L.L._._.L._._.`.`.g.b N T E E g.N b b b b N b e l b b b b U U #.W.'.G.G.#.U l 9 9 9 9 9 9 9 l I Y Y Q 1.L 0 P L L I U U l l l K l l l l l K l ",
"U U U l l I U I K l l l l l b l e w 8 q 1 - - ; 1 N V V T T R V V V _ R _ ) 7.) R R V R E ) E E T R l.l.h.f.e.D.E E { f.e.{ E U 4.4.T s T R E T 4.g.g.4.T T R 7.R R E E T U R Y G.#.G.Y.^.^.Y.^._.7.e w b b e k b b m Y -.U 9 l U L U Y Y Y Y Y K U Y Y L U Y Y ",
"P Y Y P P P Y L L L P L L L L L l I U Y b w 1 1 ; s v b V V V B v B V v M D 6.R V V V 4.6.g.V.6.V.C.C.4.4.4.V g.C.C.g.g.4.4.g.E g.g.4.R C.C.C.5.g.g.h.C.S.C.7.R h.h.g.4.T V T T T I 1.W.^.#X'.'.}.C.N w s v v V V N N R g.N q w K K K K K L U U U Y E Y Y Y Y Y ",
"L L L P L L J L J J J J J L L L L L l l l l e w e E R V T b w 7 x M u 4 4 M N M s s M M M f f f N N N M V 4.A V.V.V.4.4.V V 4.N T T M a V T R N T R E R T T b k N N b b b b T T E T G.E I E #.E E m q 1 e w 7 s v s s s d 5 - : 9 9 0 0 9 9 0 0 0 0 l l K U L K ",
"K U U K J Y Q Q Y 2.1.Q Q Q 2.2.2.2.Q %.2.1.%.G.` G.-.{ -.&.e.M.C.4.V V 4.; O O ; 5 4 O O O O O > 4 > @ 4 > O 4 4 4 4 4 4 ; O O 1 , 1 1 1 1 w N b b l 0 0 k 0 1 8 b b b T b e l l b b b l 0 0 9 9 9 9 8 9 0 0 8 0 9 e b T T T b U b ; - ; ; ; 5 ; ; - b 0 9 0 l ",
"1.2.Y.Y.2.2.2.2.2.Y.2.Y.W.Y.G.-.G.%.-.-.-.-.1.` -.Y.` E R Y Y R 7.V N v s O X - , 5 , ; ; O O 4 > > 4 4 O o O @ O O @ > 4 > O O - - ; ; ; - - - 1 w l l l l l 0 -.W.e.-.L.G.e.{ { -.e.-.e.E E U U Y Y U Y Q E U Y Y E E E E E R b w < < ; < 7 7 ; ; O b U ^ ] -.",
"Y.2.2.2.2.2.2.G.2.-.-.-.-.` U U R b b s 1 q s 1 e b q e e b b b N b N N R : ; 1 : - - 5 u > O ; 5 3 7 7 5 < < < < < ; ; < 5 1 1 ; > > , , , ; - X - - - - 5 d b b G.G.-.G.G.G.-.{ #.{ -.G.G.L.G.F.#.#.` #.` U I l w 9 e w 9 1 ; < < ; 7 < 5 u 5 : e 1 E c.-.G.2.",
"2.1.%.%.%.%.2.2.%.Q Y b l b w b V N N M f V 6.4.4.g.4./.f.`.f.f.f.g.f.`._.e 8 q q : ; 1 w 3 1 7 3 w 7 5 w 3 ; 3 q 7 1 7 w e b d a a a s a a , - ; , , ; - ; ; - e -.W.W._.'.@X#X'._.G._.'.W.'._.`.L.`.#X*X#X@X_.*X`.L.`.D.E b w w v v N e s v w b E e R ` Y %.2.",
"Q 2.2.2.2.2.2.%.` ` { b b T b b v V 4.D 4.h.S._.S.).M.+X X XOX XW.Y.XXXX$XU L Y Y Y U l 0 1 1 1 1 h 0 9 9 1 < 3 l b Y &.e.G.G.G.G.E b 9 q e b b q w d b b b e 8 b T T E E g.f.e.e.g.E e.f.g.g.E e.E g.L._._._.+X&X+X&X`.g.N b s v V b m b U U R { e.l ` G.` %.%.",
"Y 1.2.1.%.2.2.-.-.L.D.E E e.T b s M M s v v b U m m U ^ W W <.2.2.2.^.1.1.j j J 0 L Y L L L z l l l l K l l l l l I E ` ` %.Q Q Y ` Y U Y R T I { E E E E E T l D.D.e.f.e.g.D.D.E E E e.e.E T b R T b T T U b m V N N N v s b b N E m ) g.{ Y ` G.G.Q G.XX2.` Y ",
"Q Q Q Q Q ` ` ` E e.{ R E T b w w 7 5 3 1 5 e l l l I I L l Q %.Y Q Q Y 1.L Y Q 1.1.Q Y %.%.` Q %.Q Q -.-.G.G.` -.2.-.` Y Y Q Q E ` { R E { E I w w e d d T b e U Y Y E Y I Y Y I U K K l 0 9 1 1 1 : < < < ; < ; - O O - 3 w w < 1 q { G.R.G.G.Y.G.-.%.` ` Q ` ",
"Y U U Y I l 0 0 l Y I b b w l l b s v N k b R I Y U <.G.Y.Q $X>X#X#XW.G.:X#X,X:X#X#X'.$X#X#X#X$X#X>X#X#X>X$XW.#XR.W.W.G.-.1.1.1.#.-.e.#.e.L.D.g.w w e e w e T I K l e K I U Y I E Q E Y E E #.E E E T T U U U T b b b w w b R R E b b L.f.G.G.` Y Y -.Y I Y Y Y ",
"E Y Y Y ` { { { E G.{ e.-.#.U R R R R R R ` e.G.G.^.W.^.'.Y Y.Y.G.G.e.G.'.@XW.W.#X'.L.G.R.K.&.^ G.` U U U R m l k I U Y G.#X#X#X#XXX#X$X#X#X#X#XK K K K l 0 l l l e 8 8 8 8 8 w q w d d d d b T T T U U U b I I U b b I I b e q 1 q : I I U Y ` Y Y #.` Y R Y { ",
"E E R E ` { -.e.e.G.` -.` -.-.G.c.G.R.G.<.-.-.-.%.` Y Y Q K 1.Q e.G.e.R R U I I l U U I b b m R I b U &.l.) ) ) ) l.e.-._.@X*X<X<X#X#X#X#X,X,X#XK I U Y Y Q %.1.E E E E E T T T T w q d d q : : 8 8 1 1 8 1 9 9 8 < : 1 8 8 1 : q q 1 T g.e.` Y -.` ` R Y R E e.",
"I b l b l w w e b l l 0 9 0 l l l l l l l l l l 0 9 8 8 8 8 I K l U Y I U W ^ ^ ] <.<.<.c.c.c.R.+X+X*X=X&XM.l.) h.l.) e._.).e.e.D.f.f.D.D.D.D.E 1 8 9 9 9 l K l l l K U Y Y T I T U I l l K U E I U l l K l l 0 l 0 9 9 w 9 8 1 < q 1 b e w w l 1 1 8 8 9 w 8 q ",
"b 0 e b l w w l 0 w 0 l l l l l I l l l l I I K I K U I I l P.W._.#XOX_._.R.c.&.c.c.e.M._.).c.u.e.e.7.V m 7.B.h.h.7.R g.+X*X*X2X2X1X*X}./././.j.1 8 e e 0 b I l 9 9 0 0 l l l e 0 0 0 8 8 9 w 8 q 0 9 0 0 8 8 8 8 8 8 9 9 8 1 < 1 1 ; e b b b I b l b l b I I T ",
"0 9 9 9 9 9 9 w 0 l 0 9 l 0 9 0 w w w w e w q 1 1 1 q w q 1 b b b b b b b b e e w e s v v e w e 9 k b k w b b 7 1 7 w 7 k l b E `.j.R b d b d b - - : : : q w 8 e 0 e 9 q q q q e w w e w q q e q 9 8 8 9 8 8 8 8 9 9 9 8 1 : ; ; - O ; < < ; - < < 1 < < 1 1 9 ",
"Y.1.` E E R { e._.W.e.E -.Y U ` T E 5.E R T R E f.g.j.f.j.g.j.g.g.g.{ g.E T T g.g.7.E R R V T ) R U R R m R ) ) w m R m b l w w b e q 8 d d e e d b T T I T T I T I I b b I I I T I T d q 8 w b 0 0 9 K 1.Y.G.-.` #.e.e.e.D.D.D.D.f.L.`.L.f.f.`.e.f._.`.L.R.c.G.",
"U L L I I I Y ` E U R U I l R R ^ ` ^ R U Y { -.c.-.-.&.-.&.` R Q -.-.-.-.-.e._.#XOXL.c.R.L.c.L._.G.c.M.c.l.l.^ b U T I R { -.-.%.-.` ` F.1.E T E E E E E T T T K I K I U E T T T U T T E e.j.E #.E I Q W.W.-.Y e.-.{ ^ { { E T R m b b b b b l I b b l l m I Y ",
"1.2.Y.Y.Y.G.G.L.G.R W._.g.{ _.L.$X#X_.R.R.G.G.-.L.G.K.c.c.K.G.W.'.'.W.W.'.#XW.W.@XW.c.G.R.L.e.G.L.&.R R &.R.L.R l U R U Y Y E -.` -.%.Y E Y Y #.F.#.G.G.G.G.D.G.1.Q E E #.G.#.U E I b b e w e U I l 9 l U Y U I U b l l U R U b l l ` -.e.{ { L.e.{ g.{ -.L.G.G.",
"#X X XW.W.OX$XOX X=X$X*XR.) ).).).S.`.).).).`.f.f.f.f.`.f._.e.D.G.L.W._.'.'.'.W.L.D.D.`.`.e.e.D.L.e.f._.`.L.G.G.l E K U I K U U { U U I U U I U I U I I U U I K K l l I l 0 l l I l b I I I I l b b l l l U ` Y I Y E Y l l U ` I I G.#XK.-.W.OXOX#X#XW.OX$X$XOX",
"-.G.#XR.] ^ &.n.%.R.c.M.l.R M.M.f.C.C.g.R 7./.`.j.C.C._.`._./._._._.`.`.W.D.f.e.`.f.g.g.f.f.e.E f.E U b T { e.{ 0 U l I K I Q 1.I b e e e e w w l b l l l K l l K l l l l b l 0 9 0 l b l I Y E b e b { G.e.G.W.G.-.-.-.-.` E Y ` ` -.R.R.W._.R.e.R._.G.&.) &.e.",
"b T E { ) ) @.M.) l.R ) R N E E C.4.R 7.g.g.g.4.g.4.R j.g.e.E { e.{ { { e.e.e.{ D.G.#.E E E E T E E R U U e.G.e.l U l I U Y U l l b R T b b l l l l w 9 9 9 9 0 9 9 9 9 0 l e 9 1 8 9 9 1 1 9 0 8 1 < 0 b 0 l I Y I I U U l l 0 e l l e w l b b b U R T N v v b ",
"U b l b U m m b m m N m V V 7.7.R N R C.h.R T E g.T d I I T b b U U I U U I U T b I I b b b b l e b b b l b U b l I 9 0 e I K 0 1 9 b b 9 w 0 l I I l l l l l I l l l l 0 l I b w w l b I b l 0 l b w l b l l l Y I U E E U l l E { R U b b T g.T T T E R V V T ",
" XR.%.%.c.<.] &.^ &.&.%.e.c.).).f.g.f._.`.L.`._.`.e.b E E E { { e.e.e.#.E E E e.D.e.#.F.D.G.e.e.e.E R E R E R U I E U U b U U R E U T U b { e.e.{ e.-.e.R.W.L.R.e.-.-.-.` ` { E e.{ { -.e.G.G.-.E G.e.e.G.G.G.-.G.-.-.W.#X_.e.R W.K.-.-.-.&.` -.-.&.&.&.] ^ &.R.",
" XW.c.c.R.K.c.K.R.R.R.n.c.c.M.M.).`.f.f.f._._.f.f.g.b I b b U U T E E U I I I U U I I T I I I T E U I U b l e w e b b I b I b b E I I I w E E R E { e.R.#X_.c.e.G.#.-.G.G.G.e.e._.D.e.{ R ` e.G.{ e.e.L.G.#.#.-.-.-.{ { e.e.e.` W.G.K.W.G.-.` -.G.G.R.OXOXOXOX@X",
").).l.) M.M.&.&.R R _ R R ) 7.l.`._.*X&X`.`._.L.`.D.b I I I I I T U U I l l l 0 0 e l b e 0 l I I I U U l w w w b e 9 w l U b U I b T E 0 R R T R E { e.e.) m m ^ ^ { { g.f.L.e.{ g.L.L.e.&.-.&.G.c.-.G.-.Y ` -.-.-.-.Y T E g.g.e.-.G.L.g.{ e.e.R { e.L.).).M.l.",
"l.S.l.) M.M.l.l.M.h.h.7.h.S.S.`._.L._.=X=X&X_.`._.D.e I U E U l e l b e l I I l l l I I I U I I I l l K l l b e b l w w e e 1 q l 0 e b 8 R E T g.e.g.g.{ R m R Y { { R U E f.f.f.e.e.e.{ { e.-.` ` &.-.^ Y -.-.` -.&.` { e.g.T e.R T T T { f.E E e.`.f.7.) l.M.",
"+XM.7.l.h.7.@.l.R 7.t.M.`.`.&X;X&X;X=X=X=X=X=X*X,X`.E E { E R e.e.e.g.E E E E T l U b b T T U T l l l I T U b e e e b T R T R E E R e.e.E D._.e._.L.M.`.).M.f.l.&.-.{ { { g.g.g.g.g.E R U T ^ { c.R.G.G.W.W.G.G.W.K.L.R._._.L.l.<X@XL.e.e.e.g.f.E e.L.`.f.h.`.&X",
"b b b b b b k k m m m R R b b k m b T E T N b T b b w w e e w w q w w w e e e e I E U I T I b b l b l l l b e 8 q e b b T b N b U b I I l b R R U b b N b b b V l l l e l l b b T U b b U R Y Y m Y Y U I I l m U U ^ { R U U U ^ U b b b m T { R R U T R b k k ",
"m R ^ ^ ^ ] ] ] ] ] m z l l U R E b v V V N R R R E R T E g.R T N b b b b b U T b g.f.g.{ R { e.E { E R { e.e.E E E g.f.h.l.l.g.f.E g.f.E T g.f.g.E T m b b b b R E R b b b b T E T b U R R U l U ` &.&.` Y I Y ` ` e.-.R U { G.-.-.G.G.<.-.-.G.G.W.W.W.OX] m U ",
") l.c.&.] ^ ] ] ] %.] ^ U z U ) ) s w b b N T R T R N b T E T I R R 5.g.4.R N b e g.`.`.{ R e.L.'.`.D.L.f.{ R T T E { g.) g.f.`.L.g.g.e.E b b b ) R V R 7.7.R T R E R b T T g.l.R T T E { { { R ^ ` ^ R Y U ` R.W.R.W.R.e.e.f.e.` -.G.G.-.W Y ` <.<.^ Y ^ m l ] ",
"N N b N n k n b k m m ) ) R ) 7.7.R R 4.R V 4.4.4.4.4.4.g.g.g.j.5.4.R V V N V T N g.f.M.M.M.`.M.f.g.g.g.g.E R E g.g.g.E T R E E g.E 4.7.7.4.R b m b m R { l.) R R R R w w w k k v b b N b b b b U R R ` &.&.-.R.G.G.c.] { c.L.e.&.-.e.-.{ { e.L.g.e.g.L.+X) l m ",
"t.) ) l.u.l.t.t.u.t._ ) ) _ g.7.h.C.C.g.g.g.V.C.g.g.g.g.C.g.5.j.g.7.g.C.S.C.h.f.4.S.).).`.).`.S.f.L.f.g.E g.g.{ e.g.E R R E U l b b N N R 4.E T b N b m m m m m U R R w b N R V T R E R m b b m l b I R -.-.` ` ` G.OX#X_._.G.^ ` { { ` R R { { L.f.e.e.e.R b ) ",
"M.M.n.n.n.u.] W %.%.&.c.M.c.c.e.C.C.4.4.C.C.C.C.{.S.C.C./.f.g./.C.g.6.g.g.h.C.`.E S.`.S.7.) l.) m R E R R 7.f.L.{ g.g.) g.f.f.E R 4.R T R R T V E ) ) ) { { e.L.) { g.b R R ) V N m T R m m R R T T U U ` c.G.W.$XW.G.-.` &.-.-.G.W.W.W.K.G.-.-.G.G.W.OXR.&.] R.",
"n. X Xn. XoX Xn.n. X X Xc.W ^ ^ V 6.4.4.V.4.V 4.4.4.4.4.4.4.4.g.6.4.4.6.7.R R R N E g.g.7.l.f.) E R g.l.7.R E f.{ f.f.E R E E R 7.h.f.h.g.7.7.f.M.h.) ) { { { { U R R k R R E b v b b b N N b b b U T R e.R.R.G.I l I -.R.K.c.-.` ] %.%.] ] -.-.<.] ] -.<.&.&.c."
};
