/* XPM */
static char *f0ecf7c9bde54af3eefc2377bcebd8eeQN5vddE3eC4DEkf3[] = {
/* columns rows colors chars-per-pixel */
"128 128 168 2 ",
"   c #4C4B47",
".  c #4F5150",
"X  c #535452",
"o  c #585A57",
"O  c #575958",
"+  c #5C5C5B",
"@  c #636462",
"#  c #666866",
"$  c #686866",
"%  c #656668",
"&  c #676968",
"*  c #6C6D6C",
"=  c #6E706F",
"-  c #70716F",
";  c #6E6F71",
":  c #6F7170",
">  c #737474",
",  c #787775",
"<  c #767877",
"1  c #797976",
"2  c #757679",
"3  c #797778",
"4  c #777978",
"5  c #7B7C7B",
"6  c #807E7C",
"7  c #7E807F",
"8  c #81817F",
"9  c #7E7F81",
"0  c #7F8181",
"q  c #838484",
"w  c #868887",
"e  c #898986",
"r  c #858689",
"t  c #878989",
"y  c #8B8C8C",
"u  c #918F8D",
"i  c #8E908F",
"p  c #91918E",
"a  c #99968F",
"s  c #8D8F91",
"d  c #908F94",
"f  c #8F9191",
"g  c #939494",
"h  c #989796",
"j  c #969897",
"k  c #999996",
"l  c #959699",
"z  c #999798",
"x  c #979999",
"c  c #9B9C9C",
"v  c #A09D94",
"b  c #A19F9C",
"n  c #9EA09F",
"m  c #A1A19E",
"M  c #9D9EA1",
"N  c #9FA1A1",
"B  c #A3A4A4",
"V  c #A8A7A5",
"C  c #A6A8A7",
"Z  c #A9A9A6",
"A  c #A6A6A9",
"S  c #A8A7AC",
"D  c #A7A9A9",
"F  c #ABACAC",
"G  c #B0AEAC",
"H  c #AEB0AF",
"J  c #B1B1AE",
"K  c #B9B6AF",
"L  c #AEAEB1",
"P  c #B1AFB1",
"I  c #AFB1B1",
"U  c #B2B3B5",
"Y  c #B2B3B7",
"T  c #B3B5B4",
"R  c #B4B4B4",
"E  c gray71",
"W  c #B7B7B5",
"Q  c #B4B5B7",
"!  c #B5B5B7",
"~  c #B7B5B6",
"^  c #B6B6B6",
"/  c #B7B7B7",
"(  c #B5B7B6",
")  c #B3B4B4",
"_  c #B8B7B5",
"`  c #B8B6B4",
"'  c #B6B8B7",
"]  c #B8B8B6",
"[  c #BAB9B7",
"{  c #B9B9B6",
"}  c #B6B7B9",
"|  c #B5B6B9",
" . c #B9B7BA",
".. c #B7B9B8",
"X. c #B7B8BA",
"o. c #B7B9B9",
"O. c #B9B9B9",
"+. c #BBBBB9",
"@. c gray73",
"#. c #BBBBBB",
"$. c #B8B9BA",
"%. c #BCBBB9",
"&. c #BDBCBA",
"*. c #B9BABC",
"=. c #BABBBD",
"-. c #BBBCBE",
";. c #BDBDBD",
":. c #BCBDBF",
">. c gray75",
",. c #BDBFBD",
"<. c #BBBCBC",
"1. c #C1BDB4",
"2. c #C1BEBC",
"3. c #BEC0BF",
"4. c #C1C1BE",
"5. c #BFBFC1",
"6. c #BCBDC1",
"7. c #BDBEC1",
"8. c #C1BFC2",
"9. c #BFC1C0",
"0. c #BFC1C1",
"q. c #C0C0C0",
"w. c #C1C1C3",
"e. c #C1C2C2",
"r. c #C2C4C3",
"t. c #C1C2C4",
"y. c #C3C4C6",
"u. c #C4C5C7",
"i. c #C3C4C4",
"p. c #CAC7C5",
"a. c #C6C8C7",
"s. c #C9C9C7",
"d. c #C6C7C9",
"f. c #C6C6C9",
"g. c #C9C7CA",
"h. c #C7C9C9",
"j. c #C8C9CB",
"k. c #CBCBCB",
"l. c #C8C8C8",
"z. c #C9CACC",
"x. c #CCCCCC",
"c. c #CECECE",
"v. c #CACCCB",
"b. c #D0CBC5",
"n. c #D0CECB",
"m. c #CED0CF",
"M. c #D1D0CD",
"N. c #CFCFD1",
"B. c #CDCED1",
"V. c #CFD1D1",
"C. c gray82",
"Z. c #D2D2D2",
"A. c #D2D3D5",
"S. c #D3D4D6",
"D. c #D5D5D7",
"F. c #D2D4D3",
"G. c #D8D7D6",
"H. c #D6D8D6",
"J. c #D8D9D5",
"K. c #D6D7D9",
"L. c #D7D9D9",
"P. c #D9DADC",
"I. c #DCDCDE",
"U. c #DADBDB",
"Y. c #DEE0DF",
"T. c #DFDFE1",
"R. c #DFE1E0",
"E. c #E2E3E4",
/* pixels */
"x.C.F B F B F O.F ) E J E O.F F g c c l.*.F w.w.E ] B F ) N :.C x B B w c B x E ) E F B %.J J J F B J J F %.) B F F B B w B B c 4 r c D c L L F v.} U I T B B x k B E F E Z ] g B ) ) F C F F :.C 5 F F x B J F B C l b B G x B O.&.k c ] c y z x I B :.L E F ..",
"l.F F O.) w.E c O.) B F O.E ) x l l c <.} 5.B O.) B F F ) F ..*.) F ) B E w.B F :.F ) F F _ Z V F ) F F E E ) F c F c ) F I t.F g B c A y.d.t.5.) U w.w x g c 5 Z F c m g c _ E F ..F B y y x w...r.F c E :.E E B B E B F O.G l g e y k F c F ) C B F l.d.u.B O.",
"t.F E l.x.x.w.F F ] F ) O.F ) B B g ) v.v.} F } F F c c A L d.E } 5.F F l.B F l.C.:.O.B ) ] ) F F F E ) I F P B J E ) F B F F U v.U F U F.A.P.M > *.F N N c O.w.) E :.F l q l ) F F 0.F B f y c B <.D B ) m B F F F g c c E E x ) q g J Z l F B x B g A g M c ) ",
":.5.L F O.F ) E c E w.E ) B F c :.B t.F I A L F w.) E O.l.B.d.U :.I.E ) F F F ) :.x.w.E B F J &.B F O.B ) F x B F x ) F g ) B L x c M y.*.F y q g } c M A O.:.C.D.} A.F c B } P E H F c F g g y y H F i y l x c B c l F c B :.E g l x F B c B F B B } B x l x E ",
"d.O.B w.) F E u.w.B c F :.F B c A U F I *.T I A 0.} F ) w.v.D.v.F F F :.w.F x ) 3.<.l.O.:.J :.Z ) F } B } *.B F F B F F L B.t.} F *.T A U T g M ) c N L U 5.u.:.<.v.l.A c ) } E ) D l ) l t F w L B t w w c l c F B E ) g l g w y x B E F B E F <.F L F B M c 0.",
"} F U B 5...u.v.E E g B <.n f F F F :.v.5.*.x A ) :.B E d.d.T.C.F L *.L d.C c I ) ' r.:.E O.B c F c A L O.:.*.B <.*.<.S M U t.l *.F A U L 0.c g v.) A *.} *.u.t.B j.t.l.E B F F C C l D F c B T O.B y l F B F :.x.x.:.g x y 5 5 B E t 5 B t y O.x g N c E F 0.O.",
"O.U E M g ..x.T c 5.c y F F q t L ) E F c F L U :.F N O.C.w.*.v.t.v.d.w.E d.u.<.a.a.r.<.l.l.B x F L E 5.y.*.I N U t.5.M A L L f l A <.y.6.<.<.S B U j.F F F U B.F E B <.x.F ..O.F c B B F l q g t F A g ) F E E F w.q t g g q l D N D g t w g y x c F M B ) H F ",
"O.} F x d.l B ) L I F B c D j E u.:.B x M E F U B m y ) x.E ) :.} v.D.d.<.P.a.l.x.D.a.D.u.u.F c :.U v.j.D N l t M A l c *.f.y.S l x c j...T u.I M A A B D M E K.F E r.F.w.O.C.x.F B B 0...F F N B c c O.B ) F F F F t ) E ) l g y t N N B F c c l g x L ) B T w.",
"c B L } *.t x g B U E l s f 0 l F M F 6.*.} L ) ) :.c c :.B 2.2.l.u.:.B :.E u.u.} u.l.l.3.j.B I E 5.*.5.I g S B Y I S M L t.B.*.N r M 6.N A L y g <.O.F l E :.F t v.v.l.O...C.u.j.:.0.H.O.N j n m 5 > O.F l &.&.E B Z J E Z E F B g x F B x x F ) l w c c c F F ",
"M c F T U *.F I :.E 5.L c x M M F F F 5.5.*.T } u.E B g O.F z l w B g 5 l t c w.D ) T H :.<...A.v.d.F t.v.0.d.x L *.I F S Y S.0.L N Y *.U d.t.B T u.U.l.F :...B ' r.E 0.T y.F l F x.r.C.I > 4 5 x b l 8 p c F F C Z F B ] E _ E :.:.) F ) x l :.y 5 g t w F F B ",
"L s c q c <.v.L F 5.5.M l A I M A *.} B } *.I I D c w t F c 5 > > x g F w.w.B l i <.m F B F v.d.v.g.B.5.:.d.L *.j.L L F S.R.*.L Y j.B.U ..t.*.:.l F x c w B H ) <.H ) ) u.0.a.E x F v.y.x w N i e B y q * e &.:.F J ] F F G e.E ) F :.w.C.w.l x w F w.E B ) F F ",
"T U c l x B j.I U :.U F A L } B l x } x U U A B I B w c :.u.F c F x x F x.w.B @ g O.a.E x g w.U 5.g.L M c B D M L L B M t.V.d.L *.V.N.L.L q ..} g x f ' N B T E F <.:.w.w.F.j.T M B A B I <.y t 5 y x g 5 l l.F F ) B B O.w.C.;.l F B ) l B x B F B F F c B B F ",
"5.5.A g y t.) *.w.x.) *.0.L c S M 0 } 0.v.U F I B F :.j.x.D.u.u.:.R w.O.O.c ) c :.<.a.k.O.c O.E w.d.A g U F c *.B E N B t.*.d.y.v.v.w.D r y <.N B C ) y.L.r...F.a.l.u.l.F :.n w.} } *.0 c i ) E F F q B l.w.O.B g F F F Z E E A ) F O.B B ) ) O.F E _ ) ) ) B ) ",
"L 5.} M f L } ) g g l :.d.B.L l F A U 5.w.F A  .I I w.5...U d.:.U d.t.d.F.B.w.l.} ) F.r.J ) x 5.} B.x.d.v.F L B.x.t.F } T y 0.B.t.F c q s A B M D I :.y.v.l.u.u.a.v.x.<.<.' B g N *.} c c i B :.:.n t E T F B B ) ) J c k u.d.*.E F F :.F O.:.E F F } u.) M c A ",
") } O.t.} ..L A u.l.l.v.w.j.U T E v.O.) E ) F w.w.*.v.x.U A l.L U d.t.*.v.t.U d.I } <.B Z m c x c x.w.E 0.) D F E 9 F E B U A.*.B F F 5.0...} B w.D.l.l.r.v.w.:.F I T 3.:.F <.F } d.C.K.P.} c H F x 7 x O.w y l x ) c t E D.v.V.u.F E x.O.:.w.O.t.} B w s } L F ",
"l 0.A g A U } u.O.) F c B 5.A c F B ) O.O.F F l.F.F 5.l.F *.*.M 5.t.v.K.D x f u.B.j.B F B l m g F E F F F L A F *.c U U :.l.V.U F c c L w...c U ) B y.D.V.C.3.u.v.F F ) F F y.a.) t.y.t.d.x.w.F F E j.n B O.3.) w.e.t 5 :.u.<.B F B F E F x E :.F F y x l c U L ",
"B C c B B D <.I g T A B x ) ) c B g ) :.B F ) 3.t.U 5.P.F *.F F *.L.5.B.w.O.E w.I.u.c ..n ) _ e F l.F U I l N j.j.5.U d.0.x k B N 6.V.6.N B N E d.c l x E E E l.v.x T 0.O.<.<.l.0.3.<.u.y.' w.N F I w.U.<.' x.O.j.t.E E ' :.t.) g x c *.B t B ) > t N B x > l F ",
"3.C B B F c B B l F A O.F E F O.) ) O.O.m.F y u.l.t.d.v.A 5.<.} L T d.u.w.l.m c B F x D w.F B k F w.x.F <.) y } t.j.v.5.F x x F x 0.Y T U 5.T U *.u.E B u.w.:.) x.x y F 3.r.m.D.D.m.y.u.F.D.C.v.l.) T F.l.H u.V.O.M F F c n F I i g f M x y y g t F I ) y # c E ",
"C B ) :.' <.I B N F 5.<.F E :.O.N T l.3.:.B F v.L u.B.v.} } F ) c } 5.l.:.x y p c > > F x.u.r.k.F c x k F 0.B *.F O.F L E d.x.l.H ) j F E g O.x.O.c F :.:.:.O.4.u.3.<.<.u.F.V.D.D.u.:.H <.V.y.x.w.m.3.x ) j.u.j.T F n q F D F U F c ..} L } M B A } } <.T F F H ",
"y t B g x U u.B U L } 5.y.:.c x ' ) E y.v.) w.0.x.<...a.T H F D 5.*.F D 4 5 w x ) E E l E w.k.M.w.g 5 p l.r.r.F y F O.U 5.) j.<.&.O.M.) t 5 E :.F c x 3.l.u.:.n :.c B <.O.v.m.l.F.V.3.) N n f 5 H F O.F H w.' F E u.l.B x F :.x ..F } U F L B A I x c c U C.F f ",
"B B B B c F <.*.<.t.:.w.F c s *.<.F F E I B F D i c x :.C.y.B D t.) L w l x y l 8 F y.E u.) c F w.q e B F V 4.E V x c I u.6.U E V w 4.E B :.F F <.) N B H H D 7 C r.F B F x.U.0.y.v...v.y.) ) B <.<.v.x.<.:.) F x.I.x.:.Z :.w.) U t.B F 5.I *.:.u.F *.} U j.w.B ",
"F I B L 5.M I j.K.v.*.A D F t.A.) C O.O.F x.u.B I :.B B H E ) T F u.T B f B F B l F C c x w.) e E ] %.+.y B ] :.s.r.F F U O.' ) 5 c :.F E F t :.d.O.D C B <.B j <.w.F c E D.F.T E v.j.) 0.D.a.j.v.U.0.x.u.F :.x.u.B Z E ] ) F F B E F H O.F F B t.*.v.*.*.} I ' ",
"r.u.c L O.} *.B.} I N M d.Y 0.Y N F j.D.C.Y.v.3.x.V.B l B F ) C <.F t B ) B w B J c c F F F B e l.l.J g g e 6 Z k.b t B P.' a.4.Z &.l y ..l 5 N :.B > l N x g E E ) C c w.D.r.x.w.a.m.:.u.3.D y.' c E F F y.:.C.x w B B F c O.C.P U C.l.F x g r U } } F *.U F :.",
"..u.} ..A B L L A L A <.} Y 0.A D :.l.U.j.' O...v.' F F B C l.F I u.E w.v.l.O.l.F B F w.c B &.E N F u.m c ] c c F c c ) O.D F s.3.C q i y x y y <.n ' F c l F ) 3.v.m.w.w.<.0.:.B C.a.w.:.F a.:.F x l F 0.w.v.u.B :.&.) F F :.:.U O.u.l.F y M M g A M L F M 3.F ",
"O.y.} y c B g N B F } d.L I I 0.E 3.a.l.<.B.5.0.B t c v.B ..U...t.d.<.:.w.x c c x y 0.P.E l.) B y w w.l.c B p k V 6 u g 3 B 8 y B y.O.F F D F M 0.I g F x g i Z u.<.D.r.a.<.w.D E B y r.H E v.x.E <.c U y.c d.u.B ) O.B F F ) _ F 0.t.y.<.*...T B *.B D F F ' <.",
"t.t.:.E F ..L ..*.*.5.d.t.....V.c 5 B D.U.V.m.w.c E H 0.F.F.D.F.*.u.A I v.w.v.t.<.F E ) F l x w F F x 5 ) &.r.8 a 5 c z B c i w F ' B :.B ) c t N N B w.F y > g B I I y.:.O.x F E E <...F w.E E I I y.t.B ..d.} F F :.F F B F l.:.F B t.} } v.O.) } *.:.) c c y.",
"0.u.) A V.C.0.t.*.d.v.y.<.S ..y.N c ) w.x w.) g F C B F l.u.' ) B x.*.} d.u.d.v.w.F n I r.) ' N x c w > F O.J 1 k k q l ..F g c c y ) F l g B F S D j.F.l.F i q y B j ' <.:.F g f B E F v.l.u.w.L U M } v.U <.} B ) O.w.u.B C :.B N u.0.N t.t...F c A 0.F x c F ",
"c O.F A F } A B *.l.j.V.x.y.u...B ) K.) B F q C r.) j l c n > t I ) 0.w.O.3.O.<.0.a.O.) ..H F r.E F F <.D.&.&.Z.F.B ) B g g 7 q D w F J g F E.B y A g 3.' F B c B i ' I.F.w.r.B ) n w f N B r...y.y.j.v.:.) x.a.:.:.F F F F B x g T w.F x :.' F F *...0.F c B F ",
"..w.L ) M F T } V.C.C.x.x.t.} ..y.E.v.O.x.x c 4.F B F g ) g g :.:.F <.0.0.) B F w.T ' c N F :.a.F <.D.D.F C.C.G.m.F.:.3.F F D H F D B F w.P.I g 0 0 f g i x F c D C.x.v.D.v.D.w.T O...C ) F B F :.:.T ) B r.j.u.u.u.l.F 5 c c c 3.) c H O.) x B u.y.x.x.F ) E Z ",
"<.F I y.H F :.w.V.5.:.F v.j.D F :.O.x B N 3.C.a.<.:.B n F E F g 5 B a.x.l.) B B :.3.O.F 3.0.O.H x i ..j g :.C.u.3.0.E r.J F <.U g g l O.u.H l g D c 0 : t ..u.) w.0.F.y.E :.y.E ..u.x.:.F B 0 0 C F.) ' u.C.y.F E v.v.m...l.:.<.' :.E u.r.O.:.) c ' :.l.E Z ) _ ",
"F n F m.y n :.l.d.T F B ) E u.v.<.g x ' F <.l.) v.' F :.u.:.<.O.D 0.F.u.B B B y B <.r.a.F D j l U 3.F F a.u.w.O.U :.F O.y g x s 5.O.C.w.e k Z y.I f F x B ' :.H B B F c n ) a.w.a.v.F 3.F ..t i x q B C.u.w...l l O.I F.v.<.r.u.F 0 l F ) O...I B ) F w.E Z ) Z ",
"F B x C c :.u.y.v.O.A C.) x 3.F n j J ) :.} L d.3.B ..) I v.C.w.F u.w.O.:.y.D O.:.w.E ) D I x F j.F ) x.&.F } x.u.u.w.> w B g c L <.x.] ] v.) ) F x c F r.R.x.n B :.D q n C.C c F j F ) ' H I D y w g F g F B F F F F x.H x O.' y 7 c H g t F N l.V.l.O.F F C J ",
"c B B j v.F :.v.:.E <.x.) l B B g O.B F E B C x.x.x B E ) D l x <.x ) ) B 4.&.F E <.F B u.l.x :.j.<.} O.F c ' F.V.l.' B a.) y I u.w.) ) N :.O.B y B F r l *.5.T ) B D N F B x ) B x I ) :.T F c c c j :.F c F ) O.F B g c x ..c 5 g j.B F F B j x.O.F F B ) F F ",
"O.) ) u.L.w.F j g B B a.l.F F i N O.E 3.u.:.E l.E.F O.) F :.F g B 5 t g g D <.j ..F F H <.<.U C.v.d.*.D D E T F D B x F ) F E B I C.F t x <.u.F 5 B n 0 x c w.C T :.B x F ' l.w.E T g B a.y.' B T ' T F F B <.) :.:.:.<.O.c B H E u.' O.N O.l.F.<.F g B l.F B F ",
"E ) ..F F ) j.F x.B 0.a.l.a.l x y.r.C.y.g O.U.r.g j C.B q <.<.) O . w 4 y x 5 n c 5 B ) <.w.F.0.I <.A c B ) O.N 0.r.T 3.T w C c g n r.B D <.F.F F 0.x y F <.H x 0.D.a.l I x.u.w.j n O.B w.x.x.C.w.F F ) F F I w.u.l.u.w.<.<.B c v.) ' m.F I x B w.v.r.E F ) F F ",
"' <.O.B :.I w.<.L :.A B d.v.F l D.F.H B ' ' D.' w <.F.D.l.v.H g : y q & B :.x l.( C C f v.T <.0.} B F <.' H C B F w t c B B 3.D y y F l E C.v.) l.T c 5 y F B : F 0.B y q D F.<.) ) F.x ) a.P.x.N a.E r.m.F ) u.D.E l a.:.) w.I ) c N T :.B 5 c :.y.' ' ) :.F c ",
"u.x.r.<.l.V.x.E d.d.F *.K.B.:.F u.D.u.F <.V.y.u.j.<.w.<.T v.C.:.I 3.B D ..F E V.0...<.g F N <.T U A A <.O.w.l.c E y C O.a.<.r.x.u.) l x F u.) B w.) E B ) F F t c ' <.c F y v.x 0 5 g t H m.H l c w.O.3.H a.O.) x.F c l.) B :.<.x.l.) H.F.' r.w.l.a.F :.3.B ) F ",
"F.v.F ) 3.E E l.U.x.j...M F I s c v.r.7 g U.) 3.C.) O.q c a.0.U.x.O.x.F.) y F :.n c N c 0.V.m...U B f B x.w.B E ..:.w.E n :.F c T F O.O.H F F O.a.T C.u.E H ) F ) l.r.B F ..F ) y t B B g n N ) T H E l.U.:.F C ) F ) 3.' O.m.m.x.l.C.C.D.V.' T T :.I ..<.O.<.I ",
"O.<.) T w.w.x.D.K.P.L.5.L } 5.<.) ' y * I U.l.c ) F F B F F E w.w.) u.m.l.' <.C x y i c 3.3.) E g l c 3.m.' F I = g F x j.<.B B E l <.F F E 3.C H E B > > 5 t C ) O.3.w.O.v.E H :.' ..a.3.F <.B <.3.l.I ) w...F E E x E ..x E O.) H F O.u.w.l.F $.0.O.F ) j.F j.",
"N l.u.w.u.E O.D.D.d...d.t.U j.K.l...F ) B v.O.D 0.' x F B :.U.l.c M <.u.I M B 5.4.B F B ] ] x + t F w.m.C.H l B y g c :.r.y.c I F O.B j ' F F l.n F X 4 t j y F c c x C I 0.:.0.F D B B w.C.:.F u.u.n y ' O.u.m.F O.l.<.) ) x g ) ..c ) w.3.' O.3.F <.E ) <.H ) ",
"B w.:.l.u.) :.U.t.5.t.d.<.0.j.t.*.} F :.<.O.B F c I ) n B C.O.g c D B *.*.:.E F V 4.j 5 F ' w j B x ) C.O.B B x I g B E :.B O.F w.r.B E 3.F 3.O.c F Z E C 1 q m x g l n F B ' :.' N D ) c B c :.x.F F r.<.I l.:.3.O.) ) ) ) F D <.0.T O.T l.) u.F D g B O.E :.E ",
"B :.F F :.O.w.r.w.w.P.B.t.) E F 5.T F M F I l.:.F d.<.0...E F E c g B U } g N j F c 4 B a.B B <.F t i ) > = l n B x N w.x.l 7 Z :.7 5 <.) H F F g B H.C g ) i B N c F :.F n l x B q y n x ) E C.F.v.N B ) c ) F 0.j.:.O.w.u.3.N x I u.B x l F B c F I B ) w.r.E ",
"w.l.F F ) u.C G P.C.D.C.u.F l F } } 3.O.E F F ) B.O.a.L.3.B W E O.j B E N N F y 4.' y w c ) E :.T f B A I u.A y q c D O.<.B Z g q w > w B B B c w m F ] 3.m.F ] F ' O.F n :.T D F l F B ) F <.v.F B <.3.) E <.N ' a.E O.l.E ..H g D B B C t F E 3.0.c B ) E <.c ",
"O.w.B B O.E F F G.D.Z.2._ B F &.w.w.a.O.E B ) F D E ..4.F B m &.x.i g D N <.n J <.y 4 x c v.x.U E x s x y.E c c x N g D F <.c y f ' N y ) i g l c B F N F F :.j ) ) N H ..c c x F ) 0.B c N c O.n O.L.j.w.O.x y F r.F F 3.I B B t i g ) g l O.3.x.m.w.0.T u.B g ",
"w.C.:.O.O.x.B ) w.w.O.E w F C k J l.B F B H d.V.' j x ) k i h &.v.F F j.3.E <.H N c y c ' w.M L B.A.0.*.v.F.j.} ) T c q 5 7 w g g B F y D I D F 3.' H c x g O.:.:.B H x c y 5 g F C.v.v.B g c B H B u.t j ..B C B <.E E ) T F O.B B <.D y x F T E B H c ) N F B ",
"O.l.) B ) F F l.:.E F F u w 8 1 F B B y c c L <.I E r.H B g B b F I F C 3.3.7 X q y x g ) H F V.w.x.K.*.:.u.l.w.w.c <.:.g c q n x : F <.m.r.:.:.3.x.C F B <.) u.) O.C y 5 t B l t D x.f # g c x x l g t ' c c F :.F C B g H F E C :.0.F E B F E B H E B C H E B ",
"F :.) E ) B x l.u.) u.F B x @ B m   $ y x s g U H ..H c B O.O.E B D f f j F g i F E F n H n ) g w c F B a.E C.l.c x T ) B x c n F 5 B O.0.F u.) w.H ' 3.H v.w...E F g g 0 q N B y g ) l > w 5 g c w.H C 3...) F c x B g 0 B ) :.O.l.' B f x <.E ..) f F l.y.F.B ",
":.F.w.O.w.) ) x.t.F.r.B l.D c c 1 p m B w.} F F q q c x A u.*.u.l.u.g B F n k m ) F B c 3.F H H l x F F :.F B F C O.F D I :.D.O.H j.F t c x g c ) ) <.) 7 g ) F c F B D B B F C y x F f B y q w n 3.B u.H E ..B F ) w.0.T E F w.r.:.:.) x E :.u.u.j q y ) <.E B ",
"] x.O.C F y c C.0.y.E w.B t t.*.J F x c :.O.O.F n p c b F w.B F C.C q N D x B F B F O.F F O.r.F D w.O.) l N x > g F F B c B F.&.F g t g g H 0.<.F ..c f D ) c n B - 1 f H n ) ..x c q 5 B B x B C a.B :.x.) O.<.F.H.u.] :.F Z F ' j.C.} F F F <.D f B c ' C c g ",
"x :.B ) F B x E B y c B w O.O.B B k N ) N w q B +.k g B O.:.F ) ..B 4 0 0 5 g F F w.B ) F c B F O.F O.F ..x & = t l O.x x B l.:.F > q 0 q x B x t i B y x i c i y X g > C j B F q > 5 g F ) i c ) j.F F ) F 0.j.<.L.F.4.J &.E E :.H.} t.O.F r.V.d.N y.E F F ..x ",
"y :.j I ) F g F F f B s ) P.D F J F c F F N l E F * @ > l l x w.u.' x q c y ' F N F ) E ) ) E r.v.v.r.c x y t t B F u.E C ) B ) ) t c B I E c g c g c ) x x B F k B F w t ) D B B F E F ' B F F O.) B y q c T 0.<.3.4.F B &.4.k.r.Z 2.u.F O.H.3.I E O.w.:.r.&.F ",
"y F x F y w q F A g B I ) ) F F F y c M *.3.x c p q B E ) B B E O.F n x B F 0.c D B B ) C.w.w.v.D.a.3.) l x x c B C <.u.O.F g F ) O.v.O.y.l.B 5 x c i :.H v.' O.q m F x D F B ) ) u.H ) ) F O.5 D F n y.C w.l.:.F B 8 c Z r.4.s.J &.) :.B B F E v.c B F ..n g y ",
"x F ) c O.t g F F L d.) F c * 5 w B E B E x w l q q F x.E c F Z B x B D B B B p n f g B :.x F E ) E ) B l I w.r.) B l B B B c F w w 3.) N ) 3.c B F n B C w.E ) g m t c C n g q g ) n y g c B j c ..l * F l.E B p q F J J ` 4.2.E r.y z u.x k 4.:.B c B H B B q ",
"O.O.F ..<.O...:.I 5.*.D H B y q y c <.D D N w w g p :.E w B G e * g ) c N F c 8 f C B c > l u.C.:.F H c f 5 D :.) t y F F E I H j # g J i B c j B B j x g O.c g O.q x F :.0.g t n l B F F l ) D.r.C B Z l &.u.E Z 4.m B G k b m { M.B > = j F F B B B ' r.w.m E ",
"T v.:.m.j.T 3.l.C.j.F N g c c n F ..} I F c B B Z k q 5 x B > 5 p B O.d.t.t.J E ..) F B ) q F F x y B c I c B ..B F F c l.n g T J c F u.m F i j y H u.w.c ) y i E x B B C :.' F H F g B I C.l.w.4.' q e m O.I.F.F F B g G Z %.4.2.4.t & * 4 O.F f y c m E ) E :.",
"j.d.I T I t 5.d.w.F x x w.t.t.E u.j.v.<.....O.y 4.c & g B > 1 g 4.w.l.*.U L &.] <.N F c ) l.F g y E 7 > n j l B c L F F O.A B c ) c k B <.) n y x g E B E B j O.&.F p g x g l g B B F B c ) ) F F Z H w g 4.n.r.g 5 F k b b.4.4.J r.t x L 0 B B C g n g c m m F ",
"u.w.F v.:.) O.c F B 5 g k F A.l.d.j.*.t.a.v.x C l.F w x T c i f F :.:.w.x.B B F B B B c B ' C c ) u.) l u.H g g t c E B D F I c w i y w l 5 @ @ t x t 5 5 5 g B 4 t ) ) q c F g y q F F I y x B F l j <.B H u.B F E E c k 4.4.1.k m ] C i x B k D A B T O.F B p ",
"u.B l F t.l.c B E F q Z B E t.w.T L F E F I B l M y.I l A F L l.l x ) ' ' u.w.C l x y g B B F ) l.) N c j.B I F g F c c <.B g y q q i c O.5 g g F F :.) O.F B g l F I ) ' ) B B y B B F O.F x ) ) x j c c E v.B O.F.E c m a 4.b.G B m F <.3.E J F <.l.H F ) x k ",
") ) F B U } ) E F y > B l B A l l j.v...q t B w g d.B c g B F } x g ) c 5 <.E q ) ' B F F F I B D n l q g B l k c F I x.H B w F ..F F I I 5 5 c B c ) O.E F B B B F g I a.v.) E c c c c B F B n 0.F N C ) B c F U :.c m s.V 2.2.r.E H E F O.k.J J w.:.O.F F > l ",
"E :.F B E O.w.F g l m F l t l B t.j.' B y l y n *.d.v.} x F *.E E x B N y :.B & E H C ) B F ' x c c B ) 5 0 F c t l.U.B B f g w.B N F i 4 7 j B ) w.F x B ) E O.t c F I E E :.) c l y F F :.F I w.N l 3.g B B I 5.O.] Z ` B B E w.' c n m B J m E J &.] V F F F ",
":.w.} } O.v.:.x.E g B s.D.x.x.:.r.l.F ) :.O.B 5.A.B.5.*.B w.8.l O.) B ' O.3.H j D l c <.B B c y A i D q y j c ' q w C.w B C n ) B T w.0.<.u.u.r.a.F ) ) ) O.l.' <.3.<.w.E 0.F N ) ' F F B B f t D x.x.F F F O...U m ] K G J J w.E E c c c B Z B G Z m m Z E :.O.",
"D.C.K.! L t.) B ) q 5 B 4.:.*.O.F I j B j.d.:.y.x.w.x.u.l.:.F c F l.F B ) ..<.F x t x w.w.O.x x M y ) g F c N H B B u.B n C x D F y F u.F B B ) n y y t x B g g i g B l j n B C F ' I B D q > 5 t E V.v.O.O.w.H p F F.` m ` k.) B ' F E w.r.F F F J ` r.Z F ) l.",
") L E d g *.v.*.) l 5 8 g y y F F ) l > y T d.A.:.B x.x.:.E t F O.c w F :.B c ) ) B ) l.C.C.:.u.O.:.3.F ' <.a.n B y x F y.:.F a.j.c F N T F c g l ) F q * x y t l t j ..F l n a.<.c l T j t c H c H T <.a.O.B F c c J m a a B F j.O.r.r.B Z F ..E J E m ] J E O.",
"L U L ! L 5.B E ) 5 w m B F U t :.w.4 t w * B *.u.&.4.s.c g J B c B ) <.n x B <.) Z :.x.l.w.l.P.B.C.H.C.E.F.' J g g w i B n O.T ) F B c j N :.F ..n g B ) F g q g x g l B j c C l y c B c B O.n T ..3.T l H F Z F b K k v V i C ] E &.G m &.I E t.B g i ] ] w.c ",
"0.T A E *.L L *.U F c F p t l F E t x c B g B B U A F :.5 8 1 k B C :.' T l F k g l B x.G.s.w.k 5 t q x ) A.A w.n F N F H O.I ) 4.g c B m B Z B 5 5 p y x x c x q y c F B O.C.B y g H n c D.p $ g 8 1 y y g y c T E ] k k 2.B x F O.&.k J m.4.D.:.y B F m E B c ",
"F F D B T F F F L B x O.] l B L F c B B c B ) :.*.5.F w k F p g T D.) I t.B y 7 B Z g x F B c @ - y * F F ) x B <.T N i g B B 5 5 k E g B g F E c Z B B C N c c c F ) :.O.u.D.w c c k B e g c c B 5 t c ) E x l B g ] g p Z F O.O.E F m p m k.l.:.J J :.s.l.) c ",
"x B L A 4 *.I I l F c l O.:.F ) w.E F F ) F c :.E B l t F O.B l M F U B g t w 5 c y c - @ g 3 6 g 8 x &.r.F B ) O.y.u.B l x B i c B c g q 1 F c F F J F q I N F O.w > B O.l.l c O.<.B B B l B O.u.F c g x E O.x g y Z k B F H C B ) O.p y p F x c k &.O.B g J l ",
"5.) F c B U } F *.5.:.) F O.F x ) B c z l.E F ) a.) D w U L 5.d.N M N U ..) 3.F e 5 F O.J g B F F k p r.s.r.H n <.w.F F ' j.x E s.m E c q 5 x ) O.O.F f B F O.B F g F :.:.t F ) B a.' ' B B ) g q l B H n :.x.F y 5 1 8 g B m 7 w c c W y w F B x u g g J l l x ",
"d.U B x B F B E *.l.t.B.E F O.F x.C y ) u.u.O.w.c x L T U B L } *.U x } O.<.<.a.) B E c B E M.] y g * s.P.r.n c <...g C N l <.r.F y B F g ) c F J ) B ..) <.) F u.) :.) F O.) O.B C ' F <.3.x.B c l ..P.O.) O.r.T w 5 e k E B y y y y u.J c c c F Z l c l F E O.",
"F U F A F x *.<.B 5.*.5.B.:.u.r.l.F B :.l.:.x.t w q q <.F l 2 0 O.F B A l B T D.a.) F ) ) :.) :.x O.B B a.<.c n B F B x c y B B y Z F F 4.w.O.&.F c * 5 g q = i ) B ' r.n B 5 D l l a.n O.l.w.H B t x r.T x H O.c m m g k p y g n j F B p 5 8 > c c 5 5 > w B F ",
"F F A F y.B l D B c L O.A.C.C.s.P.c E F B ) x q F H :.y.D g c l l B g l F <.V.u.F x H <.w.F B u.O.u.F c F F F J H w.F F n E T B p B c m F &.&.] B e B c N g n <.F n t x x g q 0.O.p y c l C c c B x g E ' I F.l.' a.` V ] B m B ) a.:.' &.m c q q 5 8 q p q g c ",
"I :.5.d.F g c L c B x c ) :.:.) E E O.:.) w.w.O.F v.:.B ' F H H j C C x g w.0.n x B D F B B F c B B L :.B B F x c <.:.E ) ..0.F > c 5 q k k m g * 5 c F g l L.y.c g j B x w x c F k c y n J k c <.) B *.U <.v.V.O.Z &.] Z m B H B N E B ..O.r.l O w ] l y B F B ",
"u.u.C.l.B F N.X.M M M D A 5.F 5 B ) y E ) O.5.x B } F F c l B F F c B s D *.5.B F l ) B F A B B g B x.C.w c N 5 7 y ) B c ) c x F B t g ) H l & 5 j t C C F F ) u.F.u.B F F B g c C g j k c B q > g F B I n ) v.m g m g q B c ) F e ) F D :.} } f F <.C ) B w <.",
"l.u.l.t.} 5.U X.B g F d.t.} c B g r y c B A B c F 5.B B c A O.v.U M ) B y B A c t c O.B F } L O.:.c F x y B y <.:.B F F F E g B B F c x.) N B q t B x B <.O.O.D :.x.V.) H F B q D F H c q g n c * 5 j c F E O.l y q * 1 w g e Z C c j n g c ) } ..F.w.<.x c B B ",
"F E u.w.x.5.Y } O...0.*.U F x F c c A L *.:.E F } t.v.:.t.:.*.y.E f g c B 0.I 9 0 q U x g F E 5 g x 5 > t y 7 x F w.l D H w.j g ) l B <.' t x q 5 @ 5 B m n i B t B ) O.B T y.C c B H c w n H ) F g B D O.w.B y 5 > p e t B x q F F x.w.c N y.B O.u.) ) ) D I F ",
"B B :...y.N g f F F F I F c B } A A c Y *.E ) ) B *.F F L F F d.y l N M B s g y B ) A A c O.E c F F B B F ..F n n 3.N F O.F D t * t :.V.O.q * @ o o c w.J c p B F 4 q I F :.I v.F O.x B ' x 5 y c ) H ) H C F c 5 t B c F <.n B x I O.u.r.F B C F ) F C a.T H x ",
"F q F } c l q > x 2 q F *.} ) A B B F L F w.F E U B :.:.F A L 0.<.g > 2 U B B F ) ) l ) c c A L u.) ) F F T <.E N H F ' g x F c B B c 0.' B f N j n J ) H m.c m F F x c g c c c p ) T B n g y w c F D ) T r.F.} :.<.) ..F 0.:.B N g B l C :.<.H F F t D u.F B E ",
"c F 5.I T F x A x F E O.D.C.x c g N L N B 5.) B *.5.*.B *.x E D.F.l ; M B M C.B l u.B y F P O.F A l.:.F O.F T i B D n g j l F l ) f w l j q y F F T H F 3.' 4.) B x :.F q w F B j B y.F F E B x n c F F ) y.w.d.<.E ) F <.u.v.E H F g c q F O.F F B D ' N F ) F ",
"E u.*.l c c ) t.u.5.l.l.l.E.C.x.w.*.E T } U :.O.t.v.} c c N A j.A g y t 4 g B L c O.x x E w.) 5.O.O.E u.l.B y g B <.D F l g B F 3.E E F x x B T 3.E ' O.] r.r.E B c x q w 4 4 w q k E B H F C > q l g n F F O.L F <.:.t F D B l y ; > y q 5 y B y g ..O.' H B F ",
"w.F E ..F } F F w.u.u.D.x.C.u.u.F.l.t.u.T B E O.B *.O.E F E O.) A U } 5.F A } ..:.:.w.w.F F c B } x.u.) w c B ' ) F I I t B D F F I B O.w.F :.T c N H H E r.<.E l l <.n c F 0 l g E t g t.y i * - 4 t g w i O.U x I n B ) l y B l g l t y B B w q n F B O.H H ) ",
"F *.:.d.A F B F l x c O.) w.a.w.x.O.j.w.) U l.} 4.P.F x } L t.5.:.G C F E :.O.l.B.l.l.C.F F F B x.C.u.x t w 8 k c g w j q l C F c f g F E <.V.w.F E j.C.u.H F c j j m.u.w.u.c B F B B F <.H c j y q g g 4 i F *.F O.B B I x B I n ) 0.n F D y q g c 5 5 f x c C ",
"F u.O.d.l.t.U d.O.x E ) ) I F F.T E j.E B } t.d.l.:.:.t.F E 5.B F x g B F :.E E ;.;.O.x.B ) 8.5.x.&.O.E ) F B i g t c B 0 * C ) F y B w l B O.B F O.c g ) F n c B g Z B g F N T F N :.F j F ' F C ) B B g g f t B B :.<.x B f g F F F c c B n F i 7 > l C g w x ",
"c B B B F E x E F F B F B B B N E ) x I E *.:.C.C.w.x.w.O.L } L u.E F O.) :.F B F t.C.x.w.F u.t.D.l.l.O.B y i c T C ' T c * 5 F...f c B w j c F T w.' ) B g l l F j @ q 3.C c F B 3.<.n 3.F F T F E F B ) t l M F y E <.F c w <.I <.T ) ) F F ) F n <...y w y B ",
"F :.H j.D B c 7 y F F :.x.d.L w.) F x 5 F w.x.w.B B ) :.l.) E L _ B b B y c y F } w.F.O.F l 5.) F m F F E B j ' B F F i F C x 5 B F B g 5 t c B E ) F B w C H x y C ) ) c C x 5 w 3.H F c <.F g ) f x x j c y F C.x 5 w B q 5 <.c 5 c B w.r.F O.' x x.j.c B x D ",
"u.u.F ' I B * N c l F B ) :.<.v.y.B B 5 g ) g F g B r x B c F B.w.x.x l l F u.) I O.) F F F ) ) ) F ) F F n B r...D C C c 5 y y t g x j 5 : c B B B c g l N y j g f F l c ) E x g D y.f w c F x x c x w B c l B F g X 5 c T B c f q > 0 v.x.E l.T B <.O.F ) B w.",
"I O.i F 3.F > ) x t c ) E A ) U M } *.E E c F F O.L B F L } 5.E.P.E F F E F E O.O.B B L L E E Z B E O.u.O.c m F T ) B F C C g F x c B E B ..<.N B H v.F g g l l 5 n c c y.J.) F F w F F F D <.) m <...O.x N F B F F g B x w...F D I c j :.) y ) w.F F :.F E y.F ",
"U *.M T ) } L B G u.2.F L ) B *.u.0.F C F u.) w.w.E ) L d.w.) C.x.E u.O.B l l g y t g B t.:.] m g B B O.c g ' r.l.T x F a.' n l g E ) B F I D F x B I I u.) B F c N O.F F u.E 4.w.c l F I ) ) I H F m.<.F E ) :.c g O.E C O.w.m.C.<.F B w 4 g F ) F l F O.F E <.",
"t.O.A L 0.} c *.P.r.O.x M L w.B.y.y.:.L ..x.) w.*.O.w.R s r x t.l.) F c t ) B > D N s B L :.E e c w c w.y k 4.F H E I F n c = q x B N x g x C g l g g ) y.w.F j f H g c F :.l c x f F F ..E c O.E 0.l.:.H I ) <.E q E C B 3.y.O.<.O.r.g g C F ) ' B N O.H F O.' ",
"<.u.E } A M B *.t.y.} x D s 5.:.c I ) c T } B c <.O.C B t A s l F B x ) x U U U y.Y M D B F c g F c c g l c O.i m J x g y l e q w 5 x x l F x g w x a.E T H ) g B <.O.I B ) c B O.B c B <.' I F D B y.0.) B j ) F H O.I B F ) H D g c l > B x t B B t B D t c F ",
"*.l.) r B B c B B l x D l c T } <.B t l c 5.g y F B > y B c f * y O.B O.F I g ..d.U A c H c t x B E y w q i B r.x B x c q y e u q 4 4 i x D B D D ) H C ) <.F O.B B w.D B a.x.F I H y i x B B y F c O.F O.c l F ) E E N f j t 5 x g g c N c N B c F B l x F x O.",
"t.5...5.L 5.) :.t.D.*.B B y T T U ) g g l B l t g y g T I :.2 > x F B x I c M T y.c A B c g B w.) ) E c y m c F r.E g p 1 g c w w ) 0.x F B F T <.<.F t F u.O.w.F c F g c a.v.) B n w g x x 0 B n D c l l t F B F B B t q j 5 q c c c F ) I t N F C F ' c t F F ",
"5.u.U N D.C.5.v.t.d.} F <.} B l I *.B F O.L L } c B D } L U E ) w.F g x ) x q y g t f g 5 t F E T c l.w.J u.) c E O.F :.l i F B F H m.B I c f c C F ) B ) D a.) g B ) n B ) n t 7 g <.<.q j ) l g B B C N c ..l.F N B B g B y 5 f B t c C I y g B F <.) c q B E ",
"B U B F F F B *.D A B B c M s } U M *.F :.I ) A B F F N B B 5.l.F F F w.) F D I y F c l B ) c g L w.:.x.) H B ) ) u.:.O.c n ) B > g j.) f H g f j E V.C.r.F F x F t w c B x i 5 y :.x.C F B w q > D F g F D B F y F N F c x B B ) c D B D ) u.F F F 3.O.:.r.C O.",
"E d.L L B U } 5.} O...c N x D *.u.F O.:.g ) w.) *.5.d.B :.A <.d.O.) t.8.O.T F.V.:.F E ) :.l.B g F ) B :.x n B M E :.l.u.E C B F y N u.y l f x j c E ) F 3.3.I H H E D y w.l g y x w.4.B g > k 8 c I y 5 l i y g g x g D ) F B ) ' F E F :.C D ) ) l T E c B F w.",
"} F F d.F I } u.F M <.N c F U B F B c w.) ) } B F L 5.5.d.w.} U } U A ) F B F D.F 5 c ) F E F f t T F C B q q g B F F F B c B B g D c q g c j B E w.c l F g l 0 g c y j g B c g J ) J k 5 > p e c c x w g n t t O.x H ..B B B C F E f H <.l c B B c ) n x B D E ",
"A x ) v.w B *.d.:.E T U t.B F B u.x.) :.D.u.B c y s } T T A w.B T ) l c 5 l c C 3 > l O.w.u.) g y L c F ) 4 t r E :.c F y > f l F n f i x 3.E F x c ) w 5 x F B f F ..x x H <.g p B c q e k g B c x x q B y c F g F F I F B B x a.<.7 B F B D F F :.D B B F B B ",
"D N B x B y.<.F :.) B B B T M c u.j.B 0.C.r.B y B c g A x U B A t.F M c D ..c l c f ) I O.f s l c q B x x x ) B F T F w.B g B c x x L L x ) &.Z B F E O.c F F x y B O.x F ) E t > x n x 0 F D F t t q y B l B l q ..:.E F g q g } ..u...c O...L I E N ) 0.E ) ) ",
"D B B F C.3.D F r.n N B r r c } ' F F l.F.l.<.<.5.U M 5.c L B } 0.E B.<.B F F F D *.F...x g 4 l F L F B E B ..O.w.' n I a.) l F N F *.F O.O.E E l.w.F B O.E O.B B B ) x B e.x.x j 5 4 y.F I F q y x y w n n F c g ..) T E C j i M g ..F n B N A l g t n c l I j.",
"H T E u.O.' :.l.F D C T E F E E E O.' v.m.:.F r.w.*.0.<.} j.U B F F A.5.F *.*.B M O.j...) ) B s M O.v.B B c B ' O.F ) E l.3.B <...F B D E F w.J.C.E B F ) z y ) x y x F B ) ) x c q i y F <.F B F g e i 7 q * g B n B c g N x j r g c I g t c c y x n B c c B 3.",
"<.j.E B T ' H B l E ) I c g L s x 5.L w.d...F l.d.5.F F B L ..I :.*.y.L B A B f L L F g B g M } F M g B F F F C T E u.x.I B <.B t n l C i F 4.O.E w.B &.D.) g l :.B g F C y F B w :.:.T x q O.) l q m k y B B ) x w y j N c t g s F I t 5 w c g g c ) F D E B F ",
"x.V.T l D F B F x B c ..<.F I B 5.0.B ) d.<...d.} F } } F A ..S.5.) f x U U M x M F B F i y L F x B A w.' O.) c F w.0.E v.0.B B 5 > y N E ) B F E B B B ) F l q B ) l > l B 5 w B x.u.C.3.y B > t x B F B F l.O.F O.c F E i y N c T T f x B F L F x F F c D F E ",
"u.D F :...j.O.c N T E ) :.w.L } d.0.t.M w l d.*.B A T ) T D B.B.L B y c U t.} M q l <.E q c D B A I F w.l.O.x O.w.3.x.F F O.F 0.i g 7 C F 3.0.l.D.B t l q w ) E E B l ) w.w.O.w.F.F.l.y.3.g g 4 ) ) g m m &.F l F u.) F B x :.3.g w N B c U F ..I E B ) w.' B T ",
"w.F E y.C.u.w.F ' F :.3.E F B F T t.U B F c T F.5.U B A M ..d.C.N B.y.B B c g L Y Y L ) ) F M F A c c u.j.:.u.C x g y y c x F n y t O.F w m q i y F E O.B B F s.:.F w.F O.O.l.) O.v.I ) :.T j C.C.) ] E &.F B ) ' :.w.3.I F a.) N s x B c B 6.B B C ) F g g B T ",
":.:.C ) T B F O.O.4.r.) ) F T F D y.L d.0.) U c g B A E F O.:.F s l :.L l c F I *.F D O.F :.w.*.B B A E l.F B B B q 7 5 x q l F g 7 B g q j c c > g E E ) F ) g F ) E c w ) F c F T F H ) 3.' v.F B &.] 4.4.:.) O.E B ' I 7 c F *.f s D I *.M M B F ..N j c y ' ",
"l.' F *.U L <.F.B.F c H <.) y.r.} L L } B M B t B U F v.) B F i F B F F B ) w.B c l A *.A *.B.w.u.l.l ) B g B l l y f c g y ' a.c g x 5 > m F u B B E F B B ) :.l.F c B B ) B I :.w.c B w.a.m.F F g B F :.F N t B M c M l y r F } F t B 5.w.} } ..A T A F B B j.",
"F D L F U <.u.w.F U x c <.c 7 x l g c ) g l c g B M O.I.j B N j B F u.B :.u.l.y 5 x I M D U T L u.x.F g x l E u.y.F l y @ E l.:.B I C q q c g p w u w ) F t F O.E T F l n t c y.l.x x F c H 3.y g s x D r.c g g c H a.l 5 c 5 B ..c 9 % 0 4 s U l l c l I F O.F ",
"3.*.) g c U B.O.c *.B r D F q y F c B } B E :.O.g c O.c g F F 0.O.) ) E y B ) g f ) l.M F A D x %.u.) ) w.w.2.w.F.<.c x F B B :.Y F n n ) ] q B F t F F 5 x F E y C ' B c g T ) c F F B 5 q t q w U l.D B c B 0 5 y D y w f i n l l r q > g l s c x F F M F F B ",
"U U F N d.y c F D ) ) c c A x } y.w.N x ) F B 3.D T x F ....<.I :.B * 9 A l l F L U L d.F } A x :.:.F E F E :.B F x c c g i F c F F F B 4.g 8 4.u.F l l l t x F O.F E O.B y ) ) E l.:.l y B B l B g B F E B x 4 5 = y * y B 5 4 @ # q q j ) x c g f c B ) N H w.",
"c N L T } g l x A U ..c t y 9 g F x B w.3.) E F x B F j.P.F.v.t.x.D.F P F L F E 5.c y t 0 g g l c y q 5 5 x B * & w x f 5 x C l B c n D n i B B l :.F x B g y B E c F :.E * & g ..g x 5 B F F x x y c s M C c y g H l 5 t n B F B l B n <.N N I ) f t c g B B F ",
"B c A ) ' 5.L ) ..Y *.F M B c B F I U } *.*.T U x :.E E ) } A 5.C.l.d.R U *.u.x.O.B M l l g 4 A F F F x q x g 5 w g g c F F B g 7 I y c B g I m g g d F c u w l q x l l B B x ) l.x 5 c :.c c F E 7 f A ..} B ) y c c x y y B B c w c F F c g ' y 5 x y t F F B ",
"F f c q j E A.L L 5.t.B f B U c N O.O.c } :.B L B g B y l A B U O.u.O.y M L } g x L 5.l A F A B B F B l > q > # g N f x c c g c g i c w B x y B B x x F x l y l g x x w.:.w.B :.j.x * F F F ) :.N 5 y N L 5.F B l > w 5 g x F y j ..F x x B B N w E E E Z ) B F ",
"*.} x c x F t.Y U 5...F F F *.F x y *.M F F B B D C x l q D L l > M x c A l x > F c y c g f B g g c l 5 > t F c F 5 t B ) ' g c j g w B c g 5 l B E E F B E ) 5 b ) F E F F F O.F c B B y B l C a.y.L c B ..B F F c B f x g B :.<.B g c w q x ) F B F F x B B F ",
"t.O.H ) F :.) ] &.l.A :.x.L c c M t L d.B.} F E F } *.L } y y ) * y s y c g g 4 B w x c 0 c q 5 x N c c B :...I B F B F B n :.C 5 l x g w F B F 2.l.O.B B H n c T E <.c x C C F B B O.w.E x x B E :.O.B <.v.F <.) F y B c 6 x F B w g x g c F 4.F ) :.L O.E B ) ",
"F :.) <.0.E r.F y y c 5.5.C.F B F A O.5.d.F B } F <.j.B D x F g c F 5.D l F d.} y x B B N F x r c s l } t.O.x ) t q x F N c B f y w > l l B E w.E O.l B H F :.H F I F F B n x F u.) B ) O.E O.c q x B B B y B ) E F g B B g g B g m c c 1 z b C Z 4.O.F F c x G ",
"F :.w.u.D.E P ;.w.D.C.u.v.l.F E 5.v.c 0.j.L L l.} O.U F U ..x I E c x y B } 5.O.g N l E U F t.B F F F c c A w y B w c F N j g E ) g q c F F B l g x x y w E C l ) B B 3.B j ' j ) E F O.w.w.E x u.F E :.E ..l.0.) ) ) w.c B F F p E O.E B c k u q g l B y B F F ",
";.F F F B l g u.:.:.B x l w.F x B *.*.F.t.5.F U u.c L v.d...T ..E E F B 5 B B F S c F x l O.:.u.u.B l y M F c c B x F F B c w c c g F g m F B c y q t * l y * > c F l B y B F B c ) ) F :.l.O.:.u.:.u.x.l.D.u.r.O.y g t B B x F g l P c F c c B y y l B y g p B ",
"e.z x ) ) 2.n.8.d.x B O.c E F A U B F U A y B F f B B.5.<.d.F s ) O.F l l F c ) B c l B g B E c c B E ) E c B &.F b B F x w q c g F s.B B ) ) O.x t F y F F F C g ) ) F B B w g B ) F l B F B O.E F F l.) F F w c c l u B c l t y 4 F B x E F ) F z x p g c F J ",
"C u B F x l O.F C.w.w.:.:.2.;.) U *.x l F x F F ' ) I T v.F ..t q P.F l y g E B F ) B ) E F x g J 4.F c O.F J ) F C B k 5 y b B c J Z F F F F B F B k B E J ) B e B &.J E E ] t B E ) B B x x x g > c x g y y B c c l l g q t q 0 i t l B B B B Z y 5 g l F E g ",
"Z b O.O.B x B E x.l.E E F ) *.O.L ) L E 0.E B :.) ' <.v.5.U } F l ) P x E F ) F J ) E Z m F B x c B c B G c B E F B F ) Z J B Z ] ) Z B m b m z B y F J Z m C c B G g Z B x E E G ) ) F :.E ) B D l D F ) F :.) x x u.g F c l B C f F H F ) F B :.F q B m c C &.",
"2.Z F ) x B F O.F A F y g B N F F x :.r.B B F F B g c B E B F ..B 5 x O.B F w.F Z J &.E Z m ) Z J _ J G c C E C m J &.C c B t ) E z ` y g J Z b q p l F b p l p y F J B y e l E F F F y C B l c ..0.I B u.u.F g F B E O.F B F B F :.' T O.F b B u.O.O.F x g F %.",
"g B P _ k G ` ` a K 1.p.] &.) x x c B ) B q q c g 5 x c g c F n q q F E l B ) F F ) J F F B y k c J %.) E F g y F c B x E B ) F g Z B c u.r._ F f y 0 c x 1 1 6 g l F O.B F O.Z F F ' E E B C c ) 0.n t c :.F 5 ' F l F B l B ) x ) B c x x C C Z x g z B F F g ",
"c g B J g u C G e b b b x c c 5 l c l c l 5 j C 5 f ) F B B B c I B D F l l E w.B E B g B c g E B m _ ) l g x B B y q 5 g E E c 1 p g B w.J B C E x l g B 5 - q F O.) F B F :.2.) y.F x g n F k ) F q @ B F B t c E B g t B c B C F F F p y l t q k B m E F F x ",
"R F ) C x B F k g F c y B t 5 B c F ) E r.E E x.f l F.F g c y x N f l w.F x t.E F O.O.F E F O.) g y g 7 y F x n E B B j n c F m y 7 j B x p e B F x F F m J q Z k.l.u F k.F G B F ] F c q g B k c B g g c F x c B j B l t f g n c F F c l c k k p Z Z Z B B F B ",
"F %.O.F ) u.r.) L B l 5 c B c O.F O.O.3.v...y n *.*.:.F } B > x g 0 B E F ) :.I E T :.0.u.F.w.g x y 7 5 c ..g * l F E B I c ) ] C B @ 8 x 5 c C B B F F x Z Z F F B z c F B z z F m c c c 5 & l c b B p k B b r.F t B E c t x B Z 4.B p J ) C G Z F F s.O.F F F ",
"2.F Z _ :.F c B F B B l c D m g F :.F :.:.' B B B B U *.U 0.F B c ) T c x F :.E ) ) F E C 3.q y y g 7 g B c F c g D B N c B p g x c g c Z p m E B u F g k m C B g y B c 8 e c F B B c c ) F t g G g k 5 g l Z Z E Z B C.F g c c B F l g F c m C Z E ) B O.) F B ",
"2.g z P O.x l g B A t B O.) F C F c y D F t.I g :.c s c B :.) O.E I B y x F x q y E B l g B l B 4.E k l g w l B A y t y 8 c q g F y F m k B Z F m B c y y k g y l c b m e B n._ O.) F :.J ) ) c F E c c s.:.J B ) F B w.B p Z l g Z m m x t B F J F F ) O.F B F ",
"F c Z G F B F B c F Z O.E F ) ) } F U t.} w.*.L B ) l B O.F F F B B c F B B E F J E m F E x J ) E F E F g g B F A l F B m F B Z E B ) B F E J J &.` F e q y 8 5 F B c m y x c c B E F B g c T H ) ) c B F c l y B c c m x k E x z &.J C y w y B B x B F c ) F F ",
"] O.R R F E U L J F O.O.F F ) ) w.} B ..*.F O.*.E F F B F F ) F B Z B Z m B ) 4._ &.) _ G F Z C G 2.C F E Z F F *.O.) B B m F Z B G J E Z B ) F %.J V G Z F ) Z t E ) ) B B g g F F ' B j g F F F B B F F F c B F F B c F B k m %.k.E ] l x q g c B ) B c ) B F "
};
