/* XPM */
static char *_e57a52b0585446f99d7367d356847faHY6WJ3YKBJoTQbfh[] = {
/* columns rows colors chars-per-pixel */
"290 174 254 2 ",
"   c black",
".  c #010101",
"X  c gray1",
"o  c #040404",
"O  c gray2",
"+  c #060606",
"@  c #070707",
"#  c gray3",
"$  c gray4",
"%  c #0B0B0B",
"&  c #0C0C0C",
"*  c gray5",
"=  c #0E0E0E",
"-  c gray6",
";  c #101010",
":  c #111111",
">  c gray7",
",  c #131313",
"<  c gray8",
"1  c #151515",
"2  c #161616",
"3  c gray9",
"4  c #181818",
"5  c #191919",
"6  c gray10",
"7  c #1B1B1B",
"8  c gray11",
"9  c #1D1D1D",
"0  c #1E1E1E",
"q  c gray12",
"w  c #202020",
"e  c gray13",
"r  c #222222",
"t  c #232323",
"y  c gray14",
"u  c #252525",
"i  c gray15",
"p  c #272727",
"a  c #282828",
"s  c gray16",
"d  c #2A2A2A",
"f  c gray17",
"g  c #2C2C2C",
"h  c #2D2D2D",
"j  c gray18",
"k  c #2F2F2F",
"l  c gray19",
"z  c #313131",
"x  c #323232",
"c  c gray20",
"v  c #343434",
"b  c #353535",
"n  c gray21",
"m  c #373737",
"M  c gray22",
"N  c #393939",
"B  c #3A3A3A",
"V  c gray23",
"C  c #3C3C3C",
"Z  c gray24",
"A  c #3E3E3E",
"S  c #3F3F3F",
"D  c gray25",
"F  c #414141",
"G  c gray26",
"H  c #434343",
"J  c #444444",
"K  c gray27",
"L  c #464646",
"P  c gray28",
"I  c #484848",
"U  c #494949",
"Y  c gray29",
"T  c #4B4B4B",
"R  c #4C4C4C",
"E  c gray30",
"W  c #4E4E4E",
"Q  c gray31",
"!  c #505050",
"~  c #515151",
"^  c gray32",
"/  c #535353",
"(  c gray33",
")  c #555555",
"_  c #565656",
"`  c gray34",
"'  c #585858",
"]  c gray35",
"[  c #5A5A5A",
"{  c #5B5B5B",
"}  c gray36",
"|  c #5D5D5D",
" . c gray37",
".. c #5F5F5F",
"X. c #606060",
"o. c gray38",
"O. c #626262",
"+. c gray39",
"@. c #646464",
"#. c #656565",
"$. c gray40",
"%. c #676767",
"&. c #686868",
"*. c DimGray",
"=. c #6A6A6A",
"-. c gray42",
";. c #6C6C6C",
":. c #6D6D6D",
">. c gray43",
",. c #6F6F6F",
"<. c gray44",
"1. c #717171",
"2. c #727272",
"3. c gray45",
"4. c #747474",
"5. c gray46",
"6. c #767676",
"7. c #777777",
"8. c gray47",
"9. c #797979",
"0. c gray48",
"q. c #7B7B7B",
"w. c #7C7C7C",
"e. c gray49",
"r. c #7E7E7E",
"t. c gray50",
"y. c #808080",
"u. c #818181",
"i. c gray51",
"p. c #838383",
"a. c #848484",
"s. c gray52",
"d. c #868686",
"f. c gray53",
"g. c #888888",
"h. c #898989",
"j. c gray54",
"k. c #8B8B8B",
"l. c gray55",
"z. c #8D8D8D",
"x. c #8E8E8E",
"c. c gray56",
"v. c #909090",
"b. c gray57",
"n. c #929292",
"m. c #939393",
"M. c gray58",
"N. c #959595",
"B. c gray59",
"V. c #979797",
"C. c #989898",
"Z. c gray60",
"A. c #9A9A9A",
"S. c #9B9B9B",
"D. c gray61",
"F. c #9D9D9D",
"G. c gray62",
"H. c #9F9F9F",
"J. c #A0A0A0",
"K. c gray63",
"L. c #A2A2A2",
"P. c gray64",
"I. c #A4A4A4",
"U. c #A5A5A5",
"Y. c gray65",
"T. c #A7A7A7",
"R. c gray66",
"E. c #A9A9A9",
"W. c #AAAAAA",
"Q. c gray67",
"!. c #ACACAC",
"~. c gray68",
"^. c #AEAEAE",
"/. c #AFAFAF",
"(. c gray69",
"). c #B1B1B1",
"_. c #B2B2B2",
"`. c gray70",
"'. c #B4B4B4",
"]. c gray71",
"[. c #B6B6B6",
"{. c #B7B7B7",
"}. c gray72",
"|. c #B9B9B9",
" X c gray73",
".X c #BBBBBB",
"XX c #BCBCBC",
"oX c gray74",
"OX c gray",
"+X c gray75",
"@X c #C0C0C0",
"#X c #C1C1C1",
"$X c gray76",
"%X c #C3C3C3",
"&X c gray77",
"*X c #C5C5C5",
"=X c #C6C6C6",
"-X c gray78",
";X c #C8C8C8",
":X c gray79",
">X c #CACACA",
",X c #CBCBCB",
"<X c gray80",
"1X c #CDCDCD",
"2X c #CECECE",
"3X c gray81",
"4X c #D0D0D0",
"5X c gray82",
"6X c #D2D2D2",
"7X c LightGray",
"8X c gray83",
"9X c #D5D5D5",
"0X c gray84",
"qX c #D7D7D7",
"wX c #D8D8D8",
"eX c gray85",
"rX c #DADADA",
"tX c gray86",
"yX c gainsboro",
"uX c #DDDDDD",
"iX c gray87",
"pX c #DFDFDF",
"aX c gray88",
"sX c #E1E1E1",
"dX c #E2E2E2",
"fX c gray89",
"gX c #E4E4E4",
"hX c gray90",
"jX c #E6E6E6",
"kX c #E7E7E7",
"lX c gray91",
"zX c #E9E9E9",
"xX c #EAEAEA",
"cX c gray92",
"vX c #ECECEC",
"bX c gray93",
"nX c #EEEEEE",
"mX c #EFEFEF",
"MX c gray94",
"NX c #F1F1F1",
"BX c gray95",
"VX c #F3F3F3",
"CX c #F4F4F4",
"ZX c gray96",
"AX c #F6F6F6",
"SX c gray97",
"DX c #F8F8F8",
"FX c #F9F9F9",
"GX c gray98",
"HX c #FBFBFB",
"JX c gray99",
"KX c #FDFDFD",
"LX c #FEFEFE",
"PX c white",
/* pixels */
"r m Y / } >.0.t.t.x.t.Y B p L } C.J./.'.(.Y.C.n.x.D.J.Y.'..XC.>.[ E.k.x.E.Y.N.Y.'.'.(.(.E.Y./..XXX'.1.l H 1.i.i.n.d.d.x.k.t.4.0.0.>.B L D.C.J.Y.D.D.d.>.>.4.%.L L Y 0.D..X1XXXXX%X(.J.D.Y./././.} [ (.(.J./.k.D.x.n.'.D.d.Y.XX;X'.n.} R &.1.1.t.d.>.R j r 4.C.i.Y.'.XX'.'.'.Y.n.t.&.d.(.(./..X%X%XXX/.t.j 1..X5X5XXX-X9XN.} &.} &.k.(.-XXX(.uX;Xi.A &.C.N.t.>.D.N.1.p } D.x..XXXXX(.%X%X%XXX1Xi.t.E.D.n.k.d.Y.(.E.'.J.} R +.+.k.i.k.k.&.>.d.N.;X(.'.%X.Xx.H 0.'./.(./.XX5XN./ / n.C.J.Y.E.(.XX-X.X-X;X;XXX1X-X} i.N.N.n.D.J.J.E.0.k.x.k.x.N.N.k.&.H &.C.(..X9X;X.Xx._ B A R [ [ >.k.D.(.Y.D.(.C.i.} ",
"H } >.&.+.&.i.n./.E.J.x.%.m l %.Y.J.C.C.D.D.N.k./..X.X(..X%X(.N.>.k.E./.%X-X(.(.%XXXXX'././..X%X%X/.0.R +.x.J.D.E.D.D.Y.E.D.C.D.n.1.l %.E.(.(.D.Y.'.'.D.x.t.%.L B R &.t.n.i.t..X'.-X5X;X.X/.(.XXi.4.E.XXJ.N.x.N.D.E.D.E.E.0.1.x.k.1.} %.i.x.d.k./.k.} A l i.E.C.D.E.(.'.(.Y.x.1.} C.-X'.J.(.-X.X-X/.XX/.L l J.1X5XXX%XE.4.} } [ / _ _ &.C.E.%XE.0.4.N.x.d.d.k.'.D.n.H %.J.'.eX;XeX;X.XXX5XeX;X&.k.D.n.N.C.N.E./.Y./.t.%.%.1.n.k.k.i.n.C.D.k.4.J.-XXX%X/.4.f / x.D.Y.E./.N.[ _ n.N.J.(..XXX%X;X5XXX%X-X5X5X9XE.R N.E.E.J./.(.(.'.x.D.E.E.E.E.D.x.n.0.1.+.t./.;XJ.t.1.+.+.%.+./ H H _ 4.n.C.E.XXE.&.R ",
"+.>.4.1.0.x.Y./.'.'.'.E.t.+.l _ (.Y.D.D.J.D.n.d.C.Y.E.Y./.%X-XXXN.1.1X1X-X1XXX.X5X5X5X;X-X-X1X5X%XJ.i.0.k.(.-XXX%X.X'.XX%X.X(.(.0.[ L C./.(.(.C.C.Y./.E.Y.D.0._ 6 1.n.Y./.&.H %.i.x.Y..X-X%X.X(.>.D.(.%X(.n.D./.E./.XX'.-Xn.H d.D.t.&.1.i.x.N.N..X'.N.&.A i.XXXX-X'.Y.D.n.1.R m n./.XX%X%XXX.X%X%X-XXX.Xk.0 1.5XcX5XXXt.%.x.J.(.i.%.f 6 R L L Y 4.J.Y.k.k.N.J.XX(.N.H t.(.;XeX1X-X%X(.;XeX1Xx.L n.n.d.n.N.C./.E./.n.1.t.i.i.Y.D.Y.J.J.D.J.n.>.>.C.E./.1.A p m R >.i.4./ Y %.d.N.J.(.%X;X-X%X-X1X5XeXdXeXdXeXk.m 0.Y.%X-X;X%XXX;X;X5X9X1X-XXX(.J./.D.k.&.&.&.0.1.1.4.t.k.x.d.4.&.%.R / +.0.D.N.0.R H ",
">.1.4.0.x.Y..X.X.X'.XXY.N.N./ } D.J.E.E.E.Y.J.J.J./.(.(.'.%X%X'.d.[ XX5XXX;X;X5X5XeXeXeX9XeXeX5X.XN.x.C.E.-XeX1X1X-X%X%X-XXX(.Y.+.m %..X/./.'.E.C.D.C.J./.(.C.0./ '..XE..XJ.n.N.A B H %.x.C.i.%.m E.XX'.%XY.J.'.'.E.;X.X(.n.4.1X;XD.i.t.4.d.D.D.J.-X-XC./ t..X'.(.Y.N.0./ j f A E.5X5X.X.X%X-X1XXX9XXXXX.XA A d.'.D.k.t.E.uX5X.X;X.X1.A R p f &.k.C.n.x.D.Y./.(.(.t.f d.(.;X;X%X5X9X1XcX1XC.+.>.C.C.N.n.n.J.(./.J.[ >.n.N.D.D./.XXXX(.C.C.C.1.H Y } 1.A p m l l / B r r H 1.x.n.J.(.%X-X%XXX-X1XdXuXdX1X;XE.[ H / N.;X5X1X-X1XcX;X;X-X%X%X-X-X-X%X/.E.E.J.} _ t.n.N.D.Y.Y.Y.Y.Y.x.0.d.%.R [ / / R R ",
"%.0.k.x.x.D./.'.%X/.(.d.i.1.L _ x.J.'..X/.Y.E.'.E./.'..XXX.XJ.x.} [ J.9X%X-X%X9X-X5XuXeXuXuX5X%X/.n.N./..X;X9X1X1X;X-X-X;X%X/.C._ 6 t..XXX-X%X%X(..X.X.X'.(.Y.C._ .X9X5X9X9X1XE.Y.J.C.D.C.x.4.+.l d..XXX;X%XJ.J.E..X.X5Xn.&.%XeXXXC.x.x.i.k.N.N.n.(.'./.%.} t.4.k.} A H / _ R R J.1X9XXX%X-X;X5X;X%X;X9XXX[ p l &.x.Y.%X1X;X;X%X/.;XD.L A j R D.D.x.i.n.D./..XE.(.0.f 4.E.eXuX5X;XeX9X9XN._ l 1.Y.Y.Y.C.J.'.Y.x.4.H >.D.J.(.(./..XXX.X(.(.J.&.p p r A L R } Y _ R L B m H +.k.J..X%X;X%X.X'..X%X%XXX5X1X(.+.0 m B &.d.k.n.C./.;X5X;X-X%XXXXX%X;X-X.X'..X%Xk.t.Y.D.Y./.'.(.(.(.(.J.C./.x.%.+./ Y [ +.",
"&.0.k.N.J./.'.(.XX'.E._ Y L B L 0.N.'.-X%X.X.X.X/.(..XXXXXY.i.%.L +.k.;X5X1X.X1X5XdXhXdXuXuX1X(.C.N.J.'.%X;X1X;X;X1X;X;X1X%XY.d.r $ k.XX;X%X.XXX%X%X-X-X;XXXE.C.&.C.;XdXeX9XeX%X;X1X9X9X5X;X%XXX%./ C.-X;XdX-XE.(.-X-X(.>.i.dXXXY.N.x.x.d.i.k.x.n.J.E.XX+.f H R B B A A A B H R i.E.;X9X5X;X-X1X5X-X1X9XXX>.Y 4.'./.Y.;XeX1X;X/.E.eXXXY l R 4.J.Y.N.C.n.n.(..XJ.k.R 3 _ i.(.-X;X1X;X(.x.+.H l %.C.D.C.N./.E.>.Y } 4.D.%XY.Y.;X(.(.%X%XXX'.E.t.p l H [ 4.i.N.d.d.t.N.N.1._ [ i.E.%X-X-X-X%X%X-X;X;X5X;XD.1.L f A L _ _ [ 4.k.d.k.E.Y./.'.XXXX-X1X;X;X1X;X%Xk.n.XX/.(.'.'.'.'.'..X'.Y.(.(.E.Y.t./ R } ",
"t.d.x.D.'.-X-X'.-XXXx.R R &.4.0.4.4.t.N.(.%X%X.X%X-X1X;X'.N.4.+.A R %.D.eXdX5XeXhXMXcXeX5X5X.XD.k.J.(.XX;X;X;X5X;X1X1X-X%X/.i._   3 1.(.XX(./..X%X.X'.%X1X;X/.N.>.+.k.'.-X;X-X;XeXuXhXcXcXuX;XXXt.L >.N.E.1X-XXX1X(.C.>.1.XXdX-XY.D.x.d.d.i.k.J./.%XXX%X} f / +.4.t.i.d.i.t.1.+.H n.eX9X.X-X9X1X1X5X5X%XXX1.x.;X.XE.'.;XXX(.'.Y..X;XXXR j +.N.D.C.D.(.D.D.'.C.d._ m f _ &.t.N.N.D.4.+.L Y L B R n.C.N.n.D.1.f l } t.J.%XE.D.XX(.'.-X%X.X(./.C./ _ x.D.E.J..X'.J.XX(./.'.C._ } '.(.(..X%X5XeXeXeX5X5XC.} Y [ 0.k.i.x.d.d.J.E.C.N./ / } 4.k.N.Y..X'.XX5X%XJ.&.d.XX%X.X(./.(.'.XX%X'..X%X-X.X/.J.t.L } ",
"C.Y.(.(.'.XXXX.X-XC.Y R &.N.J..X.Xi.Y L &.x.N.x.Y./.'.(.D.d.4.1.} Y _ >.;XdXeXeXcXbXuX%X'.(.D.i.i.E.XXXX1X5X1XeX1X1X;X.X/.x._ r r A L x./..X%X-X;X-X%X-X%X.X/.Y.>.j p H >.d.0.k.%X5XdXbXbXeX%X(.1.+./ Y >.x.n.(.E.0.A 4.1XeX1XXXC.C.x.d.n.n.C..XeXbX1X.X&.} n.i.k.C.J.Y./.'.E.n.} +.D.5X5X-X1XeX;XXXuX1X/.%..X/.E.N.XXXXJ.(.XXXX1X.X(.[ B %.D./.x.N.'.E.XXXX1.+.} t.C.C.N.Y.(.k.R f / 4.J.t.Y l D.E.E.D.n.L $ R +.m } n./..XY./.-X'.'.5X%XJ.D.0.0.(.XX1X(.(.XX.X'..X'.-X'.>.} J.;X-X-X;X5X1X%X'.d.1.[ 0.x.k.Y.(.E.'./.J.E.(.(..X0.%._ / Y H Y [ 4.t.d.&._ L >.n.'.(.E.E.(.'.'.'.-XXXE.(.(.(.XXN./ >.",
"%.4.x.E.'./.E.Y.x.>.Y &.C.(.-X.X.X'.} B l L t.%.+.0.n.C.x.d.x.C.i.4._ } C.1XdXSXcXcX%X/.J.d.&.H &.'.eX;X;X1X;X-X%X(.-XJ.t./ m r B [ / B R 4.x.J.N.Y.J.C.n.J.N.0.H R 1.k.x.x.%.f l k.J.-X%XE.0.[ [ } +.%.+.} _ / [ A H Y.5X%X1XE.k.n.N.x.x.Y.;XhXhXSXuXn.n.n.Y.(.E.Y.Y.J.J.J.Y.Y.Y.k._ 1.5XdX5XuX5XdXeX'.[ %.9X-X'..X;XXXXXXXeX;X5X5XXX&.L 1.x.D.Y.E.E.E.N.+._ 0.N.D.N.N.E.E.J.Y.} B d.D.d.C.i.} +.t.C.1./ 3   A _ [ Y B _ n.(./..XE.(..X/..X(.1.k.(.%X-X5X-X.X-X%X;X%X(.(.>.p [ d.'.-X(.n.&.L H L 4.D.Y.J.E.E.J.Y.(.Y.Y.'..X.X;X(.+.A _ +.+.>.t.i.x.x.t.d.&.A +.N.D.E./.J.C.Y.%X'.XXXXJ.(.E.x._ H L ",
">.>.>.1.0.i.t.4.R &.0.C./..X%X(.XX5X4.l j f H _ 4.d.C.J.C.N.C.J.N.x.%.Y 4.%XhXhXcX5XY.n.>.} 1.&.+.C.-X5X1X;X%X.X%XC.x./ j f H / [ >.>._ H A L _ / / [ %.} R H H i.n.E.'.'..XC.&.l L L &./ B H %.x.n.n.n.x.d.t.4.+.H m x.-X;X5X/.N.x.x.D.'.;XdXMXHXdXN.4./..XE.E.Y.Y.J.J.J.J.J.Y.E.%Xd.l L %.k.J.D.C.>.Y 6 j D.1XeX5XeX1X5X-X5X-X(.1XJ.R / i.n.J.Y..Xn.R B / 0.D.C.J.J.Y./.(.'.XX} Y n.Y.C.(.Y.N.t./ A l R l j &.D.C.N.t._ H &.D.XXXX%X(.Y..XE.&.k..X5X;X1X-X'.(.%X.X'..XXX0.6 r l L _ / / A l [ k.Y.'.E.J.E./.E./.(.'.%X;X%X%X5X(.R B 4.n.C.J.C.J.D.N.J.Y.k.+.L / >.d.k.k.n.D.J.%X/.C.k.1.} _ } } } ",
"N.J.D.i.&.%.+.[ H i.J.(.'.XX1XXXXX/.} 6 p A _ 4.x.C.Y././.E.E.E.n.t.[ A [ Y.9X9X;XE.N.N.&.H _ +.B } n.'..X(.Y.N.N.+.[ H / 1.k.x.n.k.x.N.k.>.R m j 0 0 j B m / i.E.(.-X-XXXXX/.d.+.%.[ } B Y t.J.D.J.Y././.E.Y.Y.t._ l >.'.eXhXXXD.N.D.'.1XeXhXbX9Xd.[ E.XXJ./.(.E.E.Y.Y.Y.Y.Y.E.E.'.(.0.A > l 4.i.>.B 6 > r &.-XMXdXuX5XeX5X9XuXuXY.L r H 1.D.'.E.t.B p _ n.E./.J.J.E./.(..XXXXX+.} n.C.n.Y.J.Y.J.1._ L +.A A i./.(.'./.D.i.+.Y x.Y.%X-X%X.Xk.R n.-XeX-X%X1X;XXX'.XX-X(.k.R j R +.%.0.t.k.>.R i.Y.'..XE.Y.'.XX.X'.(.%X1X-XXX%X-XN.L _ J..X-X5X'..XY.C./.E.J.D.[ L _ %.&.1.i.k.k.0.1./ _ L +.4.N.C.D.",
"(.1X5X'.N.d.1._ 0.J./.(..X-X9X%XXXi._ f r _ 0.k.J.Y./.'..X.X(./.x._ B H R 4.Y..XE.C.C.(.d.B l H l H &.d.t.4.+.H f j &.t.n.J./.E./.C.D.J.x.k.k.t.&.[ H f A _ N.5X-X1XeX9X-X-X.XN.+.&.4.&._ i./.J.E././.(././.E.Y.J.t.A R N.1XuX%X'.E./.%XuXuX%XJ.%.Y Y .XXXE.XX(.(.(././.E././.(..X%X%Xk.0 B 1.D.J.D.C.x.k.>._ k.-X5XuX1X9XdXdXbX5X4.B R Y } C.N.&.m p +.J././..XY.Y.E.E.'.-X.XC.%.%.i.i.d.N.n.J.D.J.D.d.t.R [ C.D./.(.E.'.%XD.+.H / d./..XN._ A 4./.5X5X;X;X.XY.'.J.n.t.+._ +.t.4.0.n.N.Y.k.[ 4.(.XX.XE.E.(.'./.%XXX1X9X1X9X9XXX&._ i..X-X1XeX-XXX/.E./.J.Y.Y.&.H H Y +.>.>.1.0.>.} A A / k.D.J.(.(.",
"/.XX%XXX-X%Xn.[ C.(.'.%X1X1X5X.Xn.+.%.R B } 4.x././.(.'.XXXX'.(.J._ j A H / t.C.Y./.E./.t.f l %.k.n.Y./.J.J.N.&.l H k.D.Y.Y.E.Y.'.Y.J.D.n.D.E.C.N.C.0.A [ i..X5X9XuXcXhX5X5X%XD.%.Y &.d.d.J.'.J.Y.E.E./././.E.E./.J.} B [ i.J./.'.;X9X;X.XY.n.t.4.1.A C.9XXXY./.'.(././././.(.(.C./.-XY.r t.Y.C.J.C.Y.C.D.Y.x.Y.i.C.C.} L >.t.k.&._ _ %.B j _ L l f R n.'./.E././.(./.(.-X9X'.i.t.0.i.d.C.E.Y.(.J./.E.C.x./ +.J./.E.Y.E..X%X'.J.} A L _ [ L 0 p Y &.x.D.D.D.C.x.0.%._ +.>.0.d.i.x.n.C.n.J.Y.i.t.'.%X%X(./..X.X(..X%X9XeX9XuX;XN./ t.Y.XX1X9X5X1X.X.X;X%XXX(.i._ 1.4.x./.XX.X/./.E.d.%./ 1.x.J.D././.",
".X%X-X;X5X1XE.t.J.XX%X1X1X;X;X'.} L L L } 4.0.Y.'.'.'..X.X.X'.(.E.%.j j L &.n.E.E.%X%XE.} p [ E.(..XXX.XXX-X%XY.d.t.E.E.(.(.'./.'.E.E./..X%X'.C.n.J.i.B 1.Y.1X5XeXuXcXdX9X9X-XD.&.H %.d.N.E.'.E.C.C.D.J.E./.(.(.E..Xt.m j B _ i.XX;X%XY.k.i.x.D.XXY.+.i.'.%XXX(.'.(././././.(.(.(.J..X/.l i.J.E.E.E.%X.X.XXXJ.n.J.'..X%.p +.4.0.&.0.1.1.%.L B H f l %.Y.%X%X.XE.'.XX.XXX5X-XC.d.Y.D.C.D.E.(././.'.(./.'.Y.L / D.'.E.E..X;X;X.X/.J.[ A p r j r m j j m A A L Y H m / %.t.k.n.J.C.Y.E.Y.D.J..XE.>.'.%X-X'.(.%X;X-X;X9XdXuX5X%XC.+.>.C.(.XXeXhX9X1XXXXX1X;X9X;Xi.&.D./..XXX;X5X1XXXXX/.N.%.4.n..X.X'.'.",
"1X5X9X9X1X%X/.D.E.;X-X%X%X%X.XN.[ B l L &.i.n.(.'..X.X.X.X'.'.'.C.>.m f } N..X-X.X%X1X/./ A n.XXXXXX'.'..X.X(.(.x.x.XX'././..X%X/.(.'.'.'.(.'.-X/.J.0.H x.(.9XeXhXdXhXdXuXhX9XE.&.+.C.D.E.'.%X'.Y.Y.Y.Y.Y.E.E.E.(.XXt.A L L A +.E.t.%.t.D.Y.Y./.Y.Y.E.d.4.(.cXXXXX.X.X'.'.'..X.X.XXX;Xk.L C./.(.E.E./.Y./..X(.E.n.Y.1XC._ n.N.d.i.i.4.t.C.t.B f r H d..X.X(..XXX'.%XXX%X.X4._ k.'.(.(.'././.(.Y.(.'.'.;XXX[ +.E.E.XX-X.X(.XX;X1X/./ L L R %.} 1.>.>.4.4.%.} H 3 L >.t.N.E./.'.Y.D.Y.J./.E.XXXX_ D.'.-XXX'..X%X.X1X5X1X-X'.N.0.1.J./..X;XeXuX5X;X;X-X%X%X;XXXY.E..X%X.X/./.XX;X;X;X1X'.i.0.C.XX-X.X'.",
";X%XXX-X;XXXE.D.(.5X-X.X%X-XE.} L r H 1.>.i./..X.XXX%XXX.X'.'.'.C.4.A A 0./..X-X9X%X;X/.R } .X(.%XXX'.XX1X%X.X5XY.N.'..X-X1X;XXX;X%XXX1XuX%X(.;X%XD.1._ /.XX9XhXdXeXeX9X9XdX5XE./ %..XXX.X/././.Y.E.E./.'..XXX%X%X.X1.Y 0.i./ _ H f Y C.%X(.E.XXJ.k.'.'.k.} n.1X;X-X-X%X%X%X-X-X1X;X'.[ _ E.%X9X.X%X'.(.%XXX(.(.XX(.5XY.} J.(.Y.N.k.x.t.N.E.&.p f [ N.Y.n.N.E.J.'.%X.XXXN.r & t.E./..X%X'.(.%X.XXX%X'.XX%X1.0.E./.%X1X%X.XXX;X1X'.L R 4.t.i.1.i.x.N.Y.D.N.C.0.m / k.n.J./.E.(.Y.E.Y.D.'.E.(.XXH } k.(..X.XXXXX'.n.k.0.4.1._ } x.-X(.%XeX1X%X-X;X5X9X;X;X(.N.(.-X-XXX.X%X-X-XeXbXcX9X'./.n.C.Y.;X-X%X",
"-XXX5X1X5X9XE.n.'.-X5X5X'.k.} L H m [ >.i.i./.XX.X'.%X-X-X;X'.x.d.0.L [ C.%X.XeX9X5X-XN.A n.%X%X-X5X1X-X1X%X%XuX5X4.t..X5XXX(.5X%X-X;X;X-XXX.X(.n.4.[ k.XX1XuX5XuX-X9XuX1X5X;XN.H %.Y.5X1X-X%X.X/.'.'./.(.XX;X-X-XJ.d.d.x.d.0.1._ m f d.%XD.C.XX(.J.D..X(.+.B _ C.(..XXXXX.X'.E.E.x.L j +.k.E.dX5X;X-X;X1X;X%XXX-X;X5XN.&.x.E./.C.(.N.N.D.Y.D.A l } J.Y.D.E.Y.(.XX%X%XE.>.l j Y i.n./.%X-X.X-X;X;XXX-X1XY.1.0.E.XX.X%X5X9X;X-X1XD._ n.N.C.k.N.Y.D.J.D.E.Y.Y.J.1.R k.J.C.Y./././.Y./.E.E.E.'./.4.m m R %.>.0.1.R L _ [ &.>.[ t.D..X-X;X-X-X1X;X%XXX1X%XE.d..X9X5X'..X-X5X5X1XuXMXcXdX9Xn.>.0././.%X%X",
"-XE.%X9X-XE.t._ >.1.1.&.} _ R R L Y %.>.i.d./.%X9X;X;X;X-X-X.XC.d.} B >./.%X/.-XeX5XXXk.B N.1XeX-X9X1X;X1X-X-X9XuX0.m 1.N.k.C.n.C.C.Y./.J.x.t.t.} R / k.'.XX1XeX1X9XdX5X.X.XY.&.H R 4.C.Y.'.-X-XXXXX.X/.Y.E./.(.(.i.4.J.'.D.k.k.C.>.l _ E.9X1XJ.XX.XE.Y..X/.&.p f Y 1.[ Y _ _ %.1.0.0.0.+.m R Y.;X;X5XdXuX5X5XuXeX9XC.L A n.%XC.E..XE.'./././.+.6 0.XXY.n.Y.(.(.-XXXN.} Y _ [ Y Y +.4.i.N.(.-X-X1X;X5X;Xt.f m t..X'.'.XX;X1X;X%Xd._ n.n.J.C.J.E.C.J.D.J.J.XX.X&._ x.E.Y.E..X(.J.D.Y.D.Y./..X/.&.m / 0.N.D.Y.D.k.4.4.t.N.&.R i./..X%X;X;X;X-X;X;XXX;X/.0.4.-XhX5X;X1X5X1X-X-X5XdXbX9XD.R H _ k.Y.XXXX",
"i.i.d.0._ } 1._ A / >.i.d.t.1.&.[ / R Y >.n.(.XX9XXX.X%X'.(.(.J.n./ B x.%X;X'.;X;X-X.Xd.L D.5XeX;X9X5X;X1X;X-X;X-X1.j [ k.n.D.k.1.+.R L R } &.&.[ H Y 4.E.;X%X%X1X%X%X;X%XE.t./ } R R / [ 1.k.k.Y.E././.J.C.N.D.&.[ >.Y.'.C.d.x.t.d.%._ 4..XhX1X;X%X(.J./.XXC._ j B &.R Y 4.t.C.(././.'./.k.+.Y %.t.n.N.J.'.(.Y.Y.&.f m R >.E..X.X/.J./.N.n.Y.>.j N.'.D.D./..X.X1XJ.%.H L [ +.[ 4.4.%._ } k.(.1X5X1X%XD.%.m m R } 1.C..X-XXX'.'.[ +.Y.C.Y.Y.E.'.D.(..X.X'.%X'.%./ d.'..X/.(.(.J.J.J.C.J.(.XXE.} [ d./..X.X(.E.E.N.D.Y.Y.R } C./.-X-X%XXX'.(..XXX-XC.%.} D.5XuX1X.X;X9X5X-X;X9XhX-X'.i.R R A H / 0.0.",
"Y R j l _ 0.k._ [ >.x.Y./.E.J.D.D.x.%.Y %.N.XX1X1X.X.X;XXX(.'.(.k.L A D.-X1X-X9X%X.X/.0.Y D.1X5X1X9X5X1X1X;X%X.Xn.1.t.n./.%XE.E./.C.%.l L k.Y.N.d.&.[ R i.1X1X%X-X%X%XXXE.k.i.n.E.Y.(.'.Y.D.x.&.l m A L L H L / B %.N./.E.J.D.D.k.x.x.x.1.t.%X9X-X'.(./.J.E.'.Y.H p A / 4.Y.Y./.'.XX%XXX-X9X'.&.m m j p B [ [ L r r j _ %.&.n././.Y.E..XJ.D.Y.&.B Y.(.J./.'.-X%X4.[ / +.>.1.i.C.C./.'.J.1._ [ N.J.n.1._ [ 0.n.N.n.k.i.i.C./.J.k.A %.Y.C.E.(.(.(./.XX.X;X1X/.0.B A %.E.-X(.Y./.E././.D.Y./.'.Y.} i./.-X%X-XXX.X-XY.Y.(.E.H t.%XXX-X;X-XXX.XXX'.E.x._ B [ %X9X5X;X'.%X;X1X5X1X.XY.d.t.&.} %.[ [ %.+.+.",
"k.0.B / J.J.i.} i.n.Y.(..XXXXX%X-X-XJ.1.[ 0./.5X;X.XXX-X/.C.C.N.} l L C..X;X;X1X9X%XJ.+.A N.5XeX5X9X5X1X;X1XXXE.4.x..XXXXX%XE.(.(..XD.>.1.Y.'.D.D.N.d./ _ n.(.;X%X'.J.x.k.n.Y..X;X-X;X%X(.'./.N.m m A H H B l j B 0.Y.Y.J.(..X(.(.D.Y.XXx.} N.5XXX.X.X(.E.%X1X.X4.B B t.(.%X.XE.E./.%X%X(.%X1X.XL A Y 1.i.>./ Y / } %.L j L 0.XX(./.'..X/.'./.&._ XX-X(.-X-XD.+.p L >.d.n.D./..X;X'.E..X'.x.j r H / &.i.N.J.E.(.XX.Xn.[ / >.&.Y B +.C.C./.'./.Y.D.1X%X(.C.[ l B H H 0.'..XY.Y.E.E.(.Y.Y.E.(.E.>.J.;X9X9XeX5X-X5XXX/..X'.L 4.'.1X-X1X-X'.(.(.N.>.R +.&.%.Y.%X-X'.%X.XXX1XuX1XC.%.&.%.4.i.t.d.C.J.Y.Y.",
".X'.&.%.E.J.4.0.D.E..X;X1X1X5X5X%X%X'.N.%.4.Y.%X;X.X'.Y.i.>.1.>.L l R D..X1X;X-X9X%XD.[ H N.;X5X5X5X5X;X-X1X.XN.d.(.'.XXXX(.XX'./.;X5X.XE./.'.(.Y./.(.n.1.%.&.t.i.[ / 0.D./.'.'.'..X-X-XXX-XXXD.Y H m j B R / L _ >.i.n.D./.'.'.(.Y.Y.(.0.H 1.'.-X1X;X'./.-X9X;X'.%.[ J.XX(..X'.;XXX%X;XXX-X5X-X>.&.0.x.k.t.i.N.x.i.x.4._ A L x..X%X-XXX'.(.k.Y [ Y.-X;X-XC.} l / 4.N.J.Y./.(.E.'.(.E././.J.A B %.0.n.N.D.E.(.'.C.J.J.d.[ B l B j _ N.Y.D.C.Y.(.(.5XJ.>./ j H t.%.A L k.'.'.E.J.Y./.E.E.E.'./.4.D.XX9XuXuX9X;X%X9X;X1XY.B / t.N.J.D.k.4.>.>.[ H +.n.C.0.n.XX5XXX-X-X1X9X;XY.i.1.d.x.Y.'.N.D.E.Y.E.E.",
"D.J.i.0./.E.4.i.(..X%X-X-X;X5X9X1X.X.X'.0.k./..X-X'.Y.i.} %.t.d._ B H k./.;X;X1X%X/.n.Y H x.%X-X5X1X1X;X%X;X'.d.D.-XXX%X%X.X-X-X-X9XeX-X/.E.(.'.'.XXXX%X/.0./ l B f +.(.XXE.'.-X5X1X;X%X%X1X%XC.f L %.t.D./.x.[ %.} +.4.i.d.n.D.E.D.0.>.[ H / %..X1X5X%X'.'.-XuX.X>.0./.(.E.(.-X.XXX-X%XXX;X5X;Xi.J.(.E.C.N.N.n.x.J.D.t.4.>.+.%.x.J.'.'.'.C.+.B H &.D.Y.t.R R d.N.C.Y./.(.(.(..X/./.Y.(.(./.R _ d.C.Y.Y.(.-X%X/.-XY.D.E.C.%.Y R m H 0.Y.C.x.Y.'..Xn./ / %.+.i.J.N.+.A } D..X/.Y.Y./.E.(.(.'.J.[ 0.N.XX1X1X1X5X-X5X-X.Xi./ &.4.t.k.4.&.+._ L L / k.D.C.k.i.'.5X1X;XXX.XE.0.R / 4.D.'.'.(.C./.(.'././.",
"E.(.%X'.J.&.Y x..X-X5X9X9X1X;X;X9X.X%XXX} +.x.J.Y.N.t./ B [ x.J.&.A f %.N.'.XX9X.XJ.0.j f t..X-X5X;X1X-X%X;X(.0.E.-XdX1X;X-XE.XXXX;XXXJ.Y.XX;XXX%X;X'.%X%XY.i.L _ _ C.eX1XXX;X-X%X%X1X9X9X5XJ.[ t.x.n.x.Y.XXD.%.Y H H L H H R %.0.i._ H R / _ / x.XX5X-X-X-X%X-Xk.R x.%X-X-X(.XXXX%X;X;X-X%X-X;Xn.J.(.'.E.J.N.n.d./.J.C.Y.C.k.&._ } [ [ &.+./ &.t.[ [ H l A [ n././.(.(.(.(.XX;X.X.X'.%XY.k.m &.Y.D.D.J.E./.'.XX'.(././.E.C.0.[ _ p H N.E.E./.D.%.m H n.N.4.n.(./.k.R Y i./.(.'.(.'./.'..X(.k.m d.C..X-X(..X1X-XXXn.i.4.N./.Y.'.'.J.Y./.k.Y B / Y.'.E.x._ t.C.J.E.t.} R l 6 m &.N.%X'.E.Y..X(..X(.(.",
".X.XE.N.} L &.4./.'.-XeXdXuX5X1X-X;XXXY.%.B _ [ &.4.t.&.R L [ 4._ [ _ L _ d.(.XXY.i.+.} +.[ k.dX5X1X1X5X-XY.i.>.-X%X;X5X;X'..X;X9X(.-X'.N.;X-X;X5X9X9X5X1XXXC.4.A >..X-X-XeX9X;X5X-X9XbXuX/.&.d.J.XX/.XXXX(./.[ l Y / A B Y _ _ %.%.%.%.>.4.i.d.x.x.>.Y t.J.&.Y 6 H /.eX1X1X%XXXXX%X;X-X%XeX1XD.} J.1X.X/.(.Y.t.C.N.N.D./.E.C.d.} / A 1.N.Y.C.x.(.n.C.k.1.} [ d.XXXXXX/.Y./.(..X%XXXE.-X(.&.m %.C.E.Y.J..X%X'..X/.'.XXXX(.E.Y.Y.D.4./ } k.N.%.f 0 f i.J.d.n.Y././.Y.Y p %.n.D.N.XX'..X.X'.'.x.L H 0.D.Y.'.'.'.-XN._ 0.'..X'./..XXX/..XY.'.Y./ / D.E.'.J.l / 0.d.N.N.C.N.d.4.+._ k.Y.XX.X/.(..X%X1X;X",
"%Xk.L l l _ x.n.Y.XX5X5X1X1X;X%X.X-X-Xn.[ } 4.d.x.N.N.k.t.0.d.n.C.E.D.4./ L _ >.t.x.C.E./.N.n.E.%XeXhXeXXXx.+./ .X-X1X;X-X;X;X;XXX'.;X'.C.(.9X5X9XeX9X5X5X;X(.D./ / 1X5XcXMXeXeX5XeXeX1X%X4.>.x.n.'.-XeX5X%X(.&.3 H %.>.1.0.4.&.>.1.0.i.k.x.n.n.C.N.} r L &.R / m l n.eX9X9X5X5X%X-X5X9X-X'.x._ l +.C.'..X'.(.Y.J.C.n.x.n.C.J.Y./ Y R C.E.Y.Y.E.J.J./.E.C.x.i.x.n.XXXXE.'.XX/./.XX;X'.(.N.&.B Y k.'.'.-X(.%X/.XX;X-XXX'.'.'.'.'.-XXX(.D.i.[ j > 6 R C./.C.C.Y.'.%XD.%.l f / d.(..XE.(.XXE.0./ B +.&.} [ 1.t.4.>./ A t.'..XXXXX%XXX/..X(./.(.k.+.C.J.(.J.H } x.J.Y.Y.E./.(.(.(.'.C.N.XXeX%X%X1X%X5X1X",
"_ R A L H R 4.1.i.(.9X5X-X1X1X%X-X;X(.%._ d.N./.'.(.(.(.'.'.'.'.(.-XXXJ.t.Y f B 0.E.;X5X9X;XE.C.Y.(..X-X.Xi.%.0.(.%X-X%X%X;X1X-X%X;X5X;XJ.t.5XuXdXhXhXuXeXeX5X-Xi.R XXdXSXcXuXdXuXbXcX1XD.&.N.J.x.J.XX;X;X-XD.[ B [ 0.i.d.k.i.4.i.k.n.N.C.n.k.d.D.Y.1.Y i.E.n.J.1.f / .XdX5X%X5X;X%X1X1XJ.>.R B f R 1.d.n.Y.'.'.(.E.D.n.x.x.n.N.1.H L E.XX(.(.(.E..X'..X.X'..XE.k.n.'.-X/.E.'.E.;X5X;X'.t.Y p j j >.N.%X'.%X/.XX9X1X%X%X-X%X.X(.E.XX-X(.n.>.H 0 l t.E.'./.J.(.%X/.>.+.Y r j R 1.k.x.x.d.4.} } 4.n.x.>.R L H B A +./ t.E.'.;X-X(.%X(.'.XX/.%X-Xt.N.E.'.Y._ t./.XX%XXX.X.X'.'.'.'.'.J.E.%X1X-XXX'.d.i.",
"&.>.1.d.d.t.0.R &.N..X%XXX-X;X-X-X'.i.L %.Y.(.'.%X%X%X;X5X9X1X;X1XeX;XXXE.} p l D.-X5X-X1X9X-X(.J.n.1.&.&.R Y 1.1X;X1X9X9X5X5X9X9X5X5X9Xn.L n.;XdXcXbXdXuXuX9X1XE.[ 4.5XuX5XhXdXhXhXhX1X0.N.-XE.E.D.E.J.E.XXd.H 4.d.x.k.d.k.k.d.n.N.D.J.J.C.x.k.N.C.%.} E.-XJ.Y.n.D.1.&.XXdX-X5X5X5XE.&.Y [ +./ Y / _ / +.d.E..X/.J.C.N.C.D.D.C.E.R A E.XX(.'.'.'.XX/..X%X%X1XXX.Xd.d.XXXXE..XXX-X5X;XY.&.R / +.&.+.[ &.N..XXX/.;X-X%XXXXX'./.Y.E.'.'.'.%XXXi.B +.D.E././.(.-XXX1.L } 0.>.&.%.} } [ A l / 1.k.J.D.Y.J.k.&.[ _ +.} / >.C..X5X9X%X-X/.'.%X(.;XeXC.C.XXXXE.>.n.%X-X9X;XXX(././.(.'.%X.X4.+.N.x.&.4.0.1.",
"x.k.d.C.J.E.Y.4.j H +.t.x.C.J.Y.d.t.R / k.'.%X.X%X-X1X9XeXeX9X9XeXhXeX1X'.&.m Y /.1X5X-X5XeX5X;X(.(.0.j 6 j H _ ;X5XeXuXeX9X5X5XeX5X;X-X&.j _ J.-X9XdXhXdXuX5X-XXX[ _ /.%X%XuX5XdX5X.Xx.1.'.-XE.XXJ./.C.J.XXd.R k.N.D.D.D.J.J.D.N.C.J.E././././.(.E.>.&.(.XXY.Y.C.n.N.t.+.Y.uX'.'.>.H %.x.k.t.d.d.&.} +.+.} 1.x.J.Y.J.D.C.D.Y./..X} Y E..X/..XXX(.'.Y..X-X.X%X(.%XY./ &.-X;X%XdX;XeX%Xt.%.d.Y.D.Y.J.N.4.%.0.Y.%X%XXX.X/.Y.J.E./.XXXX.X'.(.J.0.R n.J.D.E.'.%X;XD.t.d.n.E./.Y.E.D.x.} p j 4.Y./.(.'.(.(./.J.n.i.4.H L &.C.(..X1X1X;XE.(..XXX1X%XE.J.XX.X(.d.d.E.'.5X-X'.E.E./..X%X'.%X0.L 1.t.&.i.C.N.",
"1.k.C.Y.D.Y.'.C.l B / >.0.&./ L m A m >.Y..X5X1X-X5XeXuXeXeXeXuX5X9X9X9X;Xi.L H Y.;X9X5XuXdXeXeX-X;XJ._ 0 p R +.E.1XdX9X5XdXdX5X9X9X;XY._ Y / d.E.XX9XdXcXhX9X%XC.A +.t.(.-XeX5XeXXXx./ n..XE.(.J.J..XE.E..Xn.%.C.D.J.J.Y.J.J.J.J.J.J.Y.E./.(.'.E.J.4.t./.(./.'.(..XE.J.x.[ Y L p %.n.N.C.J.J.Y.D.N.n.x.i.&._ R d.D.'.'.J.C.Y.(./.+.H D.XX%X-XXX%X'.J.E.(./.'.'.'.-X[ l 4.D.(.'.%XXXD.>.x.'..XC.Y./.D.J.4.k.0.1.E.(..X.X(.(.'..X/..X%XY.&.B Y 1.J.D.J.(.-X;X'.t.Y.-X(.'..X(..X'.(.N.+.L &.C..X-X1X.X'.XX.X/.D.k.t.4.>.d.C.J..X.X%XE.E.'.-X-X/.Y.Y.'.E..XC.%.0.n.(.'..XXXXXXX.X'.J./.x.[ [ 0.x.n.C.n.",
"C.J.J.J.J./.'.n.f H } 0.x.x.t.%.m j A 1.D..X1X5X5X9XeXuXeXeXeXeX9X5X1X1X.Xt.A p n.%X9X1XeXdXuXuX5X%X'.i.m 0 A R i.'.eX9X9XcXMXhX9X1X.Xi.[ +.%.1.d.C.(.-X5X5X'.C.} m +.+.n.'.eX9X%Xn.+.&.'.'.Y.'.n.D..X(./.XXY.0./.E.J.D.C.C.D.J.E.E.E.E.E.E.E.E.(.D.t.C..X'..X(.Y..X.X%X.XJ.4.r %.n.J.C.J.Y.J.Y.N.Y.E.D.D.D.k.%.} 0.D.(.'.(.(.'.N.} m 0.Y.%X%XXX1X%X'.J.Y..XXX%X-X%X>.H L %.n.i.D.C.t.>./.-XXXY.J.(.(.'.0.0.[ Y 1.i.N.E.(.(./././..X(.t.B p _ N.J.Y./.'.;X%XN.i.E.'./.E..XXX.X'.Y.Y.x.[ B _ n./.%X/.'.%XXX.XXX'.XXE.4.&.t.N.'.E.(.(.Y.'.%X%X'.n.C.XX/..XJ.} +.%.4.d.D.'.-X1X;X-X1X%XD.4.4.n.J.C.J.C.",
"k.n.x.N.D./..Xx.A R _ / +.t.d.0.&.A L } d..X-X-XeXeX9X9X9X9X9X5XeX9X1X'.i._ H A 4.'.9X;X5XdXuX9XeX-X%XN.Y A / A L 4.E..XXX-X9XeX1X.XD.%.} _ +.} +.1.d.C.E.J.d.+.} 4.%.+.+.i.'.J.C._ A Y.%X(./.E.Y.E.(.(..X;X.Xi.(.E.Y.Y.E.E./.(././.(.'..X.X.X.X'.k.%.x.'.XX-XE..X/.(.-X.XXX/.L 1.Y..XE.Y.E.E..X'./.Y.Y.E./.Y.D.1.4.t.C.'.%X'.E.0.%.B [ 0.C.'.;X%X;X9X(.(.1X%XXX'.N.A R k.x.E..XE.XXC.%.J.-X-X.X.X.X-X%XJ.x.4.R H Y _ >.d.N.N.N.n.n.&.j r _ x.J.J.(..X/.%X/.t.D..X(.XX'..X-XXX-X-X/.Y.x./ A %.k.%XE.(.-XXX.XXX'.XX%Xx.%.+.0.D.n.J.'.J..X%XXX-Xi.x.5X%X(.D.&.+.L H Y [ >.k.Y..X;X-X/.&./ x./.Y./.D.N.",
"n.k.k.n.J.XX/.t.[ Y R %.0.t.t.i.4.0.} [ t.D.'.;X9XeXuXeX9X5X9XeXdX;XE.n.n.D.C.n.>.i..XeX9XbXeX9X9X9X'.t.R L _ +.} %.&.0.k.4.%.t.n.4.+.R R [ [ _ H / &._ +.+.B %.D.E.(./.C.t.1.4.[ l A .X;XE.Y.(.E..X'.'.1X;XC.>.Y.(.'.'..X%XXX'.XXJ..X(..XE.C.J.d.+.H &.'.1X.X(.'.D.Y.(.(.;X%Xi.H J./.XXY.J.E.XXY.(.(.E.J.E./.E.t.1.} 4.D.E.J.0.Y A L [ +.%.i.Y..XXX;X%X;X-X1X%XN.>.t.'.-XXXXXXXE.;X.X>.J.'.1X1X%XXXXX%X%XE.t.[ &.n.D.N.N.D.R f j f r 3 > l 1./.(.'..X1X%X%.L k./.%X-X.X.X-X-X.X-XE.(.'.4.l A &.J.(..X'.'..XXXXX1X1X'.%.H _ [ +.Y.E.E.'.5X9XJ.} d.-X(.XX'.4.m m / / R _ +.1.i.x.0.[ A &.k.E.J.Y.J.x.",
"d.k.x.x.C.'.J.+._ 1.N.(.%X-X;X-X'.C.N.1.0.E.(.uX;XeXdXeX5X1X5X9X-X-X%XXXXX;X5X1X'.n.d..X;XuXuXeX1X/.d.&.+.>.t.x.Y.E.J.C.J.C.4._ m L [ %.1.0.4.1.i.} } R H l B N.%X%X;X5X;X'.N.i.+.B L (.eX'.E./.'.'.XX%XE.4.m O 0.n.Y.E.Y.J.N.k.d.k.x.k.i.t.%.&.L 0 $ l t.XX1X%X/.J.(..XXX1X;XY.[ 0.C.'.E.E.'.(./.(./.Y.Y.E./.E.i.1.A f m Y _ H _ L H / / L Y _ t.k.Y.Y.'./.Y.x.1.D.1XeX;X%X;X;X-XeX-X1.x.'.9XXX1X5X;XXXXX'.x.} t.;XuX1X.X'.C.d.R Y R } Y 6 A Y.Y.XX-X'.t.m m 0.D.E.'.%X%XXXXX%X-XXX-XE.[ r l _ x.J.(.'..XXXXX.X.X5X;Xi.+.i.i.4.0.d.k.d.k.i.} j i..X/.(.'.N.R j 1.4.0.i.x.N.J.Y.t.[ Y _ 4.D.J.'./.D.",
"n.x.N.D./..XN./ n./.-X-X;X5X9X1X-X'.XXi.>.J.'.9X9XeXeX9XuXhX5X'.x.E.%X1X5XeXdXdX9XY.1.x.x.C.(./.n.0.1.i.N.C.Y./.'.XX-XXX%X-XJ.>.6 / t.C.J.D.C.N.C.t.t.} l r L .X%X-X5XuXdX1X/.n.1.Y L x.5X%X'.(././.E.i.A l } i.t.&./ / &.>.Y r 6 H f f l _ %.t.i.+.L l H x.%X'.-X.X(./.(.XX%X(.R B d..X/.E..X/.Y.'..X/.J.J.J.J.D.%.j A _ [ &.&.>.+.+.4.0.&.} } [ _ [ _ } R / _ /.1XhXdXeX;X-X;X9X9X;X4.%.i.XX.X-X;X;XXX'.(.J.n.&.%XhX5X%X(.%X/.J.E.Y.(.(.i.%.n.(.(.C.%.l 0 l _ x.x.C.Y.(..X.XXX;X'.D.4.L m A m 0.x.Y.(..X%X%X.X.X;X-XC.n.'.XXXXXX%XXX'.'.E.i._ %.D.'.XX%XXXi.1.C.D.Y.E.E.J.D.N.x.1.&._ +.0.n.'.(.E.",
"C.x.D.(./.Y.C.k.XXXX.X.X%X1X5X1X1X5X;XE.t.d.'.%XeXeX1X%X%X%XJ.t.n.(.5XuXdXdXhXdX1X%Xx.>.Y +.4.} _ &.x./..X'..X%XXX%X9XeX;X%X/.d.Y k.E.'..X(.'.(.D.J.Y.d._ j R ;X-X9XhXcXhXeX;XXXN.4./ R n.n.k.4.k.4.[ / 4.E.'.Y.(.E.x.1.} / H l L _ 6 p } k.C.J.D.N.t./ j A 1.k./.'.(.E..X;XXXE.k.l [ k./..XXXE.E.(./.Y.J.E.(.(.Y.&.A &.d.4.0.d.4.1.t.n.C.n.d.d.d.>.} Y _ Y >.J.%XeXuXuXuX1X5XMXMXSXeX4.H Y x.Y.'.(././.'.%X'.J.>.Y.-X(.XX'.1X'.(.%X'./.;X;Xn.} t.%./ A m H H j j [ t.i.k.D.(.(.Y.i.} L H _ _ m L %.x./.-X5X;XXXuX9XXXN.D.-X5X%X'.'.(./..X%X(.C.} 1.D.XX%XXXn.D.E.(..XXXXX.X(.E./.D.N.t.>.Y 0.J.'.(.",
"%X'..XE.k.x.(.1X-X-X1XuXdXdXuXdXbXuX9X-Xn.d.'.9XXX5X9XXXD.k.4.%.'.;XeXdXcXcXhXuXeXeX.X1.m [ _ H %.k./..XXX%X;X1X5X5XuXuX;X%XE.t.>.E.(.'.%XXX%X.X.X(.Y.Y.N.R L (.9XhXbXhXdXdXuX9X;X'.d.Y >.4.%.Y B / L _ Y.1X%X.X'.1X5X'.k.&.[ _ / +.H Y k.k.N.N.i.i.d.t.[ r r _ D..X%X/.(.-X-X(.C.B A R 0.x.J.(.%X.XE.D.J.(..X.X(.Y.k.x.x.d.C.Y.k.x.N.D.C.n.x.N.n.N.t./ } &.C.-X-XuXuX9XuXdXhXSXPXMX/.R l B / [ 1.N.(.'.(.(./.Y.N.C..XE.%X5XeX5XXX.XXXXX%X5X'.4./ B m A B R _ A [ _ L H [ t.i.>.i.0.t.d.i.x.N.x.t.i.0.0.d.J..XXXE.J.d.t.J.1X1XY.E.(.(.E.Y.'.-X5XC.1.i..X;X(.i.E.'..XXX%X-X%XXXXX'..X'.'.x.A 1.C./.(.",
"XXY.d.} } N.1X5X1X9XcXSXhX5X5XhXSXuXuXx.} 0.i.J./.J.d.%._ +.x.(.-X;X5X5XuXhXdX9XeXuX5Xd.m R [ 1.N.(.%X-X;X9X9X;XeXuXeX5X9X9X/.>.i.%X.X.X;X%X%X(.%X.XY.(.XXd._ >.eXhXcXdXdXcXhX9XuX9X.X1.%.>.} L _ [ B Y J.%X'.5X-X;X;X;X;XXXD.t./ [ _ [ C.D./.(.C.E.J.n.i._ j m i.E.;X%X/.'.XX'.C.d.k.t.>./ / %.n.E.'.'./.(.XX%XC.J.n.N.x.k.C.D.J.Y.Y.J.N.n.N.D.C..XC.R +.N.XX;XhXhXuXuXdXhXcXSXHXE.} / >.+./ / Y } x.%X%XY.Y.%X(.D.%X5XcXHXbXcX;X.XXX.X/.%XXXd.H j l L R %.i.t.N.C.x.1.Y B Y +.[ &.N..X'.E.(.(.E.E.D.x.d.d.0.>.L j f 1..X1X;X.X.XXX-X%XXX.X.X'.XXn.0.E.'.n.1.(.XX%X%X-X-X-X-X-X;X1X%X-XN.A / &.E.'.",
">._ B j [ (.dX;X;X9XdXuX1X%X1XuXhXeX%X[ l / H _ [ Y H Y _ %.k.(.1X5X5X5XuXcXcXdXeXdX9XD.Y R 4.Y.'.%X5XuXdXdXeX1XdXdX9X1X9XXXi.Y i.;XXXXX1X%X-X'..X.X.X.X.X/.k.[ /.1XcXcXbXHXSXhXhX9X;XN.[ / Y _ 4.k.t.i./.(.Y.XX%X-X-X-X1X5X%X/.J.t._ H 4./.'./.(..XE.x.k.k.1./ Y [ x.'.E.E.'./.C.Y.Y.'./.J.x.4.[ 0.C.Y./.(.'.'.i.C.D.Y.D.N.C.x.N.C.N.n.n.N.C.D.N./.i.B >.'.eXeX5XeXbXMXuX9XcXPX%Xt.&.C.(.Y.C.C.0./ / N.;X%X'..X-XC.D.uXHXPXHXMXdX1X%X'.'.1XXXk.0 f Y >.x.E.(.E.Y./..X'.J.t.} R [ %.N.%X-X-X-X.X.X.X/.J.D.C.x.t._ l 0 &.E.'.-X;XXXXX%X5XeX5X%X(.'.J.%.>.>./ Y k.C.D.Y./.'.XXXXXX%X(.J.N.>.Y j m &.0.",
"%.} %.>.n.1XbXuX9XdXdX5X;X1X1X-XXX(.d.%.[ L R >.&._ Y / / +.C.eX-X1X5X1X9XdXhXdXbXMX;X/.>.>.C.E.-X;XeXbXcXuXuXhX5X5X;X5X1Xn.R B %..X/./.%XXX5X1X-X(..XXXD.Y..Xn.[ C.9XdXuXhXcXhXbX5X5X'.%.} >.J.d.E./.D.Y.'.XX;X-X;X;X-X;X1X;X%X1XXXN./ m t.D.'.XXJ.J.E.J.D.C.k.+.j m %.>.i.Y./.%X;XE./.n.E..XJ.x.0.%.>.n.Y.n.1./ J.XXY.n.Y.XXY.D.C.n.n.C.J.Y.D.E.E.4.L x.%X9X9X;XdXPXSXhXMXdXE.%.4.E.XXJ.(.%XE.C.x.4.>.k.(.XX/.%X1.A n.XXeXhXuXhX5XXXXX-X-X(.C.l [ t.n.J.(.'./.XX.X(./.XXXXx./ _ +.d.J./.XX;XXX.XXXXXXXXXXX(.D.D.x._ R 4./.eX%X5X1X1X1X;X-X;X1X;X-X} A L A l Y [ } &.1.4.4.4.1.+.R / Y Y t.R _ [ &.",
"N.x.d.D.E.eXuX5X9XeXuX9X1X1XXXJ.d.1.%.&.>.>.t.N.n.t.t.+.+.4.'.;X;X1X5X9X9XeXhXbXhXbXXX/.n.n./.;X9XdXdXbXMXhXbXhX%X9X5X(.i./ } D.d.Y.%XE./.5X;X.X;X.X.X'.E.(.XX(.t.R 4.;XhXhXcXeXhX1X9X/./ t.D.n.N.(.'..XC.i.XXbXdXbXbX9X5XuX9X-X1X-XXXD.A } Y.(..X.X.X'./.J.N.x.k.>.H >.D.J..XeX;X;XXXE.J.E./.Y.XXE.D.N.>.B j A l d.D.J.E.E.(./.XX/.E.(.(.Y.J.J.D./.i._ /.9X5X5XSXPXbXPXPX9X'.+.%.n..X-X.X'..XXXC.E.D.n.+.i.Y.(.n.0.&.1.d.C.(.-X1X1X9XXX'.(.'.D./ 0.J././.(.(.E.(./.E./.XX%X/.n.R 1.1.N..X'.XX%X-X;X1X1X-XXX(./..XE.J.d.>.t.9X-X1X%XXX-X;X-X;X9X'.%X>.f / &.&.x.k.t.1.>.%./ m r j H >.4.x./.N.i.k.n.",
"C.Y.J.D.n.%XuXeX9X1X-X1XhXeXY.0.%.>.t.C./.(.'..X.XXX;X'.t.} /.;X;X1X5X5X5X9XdXcXMXMX9X/.k.E.%X5X9XdXdXbXSXbXcX5X9X1X/.i.4.t.x.N.i.D.;X-X.X'..X5X5XXXXXXX(.'.-X-X'._ m >.E.uXMXeXuXeX5XC._ C.XX(.%X.X.X;X(.x.n.N./.XX;X;X5XuXbXSXhX1X5X-X+.Y 4.C.'.(.'..XXX(.D.x.n.x.4.4.4.d.'.XXeX5X;X.X/.E.(.XX'.(.'..X(.n.+.A p 0./.(.E.J.Y.J.E.'.'.(./.Y.E..X/.D.R 0.-X;X9XdXcXhXdXMXMXXX1.H d.D.'.%X;X1X-XXX(.'.Y./.1.B l _ d.N.D.C.n.x.n.N.XX1X5X%XXXXX-Xt.>.n.(.'././.'.'./.E.E.E.'.XX/.N.R / %.x..X-X-X1X;X-X;X1X1X1X-XXX.X/./.Y.n.>.Y.eX9X;X-X;X1X-X%X;XeX%X+.[ d.x.N.E..X/.D.n.i.&.Y l j +.D.C.N.E.D.C.Y.Y.",
"Y.(.E.N.t.'.9X1X9XeX1X;X5XE.4.&.k.C./.'.XX-X%XXX5X;X;X1Xx./ J.;X1X1X1X;X;X5XuXhXcXcXhXE.&.Y.;XeX5XcXcXhXuXeXhXeXeXN.&.4.C.(.(.Y.Y.J..XXXXXXX'.-X5X%X-X5X;X%X-X%X1X>.Y %.>.t.'.uX5XeXXX1.[ /.-X.X-X'.-XXXN.d.x.D.x.n.N.C.J./.1XcXbX9X1X.X>.L B H _ 1.N./.'./.J.C.J.N.x.t./ _ D.%X1XXX%X9XuX1XXX.XXX1X5X5X9X1XD.+.j _ D.'.(..X.X'.E.%XXX'..X/.C.Y.k.%.j x.5X9XeXcXPXdXhXuXeXY.Y / /.(.'.%X9XuX5X.X'..XY.'.d.p r %.C.n.k.n.E./.d./ t.'.eX5X'.(.1X1.%.x.'.-XXX'.'.'./.(.(.(.'.XX.XE.+.f m } N.%XXX;X1X;X%X%X%X%XXX.X.X.X.XE.E.d.N.dXdX1XXXXX-X-X1X5X5X/.} i.n.N.(.%X1X-XXX'./.D.d.4.Y } n.E.E.J.D.'.E.Y.",
"D.J.Y.D.t./.eXuX5X9X/.d.1.Y A >.Y.XX1X-X%X1X9X9XuXXXE.%XE.1.n.-X5X5X1X1X1X5XuXcXHXbXhXE._ d.XX-X5XbXcXuX5X1XeX1Xn.+.>.E.-X-X-X-X-X'.J.t.x.%X;X-X;X%XXX-X;X1X;X%XD.%.[ 1.} R %.d.D.D.0.L %..X%X'.%XXX5XD.+.0.J.;X-X1X1X%X/.n.i.0.N./.XXd.H m j f p p m } N..XXX'.Y.k.N.E.4.L t.9X/.'.-XuXhXeX5X5XdXbXcX5X;X5X-X/.0.Y 1.n.D.(.E.J.E./.n.n.E.i.L A _ l A 1.J.5X1XhXbXbXbX.Xk./ f 4..XXX%X-X5X9X1XXXXX-X.X'.k.B [ N.N.n.k.n.Y./.C.0.+.i.XX;X.X.X.XR H >.J.-X5X;X%X.X(..XXX.X.XXX%X.XC.H p B [ t.C./.(.XX;X1X1X-XXX.X%X-X-XE.E.N.N.uX9X;XXXXX-X;X-X-X9XJ.1.C.n./.-X;X1X;X;X1X1X;XXX'.J.i.t.N.Y.D.N.D./.Y.",
"Y.E.(.J.R R 0.N.C.C.4.+.} A f L 0.J.-X;X-X1X5X5X5X%XXX1X5XD.i.1X5X5X5X5X5XeXhXbXHXcX5XE./ 0.-X-X;XeX5X5X;X.XY.i.B >..X5X%X-XeX5X-X%XD.Y H k..X-XXX;X1X1X5X-XY.d.&.>.0.i.i.i.4._ } / l f i.1X-XXX.XXX%Xi.+.C.%X1XXX1X9X5X5X1X'.N._ _ >._ Y } } +.%./ A A [ i.J./.XXY.Y.E.t.m A n.5X5X;X-X1XuXuX5XhXhXuX;XXXXX-X;X.XR A _ _ } _ / L H j Y i.>.H L } R %.R [ d.Y.XX/.'.C.1.&.R l Y Y.XX1X;X%XXXXXXX(..X%X%Xx.H i.D.J.J.Y./.E.Y./.XXx.i.1X9X%X.XC.Y j L >.N.(.%X-X;X%X;X1X%XXX%X%X.XXX>.j f r p / %.Y.(.%X%XXX.X%X;X.X/.XX.X/.J.D.5X9X1X%X.XXX;X1X1XdXt.&.N.N.XX%XXX1X5X5X9XeX9X1X;X5XXXD.k.x.D.E.Y./.Y.",
"/.Y.'.(.[ / t.C.C.Y.Y.(.%XE.d.d.0.N.'.-X;X;X;X-X;X5XeX-XY.0./ /.;X1X9X9XeXuXcXbXuXhX9XE.B R /.-X;X5X-X%XE.d.0.%.Y N.eXeX-X5X9X-X%X%XY./ l [ 4.d.x.D.J.C.n.0._ L t.N./.(./.(.Y.x.+.H p l C.;XXXXX.X%XE.1.0.'.1X;X1X9X1XXX-XeX5X'.t.0 j [ d.n.k.N.d.n.n.t.} R _ %.n.E..XE.x._ r j J..X1X5XeXhXhXuXdXeXeXdXuX5X-X-X/./ A R L Y / R B A m R 4.0.>.i.k.x.x.&._ m +.4.%.E.(.C.0./ L Y i.E.;X;X'./.(..XE.Y..X%XD.L N./.XX/.Y.(.(.E.Y.(.'.k.%X'.C.k.%.Y m m A / &.i.D.'.%X1X5X;X-X;X-X%X%Xi.B H Y H _ R H } i.D.E.(..X%X'.Y.E.'./.'.N.0.5X5X5X-X-X;X1X;X-XR &.C.D./.'.-X1X1X5X9XeXeX9X9X1X5XXXJ.t.>.N.(./.E.",
"'.E..X(.} +.k.N.(.%X%X%X;X1X-X-X(.E./.%X5X9X5X5X%X%XXXJ.>.[ A >.XX-X5XeXuXdXhXbXhXSXhXC.r B d.C.N.D.N.k.[ j H } x.(.1X9XeX9X;X-X1XXXC._ H +.&.%.4.>._ L m r m >.E.Y.E.XX-X%X'./.C.&.Y L C..X(..X1X5XD.0.C.XX-X%X9XeXeX9XeXuX5XXXC.l } x.D.n.N.(.k.x.N.D.N.t.[ H [ _ +.[ } >.+.>._ k.XX9X9XeXbXPXhXuXuXbXbXeXXX/.+.R Y [ [ } } A Y &.t.i.N.E.'..XY.J.J.J.i.L H +.Y.5XeX1X'.n.&.H } d.(.XX'.(.'.'.XX.XXX.XE.H N.'././.(.E.J.C.C.J..X&.} / } +./ B / / _ _ R Y +.t.d.n.J.E..X-X-XXX%XJ.t.d.Y./.Y.J.J.N.i.1.1.4.i.k.(.XX/.E.n.n.&.f / 1.N./.XX5XdXdXN.A 0./..X(.1XeX;X1X5XeXeXuXdXdXuX9X;X-Xd.m H &.C.J.",
"Y./.;X'.[ &.J.(.%X1X9X5X5X9X1X.X;XE.N.E.%X%X/.J.x.i.t.n.i.n.d.>.'.%X1XeXuXdXhXcXbXcX5X0.m 4.N.x.k.n.x.n.%.B / 4.J.-X9XeXuX1X%X9X5X'.i.m B t.D.J./.J.x.t._ r A C.J.'.-X;X1X1X;X;X'.k.%.R n.(..X-X.X.Xt.i.;XeX9X;X9X5X5X9X5X1X1X5XD.Y i.D.J.Y.Y.J.(.J.n.n.N.n.i.1.R l %.J..XXX'.%X'.N.i.N..X;X1X5XXXXX.X'.E.N.i.1.4.x.n.D.C.N.0.f +.n./.J.D..X'.N./.n.E.(.D.i.Y k.1X5X5X5X5X%XC.%.L >.C.'.XX%X.X(.'.-XXX(.'.Y n.(.E.(./.D.C.J.E.Y.(.>.L l Y } t.t.1.d.C.n.&.H B R j H [ 4.n./.'.(./.'.XX'.XX;X%XhXeX1X-XXX(.N.&.Y i.E.Y./.0.[ _ [ %.1.>.[ _ >.n.J.%.f %.N.XX.XdXXX9XeXuXuXuXuXuXuXhXeX-X1XD.A 0 6 [ %.",
">.[ >.C.d.t.'.XXeXeXeXeXeX5X;X-X;X-XE.H k.J.t.i.N.C.Y.(..X'./.Y.n.J.5XeX5XhXcXdXbXcXY.>.k././.'.%X(.%X.XC.i.Y 1.-X%X-X5X;XXX%X1X.X'.+.A C.E././..X-X.XD.i.Y A C..X%X;X5X5X5X5X5X%X/.k.L D.%X-XXXXX(.Y t.9XeX;X1X1X9XeX9X9XeXeX5XD.>.D.J./.N.Y.J.C.J.C.N.C.n.k.C.B >.;X;XeX;X9XeX5X-X'.J.C.N.C.D.i.} Y l H 4.n.J./.(.E.Y.Y.E.D.x.t.E././.C.E.J.N.E.(.J.C.D.(.k.C.dX;X-X1X9XdX9X/.1.L [ Y.-X%XXXXX(.'.(.XXC.f d.XXXX.X.X'.E.D.D.E.D.&.j L &.D.J.E././.E.D.n.d.i.i.i.4.t.x.1._ 4.(.MXhX;X1X1XbXMXSXdXuX9X5X1X-X'.Y.>.+.i.1.B %.t.k.k.x.N.N.x.0.%._ B 3 H 4.Y.(.;X1X9X9X5X1X5XuXdXeXcX1X;X;Xx.B p Y %.&.",
"N.t.1.} Y +.n.'.5X5X5X5X1X;X%X%XXX'./.L R 4.J..XY.(.XX-X;X;X-X-X9XD.N.XXdXuX5XSXbX1XD.x.E.-X1X1X9X9X9X1XXXD./ t.XX;X1X-X;X5X;X.XXXN._ %.(..X%X5X%X-X.XY.N.[ R E..X-X1X9X9X5X9X9XuX.Xn._ J.XX%X%XXXx.R &.dXcX1X5X%X1X9X1X1X5X5X1X(.4.E.E.Y.N.Y.E.J.J.C.D.J.x.k.Y.+.k.eX;XuX1X1XdX1X;X%XXXXX-X5X9X1X.Xi.H } /.XX'.(.'.'.'..XXX'.Y.n..X(./.J.J.N.E.Y.Y.Y.Y.Y..XN.C.dX1X5XuXdXbXMXuX'.>.R t.D.XX-X%XXX.X;XE.} p i.(.-X.X/.J.D.J./..XE.1.p / d./.%X.X;X-XXX(.E.E./.'.%X-X.X(.J.&.0.9XPXHXcXMXdXcXhXMXMXSXSXbXdX9X;X%XXXd.R +.&.d.C.J.E./.'..X'.Y.N.k.+.H f m i.C./.%X;X5X9X9XeXdXuX9X;X5X;XJ.>._ 1.N.n.N.",
"(.C.x.&.+.%.+.d.E.'.-X5X9X5X-XXX/..X'.&.%.0.Y.(./..X-X;X;X;X1X9X5X5X(.i.C.-XXX-X1XY.N.E..X-X5XuXdXbXdXeXeX(.[ 4..XXX%X-X;X;X;X;X'.>.L x.XX%X1XeX5X;XXX'.J.} R (.XX;X5XeXeX9XeXeXuX1X/.>.C.XX;X;XN.R _ &.'.hXdXuX1X9XuX9X9XuXhXhX(.&.E.(.E.J.Y.C.E.J.D.J.Y.n.N.(.t.d.dX9X9X9X5X5X5X1X-X%X%X%X;X1XuXhX/._ 1.XXXX/.%X;X;X-X-X-XXX/.C.%X.XY./..XE..XE.J./.(.E.XXY.x.dXeXuXdXeXuXcXcXhXY.} / [ x./.%X-X'.'.0.m l &.Y.-X;X-XXX.X.X'./..X0.j >.Y.XX9X;XXXXX.X(./.(.XX-X1X5X;X;X.X>.R i.5XhXbXMX9X;XuXPXMXMXMXcXhXcXHXPXPX(.l } N.J.XX'./.(..XXXXX'./.Y.N.d.} m Y R 4.D.9XeX9X;X-X1X5X5X9X;XE.t.>.t.N.J./.(.",
"'.D.n.i.%.L A &.+.1.k.Y.XX;X1X1X%X9XJ.+.i.k.J..X'.%X;X-X%XXX;X9X;XeX;X0._ } [ &.0.&.4.Y.1X5X5XuXdXcXdXuXeX'.} _ %X(./.XX5X9X;X%XE.} Y E.XX1X9X1XeX5X;X%XE._ H E.%X;X9XeXeXeXeXuX9XuX%Xt.n.1X1XE.%.j [ &.R /.hXSXeXdXdXuXuXuXeX1XJ.R n.E./.'.Y.n.Y.J.J.J.Y.J.Y.(.d.[ -XhX5X5XeXeXeXeX5X1X1X1X5X5XuXSX%X%.4.(.XX;X-X1X1X;X-X-X.X/.d.'.;X/.Y.%X.X(.(.J.(.'.Y.'./.i.-XuXbXdX5X9XdXuXuX1Xk.L Y / &.k.x.x.1./ _ / B 1.(.XX-X%XXXXX.X'.'.1.R x..X%X1X;X.X%X;X1X1X;X1X1XeX-X5X9XE.0.>.>.t.k.k.d.4.>.d.XXD.E.%X9XdXcXbXSXcX'.Y 0.Y./.-XXXXXXX-X;X;X-X%XXX'.Y.J.t.H 6 R +.k.D.(.XX%X;X-XXXE.k.1.0.n.J.Y.Y.XXXX",
"Y.Y.Y./.0.H L _ L L R } 1.x.Y.(.(./.4./ i.C.'.1X;X5X9X5X-X%X1X9X5X%X;XY.&.Y A Y l L / i.;XuX9XdXuXuXdXhX5X.X>.A x.'.1X1X;X9X1X.XY._ R '.;X9XuX1XeX9XeX5X(._ A E.%X;X9XeXeXeXeXuXeXuX-Xd.i..XJ.&.} L +.>.l [ E.eXbXcXuX9XuXhXuX1X4.A t.J.E.'./.J.C.Y.Y.D.Y..X'.C.Y A D.5XeX5X-X5X9X5X1X1X;X1X5X5XuXSX-X>.4./..X5X'.%X;X;X;X1X-X.Xi.4.'.%XJ.D.Y.E.(.D.E./.J.(..Xt.N.5XPXSXcXcXdX1X9XhX'._ %.A B R >.x.0.d.Y.k._ R 4.n.'.;X1X;X-X%XN.[ 1.Y.%X-X%X;X1X9XuXdXdXuXeXuX5X9XbXuXJ.x.J.J.E.k.[ Y } _ R [ m B Y +.d.J.'.%XE.i.} D.(.(.XX.X;X1X5X5X5X5X1X1X-X/././.0.f B A l Y %.0.i.i.4.%.[ } 4.N.Y.Y./.XX/.E.",
"D.E.'.5X.Xt.[ p L L Y / +.4.d.n.i._ L / 0./.-X.X1X9X9X5X;X;X1X9X;X-XuX.Xt.>.%.+.A &.%.+.k.J.'.dXuXuXhXbX5X%Xi.A R k.%X5X5X9X5X;Xd.A m J.1X;X9X9X1XeXuXeXXX%.L Y.XX-X5X9X9X9X9X9XeXuX5XD._ >.%.} 1.4.t.x.d.H / i.;X9XuXdXhXeX'.N.H m 0.(.'././.E.C.Y.E.J.E.-X(.4.l t.n.0.E.5X;XeX9X5X1X1X5XeXdXhXbXbX(._ +.Y..X-X'.-X5X5X1X1X-X.XN.r } '.'.D.J.(./.J.Y.Y.Y.'.XXt.Y N.5XdXMXHXbXeXcXPXuX1.[ m R 4.n./.(..X.XE.E.&.Y %.n..X%X/.C.N.&.H d.(.-X1X%X5XeXuXuXeX9X9XeXdXeXdX9X.XJ.N.N.Y.XXJ.&.A / L m l H L _ &.0.0.>.} i.R / Y.%XXX(..X-X-X;X1X1X1X;X-X;X-X/.'.D.m f H R _ } } [ R l 6 Y 4.J.E.J.Y.(..X.X'.",
"/./.Y.'.XXn.R 0 R [ 1.d.N.D.D.D.n./ Y Y } C./..X-X;X1X1X1X1X5X5X;X1X9XY.>.+.>.n.N.(.E.x.i.i.x./.-XeXuXdX1X%Xi.A _ +.4.C.XX1X.XJ.+.l f 4.%X%X1X1X1X9XeX9X-X4.L k.'.%X;X5X5X1X5X5X5X9X1XC.l / 1.n.N.D.J.'.%X1.R R >.x./..X/.k.[ l A A [ C.(.J.Y.J.J.Y./.E.(.%XC.R A x.%.r L i.J.(.;X-X%X-X;XeXhXMXuX%Xx.L H 0.C..X.X;X9X5X;X-XXX(.Y.0 A d.'.XXXXXX'.'.'.E.(.(.'.>.f [ i.J.;XdXbXPXSXPXbXJ.R / k.(.(.'.XX'./.J.;Xn./ H Y &.4.%.[ +.[ L n..X;X1X5X1XuXuXdXuXeXeXuXdXbX-XJ.D.J.D.C.Y.E./.i.B A B Y %.d.k.k.n.D.Y.E./.d.[ H k.XX-XE..X-X;X5X9XeX9X5X1X;XeX%X.XN.l H &.k.n.D.J.Y.N.>.Y _ x.(./.E..X%X.X/./.",
"XXXX%XXX%Xd.B R d.x.J./.(./.J.C.E.n.i._ / >.0.%X-X-X;X5X9XeXeXeX.XuX1Xt.&.N.'.9XuXeXeXuX9X.Xk.+./.9X;X;X-X'.1.B } 0.t.>.>.d.k.4./ L m [ XX;X9X-X1X9X9X1X-X0.B %.(.XX-X1X1X;X1X1X5X-X/.t.j t.E.XXXX'.(.%XY.E.k.+.Y _ [ Y H R +.1.&./ f +.n.N.Y.Y.(.Y.E.'.XXXXd.l [ 1.4.k.4.+.0.t.n.k.0.1.>.1.t.i.%.[ %.} Y A H %.Y..X1X1X;X-X%X.X/.+.1.&.x.-X1XXX-X;X-X'..X/.Y._ 1.>.%.1.N.Y.%XSXbXhXdX9X&.k./.(.-XXX-XXXeX'.1XXX} m l } 4.+./ [ +._ N.%X1X;XuX-X-X1XeXdXuX9X5X5X(.4.d..X'.E.(.Y.E.'.d.j l H >.N.J.Y.E.Y.J.D.J.Y.C.k.L &./.%XE.(..X%X;X9XeX9X5X5XXX-X;X-Xk.H t.x./.E.E.'.-X1X'.C.+.N..X'.(.XX-X.X/./.",
";X(.%X5XN._ } t.D.J./..X-X%X.X(.'.J.J.N.d.Y %.E.%X-X;X;X;X;X;X-X5X;XD.k.'.eXeXeXhXhXbXhX9XuX1XD.i.C.%XXXk.1.%.C..XXX.X(.Y.D.J.E.Y.t.B / n.9X1X9X1X;X1X5X(.4.L m d.-X5X'.XX9X1X.X5X.X/.0.l n.Y..X5X5X-X%X1XXXJ.D.4._ >.6 B d.D.0.t.4.[ A R i.E.'.(.(..XE.Y.n.%.1.C.J./.(./.J.N.x.N.J.i.A l m l } t.d.x.k.d.k.i.4.} [ x.'./.'.(.'./.1.%.Y m >.J.(..X-X(.(.(./.>.0.J.J.D.C.n.k.i.0.N.d.x.C.D./.XX.X-XXX.XXX;X5X;XXXi.f >./.XX/.D.N.i.} 0.Y.'.;X%X.XXX;X9X1X'.N.t.>.+.B t.%X%X'.E.'.E..X>.f l %.J.Y.E./././.E./.(..X'.J.k._ k.-XXX.X'..XXX%X-X;X;X-X;X5X.XN.+.} D././..X;XeX9X-X(.Y.+.D..X(.'.XX.X%X;X%X",
"-X5X9XE.&.+.d.N.(.(.'.XX-X;X;X-X.XXX-X%X.X} H &.D.XX5X1X;X5X9X1X;XJ.Y.XXXX;XuXdXhXuXuXeXuXMXhX.X_ _ 0.C.n.E.'.dXeXeXeX9X1X;X1X9XXX/.1.H [ '.9X%X-X1X5XXXk./ m m Y n.-X1X1X-XXX%X-X5X.X>.j x.%X%X;X;X5X5X%X'.(.(.n./ j   _ D.C.4.N.N.k.>./ Y } 0.E.(.n.4.0.i.x.D.Y./.'..X.X'./.E.'.J.1.A j H R d.n.C.C.C.D.J.Y.D.Y.4.H / d./.XXXX0.H H H l B R %.N.E.E.k.t.x.n.XXD.Y.(.(.Y.n.4.%._ A / t.n.D..X1X-X%X%X-X1X1X;X%XN.H t.'.%X(.Y.Y.'.Y.Y.N.D..X-X-X-XXXY.k.&./ Y L A B d..XXX%X'.Y.'./.[ 0 A t.Y.(.Y.E./.E.E./.'.XX(..X/.t.>.Y.-X5X'..XXX%X-X-X-X-X.XC.>.} } d.'..X(.-X5X5X9X5X'.x.+.n././.'.'.'.XX-X%X",
"9X;XXXC.0.d.E..X;X-X%X%X1X9XeXeX5X1X1X%XE.%.R %.d./.-X.XXX;X%XJ.4.d..XeX5X5XhXhXhXdXdXuXuXcXeX'.%./ 1.E./.;X;X1XdXhXhXdXdXdXcXbXeX;X'.4.Y %.E..X9X;X/.n.i.t.4.&.R >.x./.%X%X-X9X-X-XC./ r [ '.1X%X;XeX5X.X%X1X.X/.&.r p i./.Y.Y.D.J.J.C.i.+.L m } _ A &.D.Y.'.'..XXXXX%X%X%X%XXX-XN._ l j &.d..XY.E./.E.(.XX-X%X;X(.[ j L Y / R Y R 1.d.x.k.4.4.1.[ B 6 / N.E.(.(.(.(.E.J.n.d.t.+.Y } n.J.Y..X-X1X1X1X1X1X1X;X-X/.[ x..XXX(./.(..X.XJ.H R &.d.k.x.d.4.+./ L L Y B f >.(.XXXX'.(.XXY._ 0 / C.Y./.J.Y.E.E.E.(..XXXXX%X(.C._ %.Y.-X;X1X1X;X'.C.t.>.R l A / >.N.E.(.XX5XeX5X-XXXD.0.+.d.J.'.%X%X%X1X9X;X",
".XY.D.J.J.Y..X;X5X1X;X1X9XeXuXuXuX%XE.d.+.&.n.J.XX-X%X(.'.'.x.} j C.9X1X5XhXhXhXcXbXbXhXhXbXhX9Xd.&.d.XX%XdXbXcXuXuXuXuXuXdXhXcXhX5XuXXXi.H %.n.n.d.>.%.k.(.(.N.Y.N.d.d.n.x.k.d.d.%._ Y A B x.5X1X-X1X5X5X9X9X-XXXi.m %./..X%XeX%X.XJ.n.N.C.0.R f / t.'.;X.X-X5X1X;X%X%X%X%XXXXX%Xi.B f B x.Y.%X(..XXX.XXX-X-X%X.X1XN.m p B } 4.k.D.J.J.(./.D.J.D.i.L & >.'..X(..X(.Y.D.C.D.Y.E.%./ +.x.E.XX-X.X-X;X;X;X;X1X5X9X.X%.C..X'.E.E./.XX;X'.H &.k./.'.(.(./.E.D.N.k.d._ p L N..X'..X%XXXE.>.j } Y.J.J.J.Y.E././.(.XX%X;X;X.X-X0.r A [ k.k.k.x.N.C.J.Y./ p H +.4.N.E.5X5X;X;X1X;X/.0./ H / &.x.E.XX5XhXdX1X",
"t.D./.J.J.'.XXXX5X1X1X9XeXuXuXeX1X.Xi./ [ n..X;XXX.X'.XX1X1X'.N.H E.dX5X1XuXdXhXMXcXdXuXhXcXuX1X0.>.x.;X%X5XdXuXhXdXdXuXdXdXhXhXcXuXhX9XXX} B L H +.t.k.J.XX%X/.-XXX/.N.i.>.Y r p p [ 1.d.[ %.k.;X-X-XeXhX5X;XdX-Xt.B t.-X1X5X1XeX9X%XE.Y.E.C.0.A t.-X%X(.%X;X5X9X1X-X%X%X%XXX.X'.%.p l [ D.Y.(.XX;X1X-X-X-XXX'.E.(.Y.l m k./.'.J.J.N.J.'.J.D.XXXX'.%.3 4.(./..X/././././.(.(.'.1.L H 4.J.%X1X-X1X1X1X;X-X-X;X1X'.&.J.XX'.Y.Y.E.(.%X.X[ D.(.1X1X1X-XXX(.E.J.D.C.>.B m 4./.XX%X.X'.'.x.A / D./.E.Y.E./.(.(.'.%X-X5X5X-X%XD.0 B [ E.E./.(..X%X;X1XJ.Y H +.i.C.E.1X;X5X9X-XY.i.>.%.4.&.>.t.x.J.'.%XC.N.",
"k.(..X/.'.;X-XXX;X1X5XeXuXuX9X5X1X-X%.L x.%X(.;X1X1X5X5X1X;XXX(.} t.-XSXhXuXhXhXbXcXuXhXSXhX.XC.+.>.N.uXuXdXbXhXbXcXdXdXhXhXhXhXhXcXhXeX.X[ p l %.n.'..XXX;X1X-X.XXXXX'./.Y.1.p O R N.C./.n.&./ C.-X5X1X9X5X5XdX1Xd.H 1.%X9XuX%X9X5X5X5X-X(.J.N._ >./.'.(.-X%X;X9X1X;X;X1X1X%X.Xd.B 6 B i.E.E.%X;X9X9X5X1X;XXX(..XY.J.m [ (./.N.n.J.C.(.-X.X.X;X5X%X%.6 4.XX'.%X(.(.'..X.X'.(.(.N.Y m >.D.(.-X9XeXeXeXeX9X9X5X1XN.} Y.-XXX(././..X%X%X1..X;X9X1X1X-X.X(.(././.E.x.R l 1.E.'..X'.'..XJ.[ L d..XXX/.(.'.'.'..X%X;X1XuX1XY.Y./ C.-X(.XX;X5X5X-X(.E./.} H +.i.C.E.XX;X9X%Xk.%.1.n.J.Y.C.n.x.i.4.+.H j L ",
"Y.'.'.%X9X5X-X-X1X1X5X9XuXuX9X1X;XE.+.>./.-X/.-XXX1X5X1X1X5X;X.X/ [ N.eXhXhXbXcXhXbXbXMXSX5XD.k.(.(.E.dXbXbXMXcXcXhXuXuXhXhXhXdXdXcXcX9Xi.l 0 H D.(.XX.X%X1X5X;X1X-X-X-X;X5XE.+.0 i.Y.J.(.Y.N.i.4.Y.-X%X-X9XuXeX5XJ.[ Y /.9XdX1XuX5X-X-X;X-X.X(.t.+.i..X%X'.%X9X9X1X1X5X9X1X.XE._ m l m n.(.XX9X1X9X9X5X1X5X1X%X;XE.n.A i..X(.(.XX;X'./.(.(.XX.X9X.X>.m [ Y.E.'.XX.X.X.X'.'.'.'.i.A m 1.D.E.XX5X1X1X9XuXuX9X%X/.%.A N.-X%X.X(./..X-X%X4.(.9XcXuX5X1X-X%X%XXX'./.E.1.A +.N.Y..XXX'.'.'.x.R &.'.XX'..XXXXX.XXX-X1X;XeXuXXX'.d.XX5X5X5X5X1X;X%XXX.X%Xn.} R / t.'.%X.XJ.4./ +.n.(.'.'.'.%X%X(.D.1.l m &.",
"x.E.XX-X5X%X.X1X5X1X1X9XeXeX9X5X.X4.&.E./.'..X-X;XeXeX;X1XuX;XJ./ >.4.d.%XhXcXbXcXHXbX;XY.4.} &.x.x.i.-XbXSXbXuXcXdXuXuXhXbXcXcXdXbXcX-X/ r p A E.(..XXX;X9XeX9X;X;X5X;X.X%X'.x.R Y.J.E./.x.D./.0.4.D.;X1X;X9XeXeX/./ 3 C.5XeX1X5XuXeX;X;X9X;X(./.[ j >.Y.XX9X1X9X5X1X5X5X-XE.n.Y } %.j i./.%X-X-X1X1X;X;X5X9X5X1X'.k./ Y./.D./.'.'.E.-X;X'.-X;X1XC.} Y } '..XE..X.X.X.X.X.X'.'.&.Y [ n./..X%X-X9X5X5X5X-XJ.4./ B 0 d.%X%X.X(./..X-X.X+.d.XX9X;XeX5X;X-X;X;X-X%X'.D._ L &.J.1XXX.X(.%XXX%.[ J.Y.XXXX%X%XXX%X-X1X1XXX-X;X'.C.XX%X;X1X5X9X9X9X5X5X5X.X&.j 0 R n.i.} +.%.>.4.d.Y.XX%X%X;X;X%X%XD.[ l >.",
"d.n.-X-X'.;X;X-X1X;X;X5XeX9X-X.Xk.>.C..X.X.X'.;X1X9XuX5X1XuXXX&.H %.} Y &.D.-XdXdX1XY.d.0.i.t.4.4.R m x.hXSXSXdXMXhXuXdXcXbXbXbXcXSX5Xk.} +.+./ k.1X;X;XdX5X;X;X9XeXeX5X1X1X%X(.1.J././.J.J..X(.D.k.} t.eX9XeXuXuXi.R H H i.1X9XhXhXuXeX1X%X%XXX'.} l / i.C.D.k.N.N.(.(.J.k.&.4.x.J.D.0.>.x.E./.XX5X-X;X'.%X-X1XXXJ.R t.E./.(.(./.'.%X1X5X5X;X-Xi.>.H B B C.1XJ./.(..X'./..X/.i.0 H 0.E..X(.'.-X-X(.XXXXx.%.&.1.0.} %.'.9X'.'.'./.1XJ.Y k.Y.%X;X5X5X1X;XXX'..X%X;X-Xd.4.&.x..X-X.XXX/.J.1.L 0.Y.(..X%XXX(.(..X-X'.1X%X'..Xd.E.9XdX%X-X9XMX9X1X%X/./.t.p l L _ H H L k.k._ %.C.%X1XeX5XeX;XXXXXn.l [ ",
"4.n.Y.'.%XXX%X%X1X5X;XXX-X5X'.x._ t.(.%X%XXX.X-X1XuX9X9XhX%X4.L H / R A A / +.+.%.0.k.n.D.E./.E.N.d.t.>.E.cXeXMXuXdXdXdXcXbXMXbXSXdXXXN.d.k.k.i.+.D.5X1X%X;X1X9XhXcXeX-X5XhX1XJ.>..X.XC.D.Y./..Xn.J.n.} t.(.1X-XN.0.0.x.t.>.n.5XeXeX9X9X1X%X%X%X/.%.t.'.'.XXXXk.A l B L %.x.C.E.1XXX(./.N.>.[ } t.k.t.t.>.t.d.n.>.} Y %X'..X%X;XXX%X%X-XXXE.n.t.d.D.d.>.L &.E.-X%X'.%X5X;X'.i.H m _ k.'.XX.X%X9XE.t.>.t.k.k.N.D.E.n.&.N.5X%X'.XX5XXX1.m 1.D.'.-X;X;X;X%X'.(..X-XXX'.E.Y.Y.x..X1XE..X.X%XJ.} [ k.D.'.XX'.XX5X1X'.;X-X'.'..X1.d.eXuX;X5XeXcX5X1X-X(.;XN.m L %.0.i.4.0.n.4.L A &..XXX1X;X5X1X;X-XJ./ R ",
"%.Y.(.XX;XXX%X-X;X;X%X(.D.d.+.H / n.(.%X1X-X1XcX9X5X5XuX1Xi._ &.4.0.d.>.A L R f R 4.Y..XXX%X%XXX%X.XE.k.>.Y.bXbXcXhXdXdXhXbXHXPXHX1XY.J./././.E.&.>.'.;X.X;X1X1XeXdXeX;X;X9X%XC.1.d./.(.Y./.(./..X/.J.d.%.H +.>.} x.Y./.(.n.t.C.eXdXuX1X;XeXuXuX(.N.C.'..XXX%X'.&.A B _ d.(..X%X-X%X%XXX'.C.1./ } R Y &.i.C.d.1.R l f '.%XXX(./.-X;X.Xn.&.%.n.XXE.-X.X(.d.&.4.k./..X1XXXk.%.%.>.d.1.1.N..X.XN.1._ / _ 1.N.D.D.Y.E./.d.4.J.-X5X-X'.k.L B [ t.k.D.Y.'.;X1X-XXXXX%X%X%X;XXXJ.>.x./..XXX(./..Xk._ &.1.x./.XX%XXX(.E.;X%XXXXX.X} / XX1X%X%XXX1X-X-X%X%XuXD.R &.k.D.(.E.Y.Y.C.i.L A x.J.%X-X;X5X5X1X(.x.} ",
"H n.XX%XXX'.-X;X%X;X-XE.0.Y j j A J.-X-X-X5XcX9X9X5XdX1Xk.&.d.Y.x.d.J.x.A l / H i.Y.;X5X1X1X1X1X9X-X'.(.4.1.1XbXbXuXeXhXbXcXbXSXdX.XJ.E.XXXX'.(.C.&.x.;X1X;X;X5X9X9X9XuXuX1X(.C.%.L N.5X.XY.E.'.E.%XY.D.i.l Y j &.E.'.Y.XXXXn.0.%.i.'.-X-X.XJ.C.J.J.J.E.'.'.'..X+.p B i..X;X-X5X.X1X1XXX%X5X.Xk.%.} i.J.Y.E.C.N.t.+.H d.9X9X-XXX1XY.t.4.x.E.(./..XXX.X1X;XY.i.} A Y } 4.i.x.n.n.k.n.D.D.d.%.R H R i.D.Y.'.'./.'..X.X.XC.4.N.XXE.0.>.%.4.0.t.0.d.4.n.E.'.'.'.(.(.'.'.J.C.1.&.>.t./..XXXE..X(.&.[ [ [ %.k./.XX%XXX;X-X%XXX.X+.0 %.XX1XuX5X;X%X;X1X1X;XN.>.n.Y.Y.(.Y./.E.(.(.4.B L i./.%X;X5X5X;X.X.Xi.",
"_ 1./.XX/.E.E.(.XX1XXXd.} _ [ _ m 1.(.hXuX;XeX;XeXhXuXJ.1.n.XX(.'.D..XE.Y m 1.x.E.XX1X1X1X5X9X5X5X-X1XXX/.t.1.uXSXbXhXuXhXMXbXuX'.(./.'.%X;XXX/.E.d.t..X9X;X9XuXhXdXeXXXN.1.%.&.i.} >.N.%X%XJ./.J.%X/.D.C.[ _ [ N.(.XX'.(./.Y.C.t.&.1.+.Y H R d.E.C.(.%X'.%X-XY.4.H %.Y.%X%XXX;X;X1X5X5X5X9X5X;X>.+.C.'.E.Y.Y..X/.(.n.x.'.XX(.Y.t.i.n.E.%X1X%X'.;X%X-X5X%X.X.Xt.f %.N.D.C.C.D.J.D.N.x.N.C.k.} B &.E.%X/./..XXX-X;X(.XX'.1.B H } 0.x./..X'.E.E.J.n.D.D.x.t.4.>.+.4.>.%.0.d.C.i.0.i.D.-X'.E.Y.4.+.x.n.0.[ [ d./.XX%X/.Y.(.XX4.0 H n.D.E..X-X1X-X.XXXY.N.J.E.(./.(./.-X%X(.'.(.k.} &.x..X;X;X;XXX'.XXD.",
"C.&.k.'.XXXX(.'.XXE.i.[ / } &.%.+.R >..X5X5XdXhXMXeXC.1.n.(.'.'.'..X.Xi.B Y x.J.-X1X9X5X9XuXeX1X1X5X5X9X;Xk.%.x.uXPXPXMXMXPXbX.XN.(.%X-X;X9X1XXXY.J.0.n.XX;X5X-X.X(.n.>.%.i.E.%XXXD.t.&.x.%X.XC..XJ.'./.E.[ m n.'.(.%X%X/.E.(././.D.n.H > p Y d..X'.'.'.XX1X;X/.Y L i.(..X;X1X1X-X1X9XuXeX5X5X9X&.R N.XX%X'./.XX'.XX.X(.t.i.1./ 4.i.C.(.;X9X5X1X5X5XuX5X'..X5XN.H 0.D.D.Y./.J.C.D.N.N.C.E.Y.d.%.H i.'.'././.'.%XXX%X%X%X'.&.B 1.D./.%XXX-X-X;XXXXXXX(.n.0.%.H 0 j A t.D..X/.J.J.N.t.4.1.>.0.t.d.n.Y.D.%.B Y k.-X'.(./..XY.>.L 0.N.k.i.n.D./.E.E.J.C./.1X.X.X%X1X9X9X5X5X-X%X1X'.&.&.D.%XXX%X.X'.XX.X",
"(.4.+.d.(.-XXX.XJ.t.+.[ %.&.&.%.0.0.4.&.d..X-X(..Xx.%.t././.J.'./.%XJ.[ R d.(.(.;X9XeXeXuXhXhXuX5XeX9XhX-XN.x.R 0.'.cXcXuX;XC.+.n.(.1X1X5X9X9X;X/.(.x.0.x.J.N.t.t.[ A Y d.-XeX5X1X5X%XJ.t.x.'./.Y.Y..X(.Y.&.+.C.XX.XXX'./.'..XY.Y./.E.Y > m +.J.E.-XXX(.9XeX.XE.L _ E.5X-X5X9X5X1XdXhXuX5X5X;XXX&.R E.5X;X(.E..X.X/..X-Xk.>.[ [ x.D.'.%X;X;X-X;X;X;X1X-X;X-X-Xd.%.x.J./.%X.XY.C.J.Y.J.D.Y.E.D.k.m R k.%X;XXX%X;XJ.%XXX(.1XY.>.C.(.XX.X.X.X-X%X-X.X%X%X'.E.C.&.m r [ '.XXXX(.(.XX%Xt.f p _ 4.x.D.(./.J.x.>.} %.0.C..X.X/.1._ %.N.D.J.C.x.[ Y _ t.J.'.%X9XXX;X1XdX9X1X-XuX5X'.;X;X4.L 4.E.(.XXXX'.%X-X",
"'.C.R H 1.d.k.1.>.4.t.t.x.D.n.0.i.k.C.d.>.Y l +.L H 1.Y.E.Y.E.Y.'.Y.1._ t.E.%X9XeXuXuX9X1X9XeXeX9X9XhX1X-XXXt./ f R 0.d.>.L j p D.'.1X5X1X5X1X;X'.XXXXd.[ _ L R 0 j +.Y.9XuXeXuXuXhX%X;X1Xn.k./..X%XE.%X(.>.J.J..X.X.X(./././.(.XXE.(.>.p r Y /..X%X-X%X%XeX5XE.Y _ E.eX1X5XdXcX9XdXdXeX9X9X1X%X4.l t.(.1X-X.X.X-X'.XX'.J.Y H t.k.D..X1X5X5X9X9X9X9X-X'.1X'.C.[ t.x.N.J.'.(.J./.Y.(.(.J.C.Y././.&.f B n.-X;X;X;X%X;X1X%X-XE.i.J..X9X-XeX%X1X'.5X;X1X;XXXXX(.i.Y H i.XX'.J.;XXXXX'.C.B m t.N.D.C.J././.J.C.C.k.4./ k.i.4.R %.x.x.(./.J./.d.%./ %.(.5X-X%XXXeX5XuX9XhX5X5X9X1X1X(.d.j / N.E.%X-X'.%X%X",
".X'.A > L 0.J.N.C.E.J.E./.(.(.4.} n.N.n.n.R 3 l / / d.(.%X.XY.XX.Xx.R 0./.;X%XuXeXeX9X9X9X9XeXuX5X9X1XuX5X'.} 3 Y 1.x.n.1.m 0 B N.XX;X%X;X5X5X9X%X5X(.E.} m / 6 0 1..X-X-XdXMXcXhXdXeX9XeX1XE.d.t.(.-XXX0.t.E.XX'.(././././.(.'././.(.N.r l D.'.-X;X-X-X%XhX-Xk.f / .XeX-XuXcXuXcXeXeXdXdXhXXXt.R B l i..X.X%X.X5X%X;X;X(.t.H n.C.'.;X5XeX1X-X9X1X;X%X%X;X(.&.0 A n.(.J.Y.'..X%X'.'.'./././.(.'.+.j B %.4.N..X'.%X1X-X1X'.N.E.'.(.1X9X5XeX9X;X1X5X9X9X;X%XXXY.k.Y d.Y.Y..X;X-XXX.Xd.l +.k.J.'.Y.E.Y.Y.Y.E./.E.Y.+.H B f H N.XX.X9X.X(.'.E.C.0.R Y.;X-X;X'.5XeXdXuXHXuXeXdX%X.X5XD.R A +.N.(.Y.XX.XXX",
"'./._ / N..X9X1X%X-X;X;XE./.XXd.[ 0.0.0.i._ p m Y _ d./.;X%XE.-XY.&.%.D.%X5X1X9XbXdXeXeXdXhXhXdXuXdX5X;XXX4.H R n.E..X'.C.+.m l D..X;X1X5X1X1XeX1X;X(.Y.4.j f r 0.E.1X5X5XdXbXhXbXhXeX5X9XeX;X'.4._ } R A t.%X.X'.'.(././.(.'.'.'.(.'.J.j B D..X;XXXdX1X;X1XXXd.H B n.uX9X-X;XdX;XdXcXuX5X'.i.R +.} m m 1..X9XE.%XXX;X;XXXD.} x.XX1X;X%X;X;X-X1X-X-X-X.Xn.+.A l r A d.XXXX'.XX'.'..X%X.X/.'.'.J.} Y _ &.+.%.>.} 4.J.'.'.d.%.n.%X;X%XXX1XeX5X;X9X1X5X9X5X;X%X(.J.+.C.'.(.XX1X%X.X(.i.B %.n.Y.(..X/.E.Y.E./././.E.n.1._ m R C.(.(.E.(.XXXX(.(.N.+.i.'.9X-X/.5XdXeXbXhX1XeXuX1X-X(.+.L B Y t./.'.'.'.XX",
"%X.X4.1.D.Y..XXXeX;X9XdX%X-X1Xx.L / [ >.d.0.+.+._ %.x.'.5X;X(.XXi.L i..X-X9XeX9XcXhXhXcXbXbXhXdX9X9XuX%XD./ } x.'.-X;X;X%XC.[ l J.XX1XeXeX1X;XuX9X;X%XE.k.r r } /.XX1X9XdXbXbXhXSXMXhX9X9XeX9X;X/.R p $ R J.-X/..X'.'.(.(.'.'..X%X.XXXE.H R J.%X-X9XeXeX5X.X'.+./ B 4.'.;X5X5X9XuXdXXXn.N.D.N.C.J.N.+.H R i.XX1X.X-X5X5X;X(.+.%.XX1X-X.X;X9X;X-X%X;XXXn.%.Y B l l 3 m 1.d.x.E.'..X.X%X.X.X;X.Xd.l Y %.4.i.x.N.n.k.Y./.J.t.+.d.Y.XX%X;X;XXX%X;X-X;X-X-X;X1X%X(./.d.'.;X%X;X5X%X'./.4.m [ N.(.(.XX(./.E./.(.'.(./.(.C.>.B / k.N.N.'.%X-X'.E.'.'.J.d.D.hX9X%X9XeX9X1X1X9XuX1X1X;Xk./ 1.>._ Y +.N.E.-X;X",
"t.N.d.x.Y.(.9XcXeX-X5XdX1X-X(.4.Y / &.d.D.Y.D.N.t.t.Y.;X1X;X.XY./ m C..X%X5XdXdXdXhXbXbXhXdXdXdXeX%X1XE.&.%.J./.1XeXeX9X5X'.&.p N.XX9XeXeX5X1XeX5X9X9X(.d.6 [ .X.X%X1XdXMXMXcXhX9XdXhXuXuXuXeX1X9XC.Y A D.%X'.'..X.X.X.X.X.X.X.X-X.XXXE.R } Y.%X1XdX9X9X;X%Xt.B _ %.d.n.C..X-X/..XC.%._ 1.d.n.D.Y.N.d.0._ B %.Y.-X;XXX'.;X5Xt.[ i..X9X5X5X1X-X;X-X'.n.4.0.t.+.l f f p Y t.d.4.i.Y..X.XE.'.%XE.d.d.N.D.D.Y.Y.Y.'.XXXX.X%X.XY.x.0.k.N.'.XX.X;X9X-X9X-X'.XX%XE.n.C.J.;XeX5X9X9X-X.X'.&.m Y i.'..X'.'.(./.(.'.'.'.(.'./.d.L R 1.1.t..XXX;X-X'./.(.XXn.&.%XeXuX5X1X9X%X9XeX1X'.%X'.} } n.E.J.%.l / >.n.C.",
"&.n.J./.XX;XeXuXuX9X1X%XY.d.+._ %.0.C.(..XXX.X/.J.x.'.9X%X;X;Xk.r A (.XX;XuXdXcXcXhXdXuXeX9X1X;X1XY.i.%.H k.-X%XuXcXbXhXuX-Xi.m t..X9X1X5XeX9X5X1XeXeXXXd.l J.eXeX9XuXcXcXhXuXdX5XuXcXhXdXuX9X1XXX.X1.n.-X'.(.;XXXXXXXXXXXXXXXXX-X.XXXJ._ 1./.-X9X5XdX;X%XE.m H >.n.E.J.d.i.d.>.A 6 p +.k.D.Y.Y.n.N.D.C.d.&.[ } N.%XeX1X.X(.t.&.A d.%X5X5X;X;XeX/.k.1.k././.d.} p A / 1.Y.J.4.} _ t.i.d./.XX(.%XE.E.J./.;X%XXXuX1X-X-X1X9X5X(.C.%.Y } d.D.E.E.N.&.+.} >.>.Y H >.(.5XuX9XuXeX;X%X'.1./ Y +.D.-X(..X'.(.(..X.X'.'.(.XXY.} Y _ / %.C./.%X;X%X'.'.%XY._ C.1XcXeX;X1X1X5X.X'..X.XJ.+.0.x.N./.C.+._ Y j B ",
"4.x.N.Y.%XuXuX5XeXXXC.t.1.[ B R 4.n..X;X1X1X;X%X(.D.(.;X(.XX%X1.$ H E.;XuXcXuXhXhXuX9X9X5XXXC.t.0.%.j l } /.-XuXdXhXbXcXuX1XN._ } E.1X%X-XeX9X1X5XeX5X%Xd.} ;X-XuXeX9X9X5X5XeXdXcXMXbXdXeXeXeX5X%X/.1.(.%X'.-X'.XXXX%X%X%X%XXXXX%XXXXXn./ d..X;X1XeX1X;X.XY m %.x./..X.X(.D.4.m l r R x.D.J.(.'.Y./.'.Y./.XXD.t.[ C.%X%Xx.0.&.4.} 1.k.E.1X;X'./.t.i.x.Y..XXXY.d.H A +.x.D.E.Y.d.L H B &..X1X%XeX%X'.E.XX9X-X.X1X5X;X5X1X9XeX.XJ.R H L [ &.0.0.1.Y [ %.1.[ r l k..X5XeX9XuXeX-X%X(.k.1.[ / 1.(.'..X'.(.'..X.X.X'./.XX'.&.B B B Y 1.J.XXXX;X1X%X.Xi.Y >.C.-XeX5X;XXX-X(.XXXXN.0.>.x.k.i.N.Y.D.t./ L _ ",
"(.Y.J./.%X9X5X;XXXi.} Y / / L } i.Y.%X1X9X9X1X;X'./.Y.E.D.J.C./ > B t.-XuXhX9XeX5X5X;X.XC.4./ B m m 0 B x.-X5XhXMXcXcXcXeX1XJ.%.L n.XX.X%X5X5X5XeX9X;X.Xd.d.9X;X5X5X1X;X1X9XeXeXhXhXdXeXuXcXbXcXdX.Xt.J..X%X5XY.XX%X-X-X;X-X%XXXXX%X%Xd./ D.;X1X1XdX%X%Xx.r [ k.C..X'.XX1X-Xk.f 6 B 1.J.(.(.'..X'./.'./.'.%XE.D.[ / Y &.0.x.k.x.J.x.0.x./.D.4.&.4.C.'.'..X%X(.N.B H 1.C.D.E.(.J.i.H A x.;X;XXX;X5X-XXX;X9X1X%X-X;X1XuX5X-X'.t.+.R >.0.4.t.x.C.J.C.J.J.J.0.j m C..X1X5X5XeX5XXX.X/.N.>.} } Y d.J.'.'.(.(..X.X'.(.E.(.(.&.j l B H / d.Y.(.%X.Xn.0.L A H [ t.(.XX.XE..XE.Y.x.%.%.4.d.n.E./..X'.i./ &.t.",
"E.C.J..X-X%XXX-XC.[ / L B L / 1.D.%X1X1XeX9X-XXX'.%XD.x.n.k.1.m p p R '.1X9X1X1X1X5XXXk.Y r 0 j H B Y _ N.-XhXeXcXeXuXcXcXhX-Xn.B t./..X%X;X;X9XuX9X1X(.0.N.uXbXeXuXeXeXdXhXuX;XdXhXdXeXdXcXhXuX9X5XY.x..X%X1XXX%X%X-X;X;X-X%X%XXX;X-Xt./ E.9X9XuX%X9XY.R / } Y.C..X.XXXXXJ.0.m j &.N.E.%XXXE.Y.'.J..X-X1XXXx.i.L l j >.n.D.N.n.k.k.k.n.k.%.[ 0.J.E.'.-X1X%XE.C.p +.k.C.(./.J.Y.n.L %.-X5XXX5XbXeX5X;X-X-X1X1X;X1X5X9XJ.4.&.R R &.t.k.C.E.D.N./.(.E.D.Y.x.A A C.XX1X1X1X9X;X'.(./.N.R R 1.B [ d.'.(.(.(.'..X'.(.(.(./.>.l H / _ } >.1.0.d.1.R L 1.i.%.+.} d.N.D.d.n.1._ R &.C.J.C.Y.%XXXXX.Xi.+.1.k.",
"D.x.x./.-X%X%X-X1.L f j A / 4.C.(.%X5X9XeX9X;X.X'.5Xx.>.C.Y.x.%.H Y } t.N.J./..XD.Y.1.Y l 6 p m 0 m l &.'.5XhXhXcXdXeXeXhXcX1XE.+.3 >.%X-X.X1X%X5X;X;X'.D.t.bXhXbXhXuXeXeXuXdXdXdXuXuXuXdXuXeX9X5XhX'.} D..X;X-X;XXX;X;XuX;X1X;X%X;X/./ L C.;XeXcX.XN._ 1.t./.E.Y.'.%X.XJ.i.&.} +.C..XXX%XXX'..X-XXX/.'.5XN.'.N._ A %.C.J.(.%X/.J.C.C.%.} >.d.n.Y..X-XXXXXXX%Xd.f 1./.(.D.D.Y.E.J.i.[ (.5X1XhXbX9X5X1X1X9XuX9X;X/.C.1.} Y R A +.0.x.Y././.E./.(./.(.(.'./.t.H n.XX-X;X-X%X%X.X/.(.Y.%.l L R A L 1.J.'.(..XXX.X.X(.%XC.%.%.t.d.i.N.C.>.p f R %.N..X'.E.D.J.Y.J.N.+.L L f >.d.J.'..X1X5X%XJ./.E._ Y N.",
"x.n.D.E..X%X.XY._ A f j B / t.J.XX;XeXuXuXeX1XXX'.C.1.0.n.C.D.N.t.i.k.J.C.x.0.A A +.%.>.4.} A r 0 f j >..X5XdXdXhXdXuXuXcXbXeXXXd.j R C.'..XXXXX-X'.'./.N.0.9XSXdXbXbXeX5XeXhXhXhXhXhXhXdXuX9X5XeXhX.X/ 4.E.5XXX;X%X;X%X1XXX%XXX-XJ.%.0 l n.%X1X1XC.>.} 0.x.E.'.(.'.XX.Xn.+./ [ n.'.XX'..X.X.X-X-XXXXX-X(.'.J.C.[ } d././.'.-XXX/.J.C.+.&.k.J./.(.%X;X%X-X%X%Xd.l 4./.(.J.D.Y.E.(./.&.d.%X9X5XeX%X9XdX9XXX(.J.d.%.[ } %.Y B m 1.N.Y.'.XX'.(.'..X'..X'./.(.N./ d.%X;X;X-X-X;X-XXX'.XX>.L 1.k.1.L > _ C..X%XXX.X%X%XJ.i.x.J.C.D.XX.XXXk.H Y 0.n.XX5X5X;X%XXX%XXX'.C.&.r > >././.%X'.-X1X-XE.E.C.Y / N.",
"d.Y.XXXX-X;XE.0.m m m H _ >.k.D.-X5XuXuXuXeX1X%XE.&.&.d.d.N./..X(./.'.-X.XE.0.& p >.N.E./.x.+.j 3 3 p 4.-X9XdXhXcXhXdXuXhXbXdX5XD.m f _ E.;X1X-X1X%X%X'.0./ x.cXhXcXbXhXhXcXhXuXhXcXbXcXhXuX9X9X;XMX(.L 4.k.J.-X5X5X9X;X;XXXXX(.C.%.H l L 4.J.9XC.1.R } t.J.(.XXXX'..X(.i.Y Y 1.'.-X%X'.XX%X-X1X-XXX9X.X(.(.E.i.+.i.E..X'..X%X%X.XE.N.[ &.N.(.'.%X-X;X-X1X;X%Xi.A 0./.'.Y.J.Y.E.Y.'.t.>.C.1X5X9X;X-X-X/.t.%.[ H H B _ >./ L _ C.E.'.XXXX'.(.'..X%X%X'./..X/.+.0.'.XX%X%X%X-X%X'.'.;X0.%.x.J.J.1.&.} &.d.J.Y.N.i.&.&.0.J.%X.X(.-XXX%Xn.L _ n./.;X9XuXuX9X5X5X1X;X9XN.j & >..XE.(..X.X'.'.J.J.J.&./ x.",
"Y.%X;X'.E.D.4.H B B A L [ 0.x.N.-X5XuXuXeXeX1X%Xx.+.i.x.d.J.(..X5X-X;X-X.XE.+.> } D.'.(.Y.x.4.H > & j d.1XuXdXbXcXcXdXuXdXhXuX5XC.A m m t.E.;XXX%X'.E.N._ l H /.hXbXSXMXhXuXhXbXuXhXcXhXdXuXuXuXeX1X4.l +.Y L i.n.J.'.'.'.J.i.+.R +.n.(.E.i.%.&.[ _ Y [ i.'.-X%X-X.X(.J.>.L +.D..X%X-X-X1X1X;X;X-X1X1X'.'.J.(.+.&.D.'..XXXXX'..X%X'.J.} %.C..X.X;X;X;X-X5X;X%Xt.Y t.E.'.E.Y.Y.E.E.Y.E.N.d.E.;X1X'.i.1.4./ B B m L l H L m H %.C.'..XXXXX'.'..X%X;X%X.X'.XX(.%.4.(.XX;X;X;X;XXX(.XX/.&.4.D.J./.Y.E.x.d.k.1./ A B &.n./.(.'.%X;X;X%X;XJ.[ &./.-X5X1XuXdXuX9X9X9X5XeX'.0.m 1./.(.D.(.E.J.E.Y.E.'.N.[ k.",
"n.n.d.>.+.+.[ L _ _ R A B _ t.D.-X9XuXdXuXuX5X%X>.4.C.D.J.'.(..XhX9XuX;X%XJ.R Y D..X'./.E.E.C.+.j r R D.9XuXuXhXeXuXeXeXuXdX9X-Xk.Y Y R A } i.n.x.0.} / L / m 1.9XdXdXeXeXdXhXhXeXeXuXuXuXeXeXeX5X0.R R } / } %.+.+.+.} [ / A j d./.'.J.J.E.x._ A L _ %.n.'.1X;X-X.XY.i./ L 0..XXXXX-X5X5X5X;X%X;X9X(.XXJ./.n./ i./..X.X;X-X'.'.%X-X.X&.&.J.;X;X1X;X-X;X5X-X.Xt./ 0.Y.'./.E.E.E.E.x.J.D.1.[ >.t.%.Y / &.+./ _ } >./ / H m m [ D.XXXX%X%XXX%X-X1X;XXX.XXXXXY.} 0.Y.'.XX%X-X-XXX(..Xk.+.t.E.(.E.(.J.E..X'.i.L A _ x.Y.%X;X-X-X1X1X'.%XY.%.1.(.-X-X5XuXcXdXuXdXdXuXcXuX;X0.>.J..XC.J.J.D.'..X.X%XE.&.x.",
"R Y L Y _ %.4.i.4.d.k.>.L H >.J.1XeXhXhXdXeX-X'.%.d.E..X;X-X.X;X9X9XhXeX5XD.+.N.(.-X-X-XXX.X/.t.[ R t..X9XuX9XeX1X5X5X9XuXuX;X(.0.A m &.j R R >.1.&._ _ +.0.[ 1.n.XXeXeXeXdXuX1XeX9XeXeXeX5X%X'.1.%.4.n.D.J.Y.Y.Y.N.4.&./ / } 4.Y.;X.XJ.E.-X(.&.L Y %.d.E.(.-X5X-X/.k.+.A A 4.'.1XXX-X1X;X-X;X-X5X.X'.E.Y.(.1.%.D..XXX%X9X5X%X%X(.%X'.} +.J.1X1X1X;X;X1X5X%X.Xd._ 4.D.(.(.E.E./..XY.D.E.C./ L &.L +.0.t.0.0.i.k.D.k.n.d.>.A _ (..X.X.XXXXX%X-X;X;X.X%X-X.XJ.} 0.J./.(.(..X%X%X.Xn.i.d.N.(..X/.(./.'.'.'.J.1.} 0.n.N./.-X1X5X1X.XXX-X'.t.i.'.-X;X5XuXdXuXuXhXcXhXbXhXuXE.} Y.-X.X/.(.Y.'.XXXX%X/.+.t.",
"L R } 1.i.n.C.J.J.(.XXE.0._ &.N.1XuXhXhXeX-X/.N.t.D.(.;X9X1X5XeX5XeXeXeX'.1.>.E./.%X1X5XXX/.E.d.4.1.E.1XeXdXeXuX5X9X9XeXdXeX'.x.+.L Y 4.} t.>.0.x.n.N.n.N.C.d.k.[ x.1XbXhX9XeXhXuXuXuXdXuX%XC.4.Y n./.(.-X%X(.-X.X(.D.n.} Y } N.'.1X-X%X%X.X/.i.} %.1.D.(.-X%X;X%XN.&._ A m &.E.;X.X-X5X;X-X1X5X-XE.'.J.'.J.>.x.(..X%X1XeX5X;X5X'.XXY.Y R C.;X-X1X;X5X9X9X%XXXn._ 1.N./.(./.E./.E.J.C.Y.C.R [ >.[ k.N.k.x.n.n.J.E.J./.J.C.R Y Y.'.'.'..XXX%X%XXX;X%X;X-X.XE.%.>.N.Y.(.'.'.(.Y.N.1.N.Y./.E./..X'.C..X'./.E.4.R &..X/.'..XXX5X5XXX'.'./.0.1.D.(.XX5X9X9X5XeXhXcXhX5X-X%XJ.R 0.Y.;X.X%X/./.'..X%X/./ +.",
"} 1.i.n.J.'.XXXX1X-X%X.XN.&.&.d.-X9XdXeX;X(.n.4.N..XXX1X5X5XhXeXdXMXeXdXY.+.n..X1X;X-XeX5X;X-XD.t.i.XXeXeXbXcXcXdXdXdXdXhX1XD.>.Y >.N.t.x.D.J.Y.(./.(.XX%X'.Y.N.x.&.t.9XPXHXcXSXhXdXhXcXuX'.4.L x.'.XX.X;XuXeX9X5X-XY.x.A f [ .X'.1XXXXX%X-X%XC.>.i.t.E.(.uX-X.XXXi.[ _ Y B %./.'./.%XeX5X1XeXeX(..XN.XX'.N.1./.'.'.%X5X9X;X1XeX1X1XE.H Y D.;XXX1X1X9XuXeX%X-XC._ >.n.E.(./././.Y.D.E./.0.H t.1.+.d.d.k.E.Y.N./.(.(.(.C./.>./ N.%X%X%X-X;X;X-X%X;X;X1X%X'.'.1.%.%.t.N.D.N.i.} H 0.J.D./.E.Y.-X'./.;X(.Y.XXN.%.t.E.J.'.5X;X-X1X-X-X%X'.d.4.C.'.;XeXeX9X5XuXbXMXcXeX%X%Xn.B 0 R N.E.XX'.'.XX%XXXD.Y _ ",
"%.0.x.D.(.-X5X1XXX5X5X%XE.t.&.i.(.1XuX;X'.k.} d./.(.'.5X9XeXbXeXMXdXuX5XC.} C.XX-XeX9X5XdXeX.XY.>.0.Y.;X5XuXMXbXcXhX9XcXeX;Xd.[ i.x.D.E.(.'..X.X-X-X-X1X1X;X%X'./.J.>.%.XXMXPXcXPXHXcXhX9XY.+.C.'.-X5X9XuXdXuX9X9X9XXXJ.Y 0 t./.%X%X-X-X;X;X%XXXk.&.x.(.;X%X-XXXY._ j r p m L t./.(..X9XXX%X(./.1XC.E..XC.+.>.5X.XXX%X;X1X1X1X1X9X%Xn.L H 1.'.;X5XhXcXuX9X5XXXJ._ +.t.E.%XXX(.E.Y.N.Y.E.i.} d.d.k.x.n.n.x.n.D.E.XX'.'.Y./.d.Y k.'.%X-XXX%X;X-X.X%XXX.XXX(.N.>./ m _ / _ j r p _ N.D.E.(..X.X'.'.'.XX.X'.E.N.+.x.E./.-X%X;XeX-X-XXX;XJ.&.+.i.(.eX9XeXdXuX9XhXbXuXeXJ.} m l A Y R Y t.x.C./..XD.} 1.>.",
"1.k.J.(.XX;X5X5XeX9X9X;XJ.} A Y 0.x.D.x.d.%.L &.J.'..X5X9X9XcXeXcXdXeX-Xk.4.J.-X-X;X;X1X5X-X/.J.1.[ 1.'.uXdXdXeXcXdXeXuX9X(.1.0.J.E.'.XX%X-X1X9X9X5X5X9X9X5X;X%X.X%Xx.L +.D.cXPXPXHXHXPXeXt.1.(.-X5XeXuXdXcXhXuX5X-X5XY._ A E.XX%X%X%X-X-X-X%XXXE.d.k.(.'.(.XXXXt.H f j L [ [ 1.n..X'..X.X%X(.-XJ.Y.J.'.D.i.E.-X1X5X5X5X5X5X5X5X.X(.n.Y A >.(.'.hXeXuXuX5X5XXXx._ _ >.D..X'.(..X/.C.J.Y.d.%.N.i.k.k.k.x.x.C.Y./.%X-X-XE.E.t.B &.C.(.-X;X-X%XXX.XXX'..X-X/.4.R L 0.k.d.x.4.B j 0.D.J.E./.'..X.XXX.X.X'..X(.n.} k.(..X;X;X5XuX9X5XXX;XC.R j A >.J..X;X;X%X-X1X1X1XXXi./ _ &.1.4.t.C.'.4.Y &.0.0.t.t.t.",
"t.C..X%X-X1X9X9XhX9X9X9XY.%.R / } >.0.1.0.>._ 1.n..X;X9XuXhXbXhXhXhX5X/.0.N.(.1X;X%X%X-XXX'./.J.} L R 0./.eXuX1XuXeXeX;X-Xk.>.Y..XXX%X-X-X1X9XuXuXeX9X9X9X9X1X;X;X(.N.&.[ R 0.-XbXcXeX%Xn.R x.;X5XeXdXuXdXcXhXuXdX1XdXY.L [ %X%XXX%X%X-X%X%X%XXXXXD.&.J..XXX'.Y.[ / >.i.N.D.N.J.C.i.Y.1XY./..XJ.J.XX'.x.[ &.'..X9X9X5X1X;X;X;X;XXX(.N.Y A >.'.-XhX5XeXuX5X9XXX4.R H / d./..X'..X/.J.Y.(.k.} i.Y k.k.d.x.C.Y./.(.;X9X9X.X(.d.L %.0.k.D.'.XX.XXX-X%XXX.XJ.>.Y _ 0./..X'.'.'.[ H x.E.E./.(.'..X%X-X%X.X(.XX.XN.+.4.(.%X-X;X;X;X;X.XXX/.1.l f B / +./..X'..X9X1X/.D.0.%.+.0.k.x.C.Y.E.'.N.4.} [ i.N.N.n.",
"i.J.-X1X1X1X9XeXdX5X9X1XC.0.t.i.4.d.k.n.J.D.x.C.i.(.1X9XdXbXMXbXhXhX5XN.0.(.%X1X5X-X;X-X'..X/.x.A A H R >.J.;X5XeXuXeXXXY.%.d..XXX%X;X;X;X1X5XeXuXeX5X5X9X9X9X5X1X.XD.+./ R A _ %XXXN.[ B / .X9XeXdXdXuXuXdXdXeXcXuXeXC.A 0.%X-XXX%X%X%X%XXXXX%XdX1X%.>.N.k.4.} k.n.J.D.D.Y.(..XD.k.x.E.(.(.Y.C..XC.n._ B k.XX-XuXeX9X5X1X;X;X;X.X'.x.L Y } N.-X1XuXbXdX1X;XJ.+.Y B B +.D.XXXX/.Y.Y.E.(.d._ 4.A x.k.x.C./..X.X.X1X5X5XXX(.t.R 4.[ / [ 4.x.C.E..X'.(.N.+.L [ n.XX.X(.XX1X1X%._ N.(.'.'..X%X-X-X;X-X%X'.%X;XY.&.} N.(.'.;X1X%X;X'..XN._ m [ t.k.x.t.x.J.(.(.N.%.L / &.i.x.N.Y./.(.E.(.'.E.4.+.C.(.Y.J.",
"i.J.-X1X1X5X9XeXdXuX9XY.>.1.n.N.N.Y.E.'.-X%X'./.i.Y.;X9XuXhXhXhXcXdX5Xd.x.XX1X1X5X5XeX9X%X.XN.[ f p p r p A 1.E.XX;X.XC.>./ J.(.-X1XeXuXeXeXeXeXeX9X5X5XeXuXeXeX9XXXN.[ Y R l m / +.Y r & >.;XuXdXhXhXdXuXdXdXeX9X5X;Xn.+.C.1X1XXX%X-X%XXXXX%X-XXX9X&.A d.d.C./.'..X/.Y.E.(..X/.'.'.J.d.x.Y./.C.d.} >.[ L 0.E.XX1X1X;X;X-X-X-X-X'.XXn.+.4.%.4.'.dXhXeX5XeX'.&.B / / L Y 1.J.XXXXE.E.E.E.d.} k.4.n.N.D.(.%X;X-XXX;XXX%X-X/.%.B &.R Y R } %.%.1.d.t.1.[ / 4.Y.XXXX.XE.1XuX.X} 1./.'..X%X;X1X1X;X;X;X;X%X%X1X(.0.R k./.(.%XXX/.(.C.[ %.} +.t.n.C.J.E.D.E.k.H l _ %.>.i.N.Y.'.;X;X.X.X-X/.J.n.>.d.(.E.J.",
"x.E.-X5X5X9XuXuXdXhX;Xk.} 0.D.Y.'.-X-X5XeX5X;X'.C.J.1XhXuXhXhXdXhX9X.Xi.J.%X1X-X-X5XuXuX;XE.>.l j _ 4.t.0.&.} +.4.t.>./ m _ .X'.;X5XuXdXdXuXeXeXeXeX9XeXuXdXuXeX9X/.4._ H H Y t.x.C.k.>.A 4.'.5XhXbXbXcXcXcXhXuX5X-X.XD.n.E.5XXX%X-X;X-XXXXX%X1X;X9X0.Y N.D.(.XX'.-X-X1X1X-X;X.X9X%X%XC.%.+.i.0.x.n.D.(.x.0.'.1X%X%X-X-X-X%XXXXX/.'.k.} 0.+.+.D.5XeX1X-X'.1.A _ 4.t.1._ R 1.E.1XE.E./.Y.n.+.0.x.D.J.(.XX;X1X;X-X5X%X-X5X(._ f [ 1.i.n.n.0.} / _ H A / t./.;X-X.X(.;XhX%X0.+.N.XX'.XX-X1X5X1X;X-X;X1X-X%X-XJ.d.} t.N.C.N.i.>.%._ R 1.x.D.E.E.E..X-X.XeX%X} H %.&.k.N./.%X;X;X1X5X.XXX'.(.d.+.k.E.Y.D.",
"E.XX5X9XeXdXdXuXuXuX'.i.0.N.(.XX5XdXeXuXdXeXeX%XJ.d.XXhXeXhXcXhX5X%Xn.d./.%X;X%X-X;X1X5XXXk.+.[ t.Y.E.n.N.C.x.d.+._ H f p t.XX;X-X1X9XeXeX9XeXeXeXeXeXeXuXeX5X;X'.D.R B H >.n.'./..XJ.D.t.0.%XdXuXcXbXbXcXbXhXeX9X'.k.(.x.'.5X.X-X;X1X;XXXXX-X5X;XY.>.%.D.(./.E.;X9X;X1X-X'.;X;X;XeXXXN.x.A B x./.E.J.-X;X'.XX/.'..X%X%X%X.X(./.n.n.1.H _ / } >.i./..XD.&.A } /.E.Y.D.i.} [ d..X(.E.(.E.Y.>.} k.E.(..X%X-X-X;X1X1X%XXX;XY.} Y 4.J.(.%X%X/.x.+.H j / d.(.%X-X%XXX(.1X'.1.B +.D..X.XXX%X-X;X;X-X-X;X;X-X%X(.4.i.i.>.4.t.%./ Y H H k.N.n.N.Y./.(.-XeX-X9X-Xi.%.4.4.n.Y.%X1X;X-X-X1X%X'.%X(.[ L N..X'.E.",
"%X1XeXuXdXcXcXdX9X1XJ.t.x.Y.(.%XdXbXdXdXuXeXdX;Xk.} D.5X;XeXhXdX%X(.4.x./.%X%X%X1X%X.X.XE.4.&.D.C.(.'.(..X/.J.E.D.0.} l A Y.(.9X1X5X9X9X9X9XuXhXeX9X9X9X9X1X%X.XN.} 6 +.C.J.D.(..X1X/.(.E.0.%X-X9XdXcXcXcXcXuX5X1XD.Y XX>.-XuX5X-X1X5X;XXXXX;X9XuXC.0.C.D.%X;X1X5X1XXX9XdX9XuX5X-XXX'.D.N.} 4.XX(.E.XX;XdXdXE.n.k.n.C.D.C.x.i.0.k.x.d.} +.1.0.[ &.&.[ L R i./.%X1X.X(./.k.} %.n.%XE./.J..Xd.%.E.'..XXXXX.XXX;X5XXX(.Y.Y.x.+.>.D.(.'..X%X;X'.4.m H i..X;X;X1X-X(.%XY._ j p / t.XX.X.X.X.XXX%X-X-X1X%X%X%XD./ 0.Y.N.x.n.&.R / Y _ n.J.E.'.-XXX(.XXuX5X5XXXk.>.i.C.Y.XX;X;X1XeX1X(.'.-X.XC.} A >.C.-XXX",
".X-XeXhXcXdX9X5X1XE./.J.C..X-X5XbXdXdXhXhXbXdX.X} R [ x.%X5X1X-XC._ L t.d.Y.'.XX'.'.%X.Xx.t.D.%X.XXXXXXX.X.X'.'.J.N.&.H l Y.XX-X9XdXhXuXeXuXhXhXdXeXuXeX1X5XXXx.Y R &.N.'.XXXX-X-X;XXXXXE.C.XXeXuX1XdXSXdXeX5X1XE.Y k.%XR /.eXeX-X;X5X9X-X'.%XdX-Xi.1.%XXX'.-XXXXXeXhXeXeX-XhXeXeXE.x.t./ Y J..X%X-X1XuXdX9X.XJ.%.Y H Y R } [ D.'.%X-XXX(.(.(./.Y.&.f m +.Y.(.'.%X1X9X.X/.1.p } D.'.(..XJ.>.d.'.(.'.%XXX(.XX1X%X.XC.N.x.%.} n.XXXX.XXX%XXXXXn.Y >.(.;XeX5XXX-X-XD.} l B A l R i.Y.-X%X-X.X%X;XXXXXXX1X(.x.i.i.J.J.'.1X'.k.Y p _ Y./.-X.X.X1X%X%X9XXX-X%X>.k.n.E.9X;X;X.X;X%X;X%XXX%XE.&.j p / i.'.%X",
".X-X9XeXeX9X5X1X'./..X%XXX-X5XhXbXbXSXMXdX9XXXn.+.4.d.d.d.d.0.&.R / / / L n.%X'./..XE.k.i.N.(.%X-X-X-X-X-X-X-X-X.XE.i./ B J.XX;X1XuXhXdXdXhXcXcXhXcXeX9XeXE.%.R 4.J.XX'./..X;X1X1X1X5XeXE.>.x.-XuXuXeX9XeXeX;XXX0.N.%X%X1.i.hXeXXX-X5X5X1X9XuX9X(.4.} J..X1XuX-X;X1X5X1X1XXXuX5X1X/.t.L B H D..X;X;X1X9XuX9X%X/.k._ L _ %./ >.-X;X5X9X;X%X%X-X%XXXC.B H t.'.-X-X%X1X1XXX/.4.B H _ i.k.k.>.Y 0.'.D.E.XX-XXX%X5X9XD.Y.J.t.&.x.'..X-X.X-X5X5X-XC.[ C.9X5X%X;X9X1XE.} t.n.k.i.i.1._ t.n./.-X%XXX.X/.E.'.J.%.&.x.N.(.1X-X1X9X-Xn.} [ N.XX-X%X;X;X;X1X;X%X1X(.%.d.J.%X1X-X1X%X;X.X.X/.%XD.1.R j r H &.C.E.",
"%X5XdXuX;X'.N.1.Y.(.'.;X9X5XuXbXbXcXbXSXbXeXY.>.&.D.%X'.Y.J.D.x.i.d.x.i.%.n..X'.E.(.n.0.N..X%X-X9X9X9X9X9X9XeXeX9X-XD.1.Y N..X1X9XuXuX5X5XeXdXdXhXuX5X;XE.%._ k.Y.1XdX1X;XeXeX-X-XeX5X.Xi.[ 4.n.D.(./.E..XY.n.n.i.-X5XXXC.} '.hXXX.X1X9X5X9XuX1XY.1.%./.%X-X9XdX9X;X5XeX9X-X1X(.Y.x.1.Y [ H x.-X1X;X;X5XeX9X;XXX(.n.>.%.1.[ n.5XeXdXdX9X5X9X9X5X1X(.A / n.'.-XXX%X;X-X%X(.t.R j j A L } Y p _ Y.D.E.'.%X-XXX.X.X'.D.x.k.N.(.XXE.XXXX-X5X1XXXC.&.%X9X;X5XhX1XC.>.k./..XD.n.D.Y.C.x.>.1.N.J.Y.Y.C.n.N.>.L &.n.N./.5XeXeXuXeX5XY.[ 0.-X-X%X5X-X1X1X5X;X%Xk.} d.E.'..XXX;XXX.X(..XXX(.>.B A L H R &.0.k.",
"N.D./.(.E.C.&.j C..X/.XXeXeXcXcXSXbXcXcXdX.X0.L _ k..X-XXX.X'.(..XJ.Y.(.N.d.i.t.+./ _ i.'.1X1X1XuXuXuXuXuXdXhXcXdXeX'.x.[ d.(.1X;X5XeX9X9XuXuXeX9X1X5X(.>.} n.XX;X;X5XuXbXbX9XXX.X9XXXi.L m [ %.} } _ / R l [ x./.-X%XXX/.0.%.XX;X;XeX5X%X1XeX%Xi._ Y n.'.-X.XXXeX;X1X5X1X1X;XJ.>.%.t.&.1.A i.;X;X;X1X9XeXeX1X-XXXXXi.1.1.>.E.1XuXhXdXeX9XeXeX9X5XJ.L &.J..X.X'.%X-X-X;XXXd.Y A 1.1.k./.J.>.[ &.E./.Y.Y..X%X.X/.J.d.i.J.%X-X%X.X.X-X1X-XXX'.C.4.E.5XcXhX%Xd.4.n..X.X'.E.D.J..X5X-Xk.R &.Y Y [ } +.+.R L 4.E.%X1X%XeXhXdX1XeXuXx.1./.%X%X-X%X;X1X%X;X(.&._ d.'.XX%XXXXX.XXX'.(.E.1.B r L >.1.1.i./ } ",
"d.&.} %.4.d.1.B 0.(.'.XX5XuXbXhXhXhXdX9X'.i./ B / k.XX5X1X1X1X;X9X-X1X5X;X(.C.t.L 6 L Y.;X9XdXeXdXuXuXuXuXdXcXcXhXuX-XJ.&.1.D.XXXX%X-X-X1XuXdXuX9X;XY.%.R x.%X'.9X5XuXcXcXeX1X1X1XJ.&.[ R m m m R B m l p 6 t.XXXX-X;X-X%X/.R +.Y.1XuX%XXXdX9Xn./ %.&.t.n..X(.'.%X%X-XXX/./.k._ _ %.N.4.[ B i.XX-X;X1XeXuXeX1X-X%X-X4.x.d.x.(.5XeXuXuX9X9XuXeX5X9Xt._ n.(.-X.X'.%X%X5X1X1Xk.H >.N.Y..XXX.X(.d._ n.E..X.X.X.XD.0.+.x./..XXX%X%XXXXX1X1X-X;X;XD.%..XbXcXJ.1.1.n..X.XXXXX'.'.XX-X%X;XXX%.t.f 0 R &.k.x.4._ } E.uX;X5X1XuXbX5X9XHXuXd.N.%X-X'.-X;X;X-XuX.X%.L } n.E.XX'.E.(.'.Y.0._ f p B %.k.n.n.n.i.x.",
"Y.&.R } 1.x.x.%.} J.-X1X5X9XdXdX9X1X.X/.J.t._ L H d.%X1X;X9XuXuXeX9XuXeX9X%X.XY.1.H >.%X5XuXMXdXdXuXeXeXeXuXdXhXdXuX1X.X0.} i.D.%X;X1X1X5X5X;XXXD.d.R A 4.(.-X9X5XuXhXdXuXuXuXuX-Xn.%.d.D.k.4.%.L l f 6 > 3 x.'.;X9XeX5X9X'.0.H / i.E..X1X5XC./ %.C.(.D.i.i.i.'./.'.'.E.N.N.&./ i.d.'.E.4.R 1./.%X;X5X9XeX9X1X;XeXuXd.J.C.'..XXX9XeXeX9XeXuX9X;X'.} / C.(.-XXX'.XXXX5X;X1Xx.Y C.E./..XE.E.;X%XE.1.k././.x.t.&.Y _ C.-X%X.X.X'./.'.%X%X%X9X;Xi.H J.'.C.[ +.D././.;X%X.X.X-X1X;X%X.X-X&.1.A R i.Y.E.J.C.d.4.E.bXdXeX;X5XuX5XdXPXSXE.x.'.-X'.;X1X1X.X.X4.A r r m R %.1.1.>.L j 6 3 r L 1.n.E.(.E.J.J.(.",
"Y.&.} t.n.Y./.n.0.k..X1X;X-X%X%X%XJ.t.t.C.d.[ L / i./.-X5XuXhXdXcXuXhXuXhX1X;X-Xn.} 4.'.;XeXMXcXdXuXeX9X9XeXuXdXdXuX9X;Xd.R %.0.0.k.C.D.D.n.4.[ Y j f 1..XXX.XuX;X9XeXeXuXdX1X'.1.N.Y.(./.J./.E.n.i.} l r & d.%X9XeXdXeXdX'.Y.} f Y %.x.Y.d.+.&.E././.(.C.&.l +.1.1.%.+.+.%.R t..X/.-XdX%Xd.+.D.;X;X1X1X1X1X1X1XdX1X0.N.E.;XXX(.-X1X5X5X9XeX1XXX0.R A i.J..XXX/.'..X-X-X%Xx.&.E.'.Y.XX.X'.%XXXXXk.[ _ [ B L >.1.} n.'..X-X%X'.'./..XXX%X%XN.} L _ [ _ Y >.J.(.1X1XXXXX1XeX1X-X%XXX.X&.B H 1.N.(.5X;XXXXXY.J.1X5X5X;X9X1X1XSXPXhX-XN.C..XXXXX-X;X.XJ.L Y [ +._ %.} i.d.&.r & 0 L R 4.D.(.XX-XXX(.E.'.",
"C.} } k.N.J.(.Y./.t.C..XXX.XD.D.4.} H _ i.i.%.+._ _ 1./.eXdXdXhXdXuXdX9XbXhXuX-XXXk.k.%XuXuXdXcXhXdXeX5X5X9XeXuXhXdXuX9Xn.L _ +.0.1.&.+.&.0.t.4./ f L N..XXX%XXX%X5XuXdXeX-XD.4.N.%X5XeX9X9XeX%X1X1XE.0._ O %.XX;X5XMXdXhX5X(.&.Y } R L Y A +.XX.X%X-X1X.X4.3 j _ +.>.k.d.+.l 1.;X1X-XuXuX.X%.d.1X1X;X-X-X-X1X5X%Xt.B 0.(..X/.%X.X%X-X;X5X5X%X(./ / j &.C.'.-X/.(.'.'.XX(.k.k.E.XX/.XX'.(.1X-X(./.H p B f A 1.4.>.Y.%X.X.X'./.(.'.-X1X1XE.%.R 4.1._ H l } N.E.1X-X%X-X5X9X5X-X.XXX.Xx.j +.C./.;X;XuX1X%X.X.XeX9X9X;XdXeXuXHXbXdX1XJ.t.E.-X(.XX-X/.n.m %.d.x.0.D.x.Y.D.i.B f j R 1.d.J.'.%X-XXX(.'.%X",
"d.} [ d.J.D.E.;XXX%X0.1.0.k.>.Y j L &.k.N.D.J.Y.Y.4.H &.(.eXcX5XuXMX9XeX9X5XcX1X1XN.i.'.1XdXdXcXcXhXdXdXhXdXeX5X1X5XdX'.&.%.N.Y./.(.'.'.E.J.C.N.n.d.t.i.n.Y.XX-XdX1X5XhX.XJ.C.Y.;X9XdXhXdXuXdXdXbX1XXXY.J.%.m /.;X5XHXbXuXhX%XC.>._ A _ Y &.J.9X1X5X-X;X-XN.j l 0.i.k.n.(.D.%.t.%XeX9XeXeXuX;X4.C.dXuX5X%X%X9X/.4._ L [ t.N.C.D.E.E.D.%X(.(.D.>.H H L H / n.-XXX(./.(.E.'.x.x.'.'.;XXX/..X-X-X9XC.B 0 f L R >.} _ 0.%X1X%XE.'.Y.1XXX1X;XN.0.n.E./.C.t.A A n..X.X1X-X-X1X5X;X;X5XXXXXn.B x..X%X5XeXeX;X/.Y.1XMXuX9X;X;XeXhXcXcXbX9XXX[ d.'.Y.E.XXn._ +.n.N.N./.(.(.Y./.n.&.R >.i./.(.%X-X'.-X1X.X'.1X",
"4.>.4.n.E.(.XX1X%X/.k./ j r p l 0.x.E..X%X%X%X%X5XJ.&./ 0./.5XbXdXhXuXcXcXuXdX9X.Xt.4.XX5X9X1XuXuXeX9X9X9XeXeX9X1XuX9XD.1.d.'.;XeXeX9X1X-X%X%X-X1X%X(.Y.D.N.n.x.d.1.d.k.N.D.;X9XeXdXcXbXcXcXcXbXcXeX1X/.J.x.&.d.XX5XuXcXcXeX-X'.n._ m +.R C.-X1X-X;X%X;X;X/.} %.D.D.(.'.;X-Xn.1.-XcXhXdXdXuXeX'.1.d.Y.eX%X1X%XD.t.n.D.C.d.1.+.} _ R _ _ } +.%.[ [ &.0.4.%.+.k.%X%XJ.Y.'.E.4.C.5X.X-X(.D.E..X%X;X-X/ L &.d.d.x.i.%.+.k.-X;X.X(.(.(.;X;XE.C.E.XX;X-X%X'.k._ 1.(.%X.X-X9X9X;X5X5X%X'.;XN.} n.XX;X-X;X9X5XD.N.uXPXeX5XuX9X;X5XhXhX9XPXx.Y _ d.N.(.E.0.} >.x.C.E.%XXX%X(.'.Y.&.} i.D..XXX%X-X1X;X.X/..X.X",
"[ 4.x.C.E.%X;X-X5X'.E._ l B %.x.'.XX1X9XeXeX9X9X9X(.x.%.&.0.0.E.9XeXhXdX9X1X-X1X/.%.R C.-XeX;X-X-X9XhXhXeX;X-X;XeX.XN.N./.'..X%X1X9XeXeX9X5X5X5X9X5X;X-XXX/.D.n.%.A Y &.C.(.eXhXdXcXbXbXbXbXMXSXMXhXhX9XXX'.d.H n.;X1XuXcXeX9X1X/.+.p m / (.9X-X5X5X-X;X1XXXd.i.5X.X1XeXeXhXXXt.N.uXSXbXbXhXuX9XC.R p %.t.D.i.d.'..XXX.XXXXXD.t.1.R / A 1.x.N.E.C.J.D.J.D.4.%.k.%X(.E.XX(.>.N.5X.X%X'./.'.XX%X;X;X} 1.Y.E.D.D.J.N.1.&./.%X;X.X.XXXXXJ.D.%X1X-XeX;X;X-X-Xd.>.E.XX%X%X1X-X(..X%X(.-X-Xd.i.J.%X5X-X1X-X;Xi.>.5XSX9X1X%X;XuXdXeXhXPX-X>.0.0.d.i.1.4.>.t.k.n.J.XX-XXX;XXXXX(.%.>.C..X%X1X%X-XeX1X(.'.'.n.",
"%.i.N.D.(.;X1X%X-X'.x.H R t.J.(.%X-X1X5X9XeXeXeX5X-XC._ H L / t.D.(.-X5X9X1X%X(.n.} H &.x.%X;X%X-X;X1X1X-X%X-X-X5Xx.&.n.-X1X%XXX;X5XuXhXhXdXuXuXeXeXeXeX9X;X.XE.n./ B d..X5X1XuXdXhXhXcXcXcXcXbXcXbXhXdX9X5XD.p _ Y.;X9XeXuXdX5XXXk.A O +.(.1X5XeXeX1X1X1X%XD.k.cX-X1XhXuXdX1XJ.+.E.hXbXhXhXdX1X1Xi.6 0 L / %.%X%X;X;X%X%X;X1X;XY.%.l j t.E.J.Y..X/.D.J..XY.>.L C.;X.X'.Y.} C.cX(.'.XX1X1XXXXX;X.X0.E.1X'.E./.%X/.x.%.1.k..XXX(./.D.N.XXhX5XXXeXeX1X%X'.k.%.n.XX-X(.%X5X-XXX%X'.eXJ.1.N..X-X1X5X9X'.%Xi.1.9XPXMX5X5X1X-X1XuXdXuXt.n.(.XX(.0.0 R t.J.E.Y.(.XX.X.X%XXXXXD.[ 0.(.XX%X5X1X-X;X;XXXXXt.%.",
"n.N.D./.%X9X9X;X;X%X>.[ d.'.XXXX;X1X1X5X9XeXeXuX5X9Xd.m r A 1.n.%X/.t.d.d.>.1.} } R H R L 1.C./.;X%XXX-X1X;X'.J.4.L H [ &.N.;X9XeXuXuXuXuXuXhXcXhXdXdXdXdXeX1X%X'.t.[ n.%X9X5XcXdXdXhXhXcXcXhXhXuXbX9XeXuX1XC.j p +.XX9X1XeXeX5X5X(.0.l 1..X9XuX1X1X5X1X1X-X(.d.5X1X5XuXdXeX5XXX&.1.'.hXdXhXhX1X;X(.[ B [ L x.eX-X5XuXeX;XXX1XhX;Xk.j H k.(.Y.N.n.n.n.x.x.C.i._ +.J.-X%Xk.L C.uX'.'.;XuX1X/.(.;XC.x.'.-XE.E.'.-XeX%Xx.L L [ +.Y } n.;XdXhX9X9XuX9X5X1XY.t._ / d.-XE.E.XX%X;X1X-X'.i.d.Y.-X;X;XeX1X/.'.0.>.1XMXMX5X1X;X1XeX9X'.n.N.%X'.%X%X4.r } N.'.XX.X-XXX(..X'.XXXXt.[ k.;XXX-X;X5X1X-X1X.Xn./ &.",
"Y.D.J.(.-X5X1X-XXXE.>.N..X;X;X5XeX9X5X5X9XeX9X9XeXC.L A R +.N.E./.E.k.Y.k.L R R A l j A p m R &.4.d.C./.(.E.C.x.&.H Y _ B _ C..X1X5XeXuXeXeXuXdXhXdXuXdXdXdXuXeXXXE.C.N.%X1XuXhXdXhXhXbXMXbXhXuXuXeX;XhXuXN.} j 0 j x.;X1X5X;XeX9X.XE.d.>.-XeX5X5X9XeX5X;X%X'.4.J.9XeX9XuXdXeX%Xx.R d.uXbXcXdX1X1X'.d./ R Y '.%XbXuXuXhXcXuXuXcX9X/._ %.1.t.t.0.i.i.n.x.1.4.n.n.J.N..X-Xt._ E.'.;X;X9X9X.XE.(.XXi.D.Y.E.J.(.'.'.XX'.x.A B m A l R E.bXMXdXuXuX9X;X(.J.t.>./ j L .XXX.X'.XX%X/.C.0.t./.'.%X1X1X9X-X'.D._ [ %XSXPXhX5X1X5X%XY.D.Y.XX-X%X%X.X&.} 0.Y.XX-X;X5X%X'.%X.XXX/.%.&.D.9XXX1X%X1X9X1X-XD.[ +.k.",
"J.J.Y.(.%X;X;X-X%XC.J.9XeX1X9XuXdXuX9X9XeXeX9X5X;X%.A &.d.n./.XXXX.XN.t._ m R } _ L A / L _ _ / H L R [ >.k.Y..X1XJ.C.J.k.1.0.d.J./.%X5XeXuXdXdXbXhXdXuXuXuXeX9X1X%XJ.d.(.-XeXuXdXdXcXMXSXMXhXeXuX1X;X9X/.+.A l j r _ Y.5X1X;XuXeX.X'.D.&.;X5X;XuXuXdX5X;X%X-X4.n.;X1X;X5X9XeX%XJ.Y } /.uXMXuX;X9X1XY._ j / -X9XhXhXhXhXuXeXeXdXhX-XJ.k.} L _ >.J.J.J.C.t.1.0.k.'.t.>._ B H i.i./..X%XE.C.E./.n.4..X/.(.(..X%X%X%XXXx./ Y Y H B &.XXhXuXuXuX5X9XuXn.%.+.[ _ / Y n..X-XXX%XJ.>.[ &.N./.'..X9X5X9X-X%Xn./ } E.eXMXdXuXXXx.0.N..X;X-X%X5X5XY.} 4.n.(.%X;X1X5X;X%XXX.X'.k.} 0.(.;X%X1X%X-X9X;XJ.0.} d.k.",
"C./..XXX-X5X5X1X'.t.%XcXuXeXhX9XhXdXuXuXhXhXdXeXk.&.C..X/..XXX'.XXE.1.l l >.k.t.t.i.t.i.4.C.C.d.n.>.Y / i.(.;X;X5X;XXX.X%X.XD.k.+.>.i.N.E.XX5XuXhXdXuXuXuXuXeX9XdX.X&.+.k.%X1XhXuXuXhXMXSXMXuX5X;X5X;Xx._ [ %./ m l j t.1X9X9XuXdX;X.Xk.0.;X;XeX5X5XuX5X1X5XdXn.D..X'.XX%X%X9X;X/.[ H %./.cXuX1X;X%Xk.B B i..X;X;XeXhXhXcXMXbXuXeX.X1XJ.>._ 0.E.'.%X.XJ.x.&.R _ +.4.>.m L _ %.1.1.n.D.0.4.Y.J.[ [ %XE.(./.Y.'.-XXX%Xi./ R >.} / [ ;XuX'.-X9XeXSX5Xk.0.D.t.+.1.Y %.i.t.1.4.R m _ d.E.k./.'.uXeXeX1X-Xk.} [ [ +.4.N.t.1.i.D.(.XX%XuX9X;X-Xi.} >.E.XX;X5X1X1X1X-X'..X/.&.[ t.'..X-X-X-X%X1X.X0.+.k.(.N.",
"x.J.(.(.eX1X-X%XC._ /.5X-XdX9XhXcXcXuXeXdXbX(.E.Y.E..X-X;X;X;X1X;XY.[   L C./.C././.E.Y.Y.E.'.XX/.Y._ %.(.XX9XeX9X1X;X1X9X9X-X.Xk.1.+.} _ >.d.d.N.J.E.Y.XX-XY.(.J.n.} _ %.t.'.5XuX9XhXcX9XhX/.t.t.D.'.(.D.n.x.x.t.4.Y / E.eX1X1X1XeXE.[ / C.5XeX1XuXuXuX9XeX5Xn.Y.%X;X'.E.'.%X.XE.[ H A } Y.5X5X-X;Xt.f / /.XX-X5XuXcXbXbXbXhX9X;X%XXXi.} d.D.Y.1X%X9X'.J.i.l f A _ 4.k.n.N.D.J.x.t.C.J.n.k.} m R E.XX/.'..X-X5X;XN./ A 1.Y.n.[ H '.uX(.;XdX;XuXC.1.d./.C.x.n.i.%.Y Y B B %.Y +.x.E..X'.'.;X9X9X1XE.%.4.&.A / Y } %.0.C.E.(.%X9X5XdX1X'.[ R k.E.1X5XhXdX-X%X-X(.XXd.} [ 4.Y.%X'..X(.-X-Xn.>.t.n.J.J.",
"d.n.D./.1X%X%X(.>.B C.1X;XhXdX9XuXdXhXdX9XN.1.C.XX%X;X5X9X5X5X5X1XJ.R r >.Y.(./.(.(.(./.E./..X%X.XD.+.x.%X1XdXuXeX5X;X1X9XeX1X-XY.k.&./ H Y / / } %.t.} &.+.} &.&.H Y t.x.D.-X;XuX1X;XuXeXD.1.} 0.E.9XeX%X(././.E.E.0.Y &.XXeXXX;X;Xn.A A n.;X-XeXeX9XuX5X-XXXn.0.'.-X'..X%X.X'.C.L j l r H 0./.-X.Xt.H 0.%X-X-X1XuXhXhXhXhXuX1X1X-XC.1.1.n..X;X-X-XXX/..Xi.r A &.t.n.C.N.n.n.N.C.N.D.J.'.x.l f L D..X'..X.X%XXXD.>._ 1.J.E.n.4./ Y.9X.XXX9X'.J.4.%.i.Y.Y.Y./.Y.t.+._ L A } / 1.d.E.%XXX.X-X1X-X'.d._ Y Y L Y / [ t.N.D.'.;X9XeX9X1X.Xx./ A 0.E.1XeXhXdX1X-X%X'.%Xi.Y m H 1.Y.'.E.D.D.n.>.+.4.t.i.i.",
"N.C.D.XX9X%XXXn.H f d.5X1XeXdXeX1X9X5X.XY.%.t.XX;X1X5X9X9X9X5X1X-Xk.L / x.(./.XX.X.X.X'.'.'.XX-X%XD.4.XX;X1XuXdXeX5X1X5XeXuXeX9X1X(.0.Y A B A Y _ Y >./ %.>.n.n.0.m &..X.X.X%X/.(.-X-X.XJ./ >.D.XX-X;XXX'.XX-X-X%X(.J.0.+.C.;XXX/.x.} H Y 4.D.(.eXdXeXeX5X1X-XC.0.(.'.E..X'.C.n.+.H l f O H %.d./.N.i.+.E.;X-X-X1XeXdXdXdXuX9X;X%X%Xd.t.D.E.-X5X;X-X-X'..Xd.H 1.N.J.E.Y.D.N.n.N.J.D.Y.C..XC.f 0 A 0.k.k.N.J.J.i.&.[ 1.E.;X.XC.n.[ +.N./.(.XXY.t.>.0.n.Y./.(.(.(.D.1.H B m H A R d.'.1X'.(.5X9X.XJ.[ R / _ L r A %.n.D.Y.-XuX9X;X5X;X.X1./ B &.E.;XdXcXuX9X;X.X.X.X0.Y A A R +.+.>.&.>.1.1.t.d.0.t.t.",
"N.D.J.XX-X'.J._ j r _ E.;X;X5X9X-XXXD.d.>.} E.9X1X5X9X9X9X9X1X-XE.+._ t.x.'.Y.XX%X%X%X%XXXXX-X;X%XJ.i.1X;X;X;XeXuX9X5X5XeXdXdXdXuX%Xk.R Y B A Y B j } &.x.E.;XY.1.A i.-X%X%XXX(.E.Y.t.R L [ D.'.%XXX'.(..X1X9X1X%X/.(.C.%.%.n.D.C.1.[ } +.%.k.'.1XeX9XeXeX5X1X/.L 0.D.E.Y.d.+.} H [ / m 3 4.k.d.} L } +..X%X;X5X;X9XuXuXuXdXeX1X-X'.n.C.(.'.%X;X;X-X9X'.x.t.i.D.J.E./.E.J.D.D.J./.J..XJ.E./._ p Y } _ _ %.0.0.Y [ 0.J.%X1X-X(.J.1.m H %.d.Y.D.d.1.N.Y.Y.'.XX'..X.Xt.l A _ [ [ Y _ n..X(.Y..X;X;XY.4.n.E.(.n.Y Y i.D.E.XXdXhX1X;X-X;X/.[ Y H / n.XXuXdX9X9X;X'..XE.} m L } >.t.0.+._ [ 4.N.Y.D.x.x.x.",
"x.Y./.%X%XXXx.j f B B %.Y.'./.(.d.>.} 4./ >..X5X5XeXuXeXuXdX5X%Xk.Y i.J.t.(.E.XX-X;X;X-X%X%X;X1X-XE.0..X;X9X%X9XeX9X5X9XeXdXhXhX9X.Xk.R R m m A L / k.'.%XeXeXN.[ } D.-X;X9X1X5X9X(.t.m r k..XE..X%X-X%X-X5XeXeX1X5X.X4.B B _ &.4.>.} R B B +.x.XX1X1XeXuX;XXXE.H j H %.>.&.%.[ +.0.1.[ l t.N.E.d.[ +.%.'.XX%X-X;X9XuXuXuXdXuX5X1XY.J.Y.Y.'.XX1X-X1X-Xd.+.i.J.Y.J.Y.E.E.Y.E.E./.'./.1XXX(./.&.L %.1.&.%.+.+.%.L 4.D.%X-X-X1X;XXXC.H 0 l %.n.x.x.k.(.'.E..XXX'..X(.t.B / i.x.D.i.&.&.0.D.XX;X%X.Xt.x.E.'.-XXXi.R >.n./.-X9X5X-X;X%XXXi.m m _ L >.E.1X9X1X5X-X'.'.d.R A +.d.Y..XXX/.t.} 1.D./.E.E.N.N.",
"N./.XX;X;X;Xd.B f +./ m R } [ } L Y _ %.Y n.1X1X;X9XeX9XeXuX;X/.4./ E.'.t.Y.'.XX-X;X1X;X-X-X-X;X1X/.1.x.'.dX1X1X9X9X9X9XeXuXdXdX1XY.4.m A B } >.>.k.(.1XXX;X;Xk.R k.-X5XeXdX9XuXeX;X;Xx.H x..XXX9X5X%X(..X1XeXeXeXdX(.+.A H [ >.i.i.i.1./ B Y &.D.9XeX1X5X1X.Xk._ A &.E.'.E.n.%.d.n.k.t.>.J.J.E.i.Y B B n.%X5X;X-X1X9X5X9XeX9X;X.Xn.Y./.Y..XXX;X;X9XD.} 1.J.E.Y.Y.E.E./././.(.(.E.'.;X;X.Xt.R } 0.C.J.D.t./ [ &.C./.%X;X;X1X5X9Xn.A f [ x.x.0.C.E.%XXX(..XXX(.'.(.N.&.&.n.J.-X'.(.x.&.&.n./.D.t.J.XX.X.X%X%X(.i.[ d.'.-X%X%X;X1X-X/._ f A >._ } n./.%X%X-XXX'.(._ R %.n.Y./..X.XuXJ.&.1.D.E./.XXY.Y.",
"J.Y.'.XXXX.X+.L [ d.x.} L L L / L } &._ +.(.5X%X-X9XeX9XeX9X.Xn.&.1..X.Xx.n.'..X-X;X1X;X-X%X%X-X;X(.x.1.t..X5X%X1X5X9XeXeXeXeXeX1XN.>.l A Y k.C.J.'.;X;XXX.XXXi.m d..X1X9X9XeX9X1X;X9X'.1.t./.XX-X%X'.'.-XeXuX5XeX-Xx.%.} &.i.D.C.N.N.C.d.+.R R 1.XX;XXX%XXXD.%.>.d.(.-XE.D.J.C.D.E./.n.D.;X'.C.D.0.+./ d.%X1X%XXX-X;X-X%X-XXX'.Y.C.C.J.E.'..XXX.XY.1.%.N..X.X'.(.(.'..XXXXX.X'./.'.%X;Xx.Y / 4.N.'..X.XN./ [ x.'.'.%X5X5X;X;X;X+.B / d.D.x.k./.(.'.(./.XX-X-X;X;X'.N.4.n./.5X;X'..XJ.1.Y L } 4.5X9X-X;X;XXXXX/.t.t.E.1X;X;X1XXXY.n./ L +.&.%.&.4.x./..X'..X.X/./ [ t.D.E.'.-X-X5XY.4.4.J.'..X-X.X.X",
"-X(.XX-X-X'./ [ +.R +.+.R R H H L Y [ R C.-X-X;X5XdXcXdXdXuX.Xx.} k.(.(.C.0.(.(.-X;X1X;X-X%X%X%XXX'./.&.H t.%X.X;X1X9XeX9X9X9X9X%Xx.0.Y R / d.i.(.XX1X%X5X'.Y.Y H x..X9XeX9XcXuXuXdXuXXXx.1.(.1X;X1X1X-X-X1X9X9XeX/.1./ [ t.D./.%X-X.XE.E.E.k.+./ 4.k.(.XXk.%.} /.%X;X.X.X-X-X(.'.-X;XD.C.(./.J.D.J.C.t.d.XX-XXX.X%X%X.X(.(.E.D.(.(.d.i.D.Y..X%XC.[ R i.D.(.;XXX'..XXX-X;X;X-XXX-X.X1X1X+.l d.N..X;X'..XY.} %.E.XXXX-X5XeX1X.XE.Y [ i.1.%.n./.'.;XXX(.(..XXX%X%X%XY.i./ 0.Y.;X'.;X.XXX.Xt.A R N.XX;X1X;X;X1X-X.XC.[ >.(.%X'.J.i.>.&.} &.4.L } 1.&.0.J.'.E.(..XE.&.1.n.(.%XeXdX1X;X(.i.4.D.XXXX-X-X-X",
".X(.%X1X'.d.1.t.0.k.x.t.0.t.>./ _ R m &.(.(.eXXX1X1X9XeX5X5XXXn.+.(.;XuX%X%.J..X.X%X1X9X1X%X%X1X/.XX(./ 6 A >.J.-X1X%X;X5X9X9X%XD.4.x.0.Y [ t.J.'.;X1X5X1XJ.[ m f t..X%X;X1X1X9X1X5XeX5XY.i.C.1X%X1XXX%X9XeXdXXX%X0.+.>.t.E.1X.X1X1X;X%X%XXXY.k.Y j B %.&.>.x./.-X5X5X5XeX1X%X1X%X9XE.4.R /.-XJ.'..XE..X'.Y.(.(.'.D.d.1.1.t.n.D..X/.E.0.1.x.C.4.L H %.D.'.XX-X-X%X'.(..XXXXX-X9X-X-X-X/./ _ k./.%X.X-XXX/.+.>.Y.XX-X9X5X1XeX.X>.4.x.x.x.J./.(..X'./.-X5XXX;X5X'.k.+.} L _ x.N.'.1XXX-X(.N.L L 1./..X5XXXXX5X;X;X.X[ r H 1.0.4.t.k.d.N.Y.N.i.%.A / &.i.J.(.XX.Xk.0.n./..X-X9XuXuX9XXX1.%.N.E.XX9X;X1X",
"XXXX;X1X/.d.i.N.C.D.D.N.D.Y.D.k.t.&.Y k.(./.-X.X%X-X5X9X9X9X.Xt.1.'.%X%XE.%.t.'..X%X-X-X1X9X-X/.(.C.k.%.+.&.Y m 1.k.n.C.N.x.x.t.} H [ / A } n.XX-X-X;X5X(.+.m L } C.XX-X1X-XXX%XeX%X;X5XN.L _ D.5X5X%X1X5X-X5X1XC._ / x.E.'.-X5X1X5X9X1X;X%X/.C.&.j H _ +.n..X1X;X9X5X5XeX5X;X5XXX'.d.l A %.J.(.(.%X-XXXx.+.+.[ } H A +.k.D./..X-X.XY.t.[ &.>.} R L } i.C.'.%X.XXXXX%X;X1X-X.X(.5XeX.Xk.[ i.D.J.-X;X5X-XE.%.[ 0.'.5XeX5XXXn.4.t.D./.J.N.J.(..X-X-X%X;X-X1XdX.X&.[ %.4.&.} &.d.Y.'.%X(.4._ H [ t.C.'.-X;X-X;X1X%X'.+.m %.Y..X'.'.'.'.XX%XXXE.t.R l R Y +.t.&.&.t.x.Y.'.%X;X9XeXeX5XXX&.%.N.C.Y.(.'..X",
"XX;X1X.XD.n.C.E.Y.J.D.Y./.(.E.C.C.k.&.J.(..X%X.XXX%X5XeXuX9X/.1.d.-X-XXX/.0.%.E.XX-X1X5X9X;XE.k.R R } } } _ m p H %.>.>.} / +.+.4.1.0.[ l A 1./.%X5X-XY.d.&.+.4.d.Y.XX;X9X5X;X1X%X%XE.d.1.4.t.0.-X1X-X;X5X9X1X(.&.&.i.Y.XX-X-X-X5XeXeX5X5X1X%X(.x.B L H [ /.5X5X5XeX9X5XeX9X5X9X1XE.4.B } A %.E..X-X-X(.1.R R B / Y [ x.'.%X-X;XXXXXE.C.+./ L Y } } >.0.t.C.'..X'.'..XXX;X5X5X1X%XJ.&._ &.N./.-X;XeX5X%XD.4./ [ n.(..X/.k./ L >.Y.'.(.Y./..XXX1X5X-X-X9X9XXXk._ 0.N.D.C.i.&.1.t.i.D.t.Y B / _ } i.N.N.(.%X%X1X.X%Xk.>.N.XX%XXX%X1X5X5X5X9X.X0.L R Y R %.Y p / d./.XX-X;X;X9XeX9X;X'.} &.N.n.C.n.J.E.",
".X-X.XC.N.E.'./.'.(.'.XXXX(.Y.D.Y.t.1./.XXXX%X-XeX9XeXdX9X(.d.} D.9X;X1X(.d.%.n.%X'..X1X;XD.%.Y Y _ %.>.1.>._ A 0.J./.E.n.d.D.Y.J././.n.%.R / &.x.'.E.i.d.Y.E.D.C.J.(.%X;X-X-X1XY.k.[ m j R i.E.x.'.-X5X-XXXn.%.R N..X'.%X9XeX5XeXeX9X5X9X9X;X.Xt.m l m 1..X1X5X9XeX9X5XeXuXeX5X%XC./ H / B l %.k.i.t.4.[ [ [ A Y 1.C.(.XX-X1X;XXX.X'.(.t.Y R %.0.d.D.C.0.0.J.XXJ.Y.'.-X-X.X'.'.0.Y A 1.C.Y./.-X;XeX%X'.J.N.%._ +.&.i.4.R R [ / 4.C.E.(.%X-X%X;X;X-X1X5X'.i.4.x.Y.(.(.Y.n.&.R R %.1./ / [ 4.[ / %.+.[ 0.J.'.-XXX/.D.J..X-XXX%X9X;X9X5X9X9XJ.} H R A H R l j 4.D.%X1X5X1X5XeXeX9XeXXX&.t./.Y.(.Y./.(.",
"%XE.x.k.Y.-X-X.XXX.XXXXXXX(./.(.'.t.x..X5X%X;X9XuX5X1X5X'.0._ _ Y.5X%X1XE.t.&.1.E..X1X1XC.[ R +.0.n.C.C.Y.Y.i.Y t.E.XX-X(.J./.E.E.(.(.XXXXC.} l Y 4.k.x./.XX'.E././.'.XX(.Y.Y.Y.&.R Y +.+./ } t.1.C.XX;Xn.&.A A k..X1X;X9X9X5XuXuXuXeXeXuX9X'.N./ l r H J.%X1XeXuXuXuX9XeXdXeX;XE.t.m m B } R R } R _ [ [ +.} Y [ x.XX;X%X%X1X5X1X%XXXY.x.H 1.D.D.D..XXXk.%.t.E.E.Y.E./.N.1.%.1.[ L &.N.Y.'.-X'.%X5X.XXX'./.1._ >.4.d.t.0.C.Y.d.R t.D.(.-X;X%X;X-X5X-XD.t.t.N./.(./.XX/.D.0.B H R _ H / +.0.+.+.[ L R / _ [ } 1.D.Y..X1X5X1XeXcX;X9XeXuX;Xd./ [ +.&.B 0 l / d.(.;X5X5X5X9XuXuX9X9X/.+.t.E.Y.'.E.(.(.",
"'.t.&.x.XX1X;X5XXXXX'.(.'.XX%X%Xn.i./.C.C.(..XY.E.J.J.E.N.&.} 4.C.-X%X1X/.t.>.} x.E..XD.%.Y &.n.k.'.%XXX.X.XE.0.0.Y.'.XX(.Y.(./.'.'.'.1XeX%Xn.R A >.n.Y..X.X(.'.-X%X;X-X'./.Y.N./ } >.i.D.(./.D.D./.E.n.[ [ R &.;X5X-X;XuXeX1X5XeXdXhXhXuX-XC.1.+.} R +.-X%X-XeXuXuXdXeXeXdXeX.XN._ H +.4.n.C.k.d.0.0.>.+.[ / +.N./.1XuX9X;X;X5X1X-X%XE.D.A t./.'.J.'.;XC.+.} 4.k.d.d.i.>._ / +.+.+.n.Y.J.'.eX-XXX;X%X1X;XY.&._ >.x.x.d.C.Y.J.E./ t.D.E.XX%X%X1X5XXXC.4.4.D.'.E.%X(.%X'.'.n.m B j } &.>.4.i.i.d.x.k.Y.n.+.H A 1././..X;X9XeX9X5X;X5X9X1XJ.>.+.0.x.D.1.A j R N.XX-X1X1X1X9XuXeX1X-Xn.+.4.C.D.Y.Y.XX.X",
"t.[ [ k.'.%X;X9X9X5X%X.X%X1XXXJ.R 4.(.&.A t.d.+.i.x.x.n.N.x.x.J.D..X.XD.N.1.+.1.i.&./ / } >.t.x..X9X1X1X5X1X-XJ.t.Y..XXX/.Y.XX-XXX%X-X9X1X%X.Xd.[ x././.'.XX%X;X5X1X5X1X-X;X'.x.H 1.Y.%X;X1X9XeX5X5X/.d.[ i.1.t..X%XXXXX9XhXhXuX9XdXhXeX-X(.C.d.D.C.N.0..X.X%XeXuXuXhXuXeXdX9XE.1.L &.J.'./.XX.X.X/.J.d.>.L l %.N.E.-X9X9X5X1X;X-X;X%X.XE.Y t./.'.J.'.-XC.+.R / / &.t.d.x.x.t.&.} &.J..X%XXX5X-X;X-X1X1XXXt.+.1.x.E./.E.(.Y.D./.} d.J.E.'..XXX;X-Xx.4.d.N./.XX/..X(./.E.'.k.H L m 0./.E./.E./.'.Y./.-X.Xd._ &.Y./.(.'.XX;X5X1X%X%X;X%XC.%.[ 4.n.n.N.C.d.Y Y N.'.%X-X;X1X9XeX5X%X'.t.>.i.Y.(.E.'.XX'.",
"H Y } 0.C.'.;X1X9X5X%X'.XXXXx./ / t.%Xx.B >.1.0.x.E.J.N.Y./.E./.(.'.C.Y [ / _ C.4./ Y %.0.t.N..X(.1X5XdXuX;X1XXX1.E.;X5XXX(.-X;X5X;X5XdX;X.X(.&.%.n./.'.-X-X-X5X9X1X1X;X-X1X(.1.k.'.1X;X1XdXcXeX9X9X1X%Xd.t.Y _ E.'.%X;X;X5XuXcX9XuXuX%XE.Y./.'.%X'.%Xt.Y.XX;XhXuXuXhXdXeXdX5XJ._ 4.E.%X%X1XeX;X1X-XXXY.N._ p } n..X9X5X1X9X5X%X;X5X.X.XJ._ d.XXY.E.%X-Xn.} R Y 1.x.C.n.J.XXY.4.4.n.(.(.;X;X5X-X5X-X1X%XE.[ } N./.(.;X;X(././.D.[ d.J./.'.'.'.%XN.%.0.Y./.(.%X.XE.%X.X'.(.d.1.C.B 4.(.(.%X/.'.XX-X-X.X.Xx.} i.(.(.XX-X%X%X-X-X%X-X-X'.4.A _ x.D.E./.Y.(.J.>.1.C.XX-X;X;X5X9X;X'.x._ } 4.C./.D.'.x.t.",
"l } Y %.i.n.D.1XXX(.E.E.D.d.0.t.i.i.(.C.%.1.x.x.E./.'.%X%XXX'.'./.%X/.m R } 1.t.4.+.0.0.1.n.Y..X%X1X9XeXuXuX1X.X%.4./.5XXXXX5XXX-X.X'.'.N.N.+.} N./.%X-X%X-X1X1X9XXX9X9XXX'.J.C.1X%X%X5XuXdXcXSXcXPXeX-X(.t.B B (.XX%X1XuX5X;XeX9X-XE.t.C.%X'..X;X-X-Xn.4.E.5XdX9XdXdXdX9X5X;Xt.4.D.XX9XcXuX1X9XuX9X1XXXE.%.f } n.'.1X1X;X9X9X1X-X;XXX/.i.Y n.J./.E.%XXXC.} l / x.J.E.(./.'.%XJ.x.(.XX.X%X%X.X%X;X-X-X'.t./ 4.(.;X9X-X%X'./.(./.} t.D./.(.'.'./.} } n.E./.J..X'..X.X;XJ._ 4.n.J.R k.(.Y.C.Y.(./.-XXX'..XN.i.E./.Y.(..X'.'.XX-X-X.X1X.X%.Y i.D.J./.'..X.XJ._ } d.J.XX-X.X'.%X(.N.R j H +.t.i.>.i._ R ",
"H 4.+.+.+.1.1.0.d.4.>.1.0.d.D.(.N.t./.t.>.0.D.J.XX.XXX%X%X%X%X%X'.XXN./ 0.d.N.x.D.n.x.x.t.i.J..X%X1X9X9XuXuX5XXX1.Y [ t.k.C.D.k.>.+.} _ R _ _ i.J.'.;X1X;X1X5X5X5XuX;XXX.XC.J.5X5X1X5XdXcXcXbXSXPXPXbXuXD.+.l m (.5XeX5X5X1X;X5X.Xn.>.t./.;X%X5XeX9X5Xn.} 0.E.5X5XuXeXhXdX-XJ.%.E.;X1X1XuXhXeXeXeX5X1X;X;XC.Y A k.'.9X9X9XuXeX-X-X-X%X.Xx.1./..X'.'./.XX;Xt.A 1.J.E.Y.(..X-X-XN.C.'..X(.'..X.X-X1XeX%Xi.Y Y t./.;X9X;X-XXX.X%X.X} x././.(.XX/.k.R &.C./.-X'.XX%XXX.XE.>.4.J./.d.R k.'.(.E.'..X'.'.-X5X5X(.D.'.;X-X;X-X'./.'.XX%X-X9XD.R &.J.E.%X;X;X%X.X/.&.+.%.k.C.(.%X-X/.i.+.f m R n.N.} _ _ R R ",
"/ &.} +./ / } +./ R / %.0.x.J.'.J.1.i._ &.x./.(.%X%X-X%X%X-X-X%X'..Xd.t.C.D.'.%X-X1X.X-X(.k.C.(.%X1X9X9XuXuX5X%Xk.B m R %.k.k.d.0.%.&.4.n.4.%.x.(.-X9X9X5X9X9X5X%X1X.X/.x.d.XX9XuXuXhXbXbXcXcXbXPXMXMXeX4.R H m %.Y.-X-X1X-XE.n.%.>.%.Y.-X;XXX5X5X5X9XN.L A +.n.5XdXuXhX9XD.4.&.'.5X5X;X9XdX9X-XeXeXeX1X;X.Xt./ d.'.eX1X%X-X;X%X;XXX%X.Xt.t.Y.(..X1X.X-X%X1._ x.E..XXX-XXX%X-XJ.Y..XXX.X.XXXXX-X5X-Xn.Y m +.n.Y.-X1X-X-X%X%X1X.X&.C.%X;X-X.XN.>.A &.k.n./.E./.XXXX/.0./ k.'./.&.+.n.(./.Y..X-X-X'.1X;XC.x./.%X1X1X5X;X.X'..X%X%X%Xn.>.&.n.(..X9X1X5X%X.X.Xx.x.x.1.&.4.N.C.4.R A H / &.E.E.>.} / H L ",
"4.i.x.J.N.n.J.N.B L +.i.C.Y.E./.C.>.H A _ n.Y./.'.XX%X-X-X-X%X.X.X(.d.C.E..X;XcXuXdXeXhXeXJ.n.E.-X1X9X9XuXdX9X-X4._ d.D.E.XXJ.Y.D.x.N.x.J./ _ N..X;X9X5X1X1X;X-XXXXXJ.t.%.N.eX5XhXcXbXMXbXhXhXhXcXhXeXE.[ _ / l H 1.k.d.d.1.Y j +.4.R 0.J.;X1X-X;X-X-Xi.l r j L t.Y..X-X'.>./ 4.'.;X9X9XeXeX9X1X5X5XeX5X1X5X(.t.>.J.5X9XXX(..X-XXX/.%X(.&.d.C./..X%X(.J.1./ t.C.Y.XX-X;X.X.X%XD.E..X-X;X;X-X%X%XY.i.[ B Y t.D.(..X%XXX%XXX-X1X/.4.C.%X9X-XJ.t.%.R &.4.&.1.0.x.Y.E.k.R 1.C..XE.0.1.D.XX.X(..X.X(.-X.XN.[ &.N.C.(.%X;X1X-XXXXX.X(.i.R } n.(..X'.1X-X1X-XXX/.1.>.0.%._ _ >.1.[ R / &._ 4.N.E.n.[ R L Y ",
"[ t.Y.(.(.'.'.1.%.1.d.C.Y././.E.x.i.L R / >.x.J.(.XX%XXX%X;X;XXX%XY.n.'.1XhX1XcXcXeX9XeX9X(.n.'.;X5X9X9XeXuX9X;X%.4.%X-XXX5X'.'.XXY.J.n.J.Y &.XXXX1X5X1X;X-X%X'.(.E.4.B %.'.eXSXhXcXMXMXbXbXbXcX9X1XY.i.} >.+.Y Y _ / L A l B } t.E.t.&.%.x.(.XX1X-X.Xi.[ 1.t.0.n.D.N.d.0._ _ D..XXX;X1X%X'.%X5X;X.X%X5X;XXXN./ L >.Y.1X5X%X.XXX-XXX;XJ./ >.0.x.D.D.i.&.Y Y k.D.Y.(.(.XXXX%XXXx.>.>.0.i.d.d.k.k.%.R L m Y t.D.%X.XXXXX-X%X;X;XC.>.d.J.Y.x.1.&.1.0.0.t.1./ _ 1.t.N.%.R n.E.'.E.4.t.D.'..X.X-X;X%XXXd.%.} >.+./ k.E.(./.J.C.N.k.t.B %.d.C.;X;XE.-X;X1X9XeX%X+.H L +.&.4.i.i.t.t.i.d.+.t.J.(.n.R Y L L ",
"&.i.D./.XX%XXX0.n.D.E././.(./.Y.C.E.x.4.>._ >.x.'.%X%X.XXX;X;X%X/./.%XuXdXMX5XhXhX5XuX9X;X.XJ.-X5X9XeX9XeXuX9X-Xi.C.-X'.(.1X;X;X;X/.Y.Y.(.[ 4.'.;X5X9X1X-X%X.XE.d.&.[ L >.'.5XMXdXhXbXbXSXHXbXuX/.J.t.i.x.C.x.N.C.D.N.d.} l R C.(.XXJ.k.D./.(.Y.Y.D.D.t.0.Y.E.n.E.(.E.C.Y.k.%.t.E.J.'.XXD.i.x.Y./.Y.E.XX(.C.t.R H L [ d./.XX'.E..X'./.&.f A L _ 4.x.d.i.0._ _ 0.N.E.(.%X%X-X-XD.R A H Y Y [ 1.t.+._ _ j H k.J..XXX-X-X5X;X1X-Xi./ &.1.+./ } 1.t.n.k.n.x._ H Y / &.H _ t.J.E.Y.} 4.n.E.'..X.X'.E.d.} _ &.%.H B &.>.>.%.[ [ +.} / R i.(..X%X%X'.1X9X1X;XeX5X4._ } >.k.D.J.D.Y./.(.J.x.i./.D.[ / } 4.4.",
"J.C.n.C.XX%X-XN.C.E.'..XXX-X%X(./..XXXJ.N.4.R 4.E.XX;X%X%X-X.XJ.N..XuXhX9XuXuXhXeX5X9X;XE.D.(.1XeXuXuX9XeXeX5X-Xd.E.5XeXuXhXuX9X9X1X5X1XJ.H %.E./.(.(.E.Y.D.x.t._ [ t.k.0.C.-X9XuXhXcXbXMXbX1X/.x.x.k.E.XX-X%XeX%X;X5X5X/.0.k.1X-X%X-XJ.-X1XeXdX'./..XY.D.'./.C.(.(.J.x./.XXJ.J.d.t.k.k.&./ [ %.} +.[ >.4.0.k.0.0.&.Y A +.n.C.d.n.N.t.B l Y } %.t.D.'.(.Y.0.Y / >.k.J.(./.(.XXD.H f p l B R 1.t.k.k.d.L Y D./..X%X-X1X9X;X1X.X+.H R _ _ } 1.d.n.C.D.J.E.&.A f A R L &.>.d.N.d.R / >.x.D.C.d.%.R _ _ [ &.%.} &.&.R R R Y / } } _ >.i..X-X(.'.XX5X9X1XXX'./.&.&.0.n.J./.E./..X%X-XE.Y.k.t.[ l _ 4.x.x.",
".XXXJ.k./.XXXX4.(.XX%XXXXX-X%X.XXX.XXX.X/./.A +.n.'.1X5X1X%XJ.0.N.%X1X1X;X5XbXuX9X5XXXJ.>.&.(.1XuXdXuXeXeXeX5X%X&.x.'.5X9X1X5X5X1X-X;X9XD.m A } 4.t.t.1.&.+./ H H C.'./.N.x.XXdXdXhXcXcXcX9XY.4.n.Y..X9X1X9X9XhXMXdX5X;X'.x.N.;XbX9X5XC.5XeX9X-X;XXX;XXX(.%X;X1X%X%X.XN.(.dXeXeX;X'.(.D.i.i.N.N.4.>.R } d.J..XD..X/.0.B B >.0.+.D.Y.i.H +.t.C.C.'.Y.XX'.E.(.i.Y Y } &.d.n.D.J.4.Y j m Y / %.d.n.Y.'.%X1.} D.'.5XXX%X;X9X-X%XE.Y A A _ t.N.C.C.J.Y.(.E.'.i.L r R t.N.Y.x.>.1.A l m B A H L R R Y / / [ d.n.n.D.i.&.>.4.4.t.d.0.%._ x./.D.(.%X'.1X%X9X1X.XJ.>.t.C.E./.'..X%X%X%X%X'.'./.+.B _ 1.n.n.n.",
"n.%Xx.+./.E.0.+.D./..X'.'.XX-X;X;X;X%X-XXXi.L m %.n..X.Xn.%.R R 4.k.J.XX1X9X1X1X1XC.t.>.[ d.%X1X-XcXhXdXbX1XeXY.} i.Y.(.'..X-X1X'.XX'.x.1.0.C..X(..XY.D.N.0.+.B >..X.X%XE.t.J.1X5X5X;X'.N.1._ L 4.J.1X-XeXdXSXcXdXdXdX1X1X(.C.5X5XuX;X(.'..X(.'.XX%X-X1X9XuXhXcX9XeX-XC.'.dX1X%XC.J./.'.(.'..X%X-X/.0.i./..XXX.X1X;X;X'.C.D.E.D.N.k.d.x.N.D.E..XXX;X;XeX'./.d.R R / [ +.%.+.} _ +./ _ _ [ t.Y./.'.(.%X1./ D.'.%XXX.X1X%XXX(.>.L B / 4.x.N.C.Y.'..XD.J.'.&.j %.k.n.Y.E.'.D.+.R l R } >.1.1.4.4.4.Y l 1.n.J.E./.C.N.N.C.Y.(.'./.J.t.4.N..X'.(.;XuXeX;X;X%X4.4.D..XXX%X-X%X%X-X%X'..X%Xn./ Y %.t.d.N.N.",
"C.(.N.L R R A B >.t.k.x.N.J.E.E.J.D.D.i.[ +.+.m Y } >.+.L m A Y %.+.%.0.n.D.N.x.t.+.+.[ R 0..X1XeXbXcXdXcX1X1XJ.L >.C.E.(.'.XX%X%XJ.t.0.N.(.XX.X;X1X%X;X1X'.x._ >..X%X%XD.R _ 4.N.J.Y.J.n.4.+._ +.x.%X%X5X9XcXhXbXhXeX1X9XXXC..XeXdX;X'.d.%.x.1X1X1X9XeXdXcXbXMXdXuX;XY.C.D.C.J.C.J.(..X%X-X1X9X;X.Xx.N..X%X5XeX;XuXhX;XJ.i.0.t.N.C.Y.'.XX'./.(.1X-XeX5XXX'.%.} 4.d.J..XXX(.D.x.k.&.Y [ k./..X.X(.-X.X} _ J..XXX-X.XXXXX%X/.%.l L %.d.C.Y././.Y.'.-X.Xx.[ [ d.C.J.'..X.X/.>./ A &.>.>.} _ [ } } / } N.J./.(.(.Y.Y./.'.(.'.XX.X(.&.} t.Y.(.'.XX.X-X1X%Xk.%.i..X1X-X-X-X%X;X5X1X%X-X1Xd.L +.d.x.J.Y.E.",
"J.D.N.m 6 j L _ [ +.+.+.+.%.[ R L H A Y +.1.t.x.t.k.x.k.0.4.t.k.k.0.%.[ R Y Y H / R +.%._ 1.E.XX9XhXhX5XuX5XE.%.A [ 1.0.i.x.C.D.D.%.R 0.(.-X%XXX-X9X5X9X5X.XE.k.0..X5X;X(./ %.x.J.(.-X5X5X-X.X'./.D.(.;X9X;XeXbXeXdXdX1XXXx.+.0.;XdXXXY.&.>.J.-XeXeXuXdXcXbXMXMXMXhX5X(.t.} 0.n.Y./..X-X1X9XuXdX5XXXx.C.XX;XeXdXeX9X'.N.n.x.N.'.(./.(.XX%XXXXX%XeX-X9X9X;XY.} d.'.%X;X5X;X.XY.C.J.J.0.+.i.D.J.(..X;Xn.L R d.E.XX%X.X-X;X%XC._ m +.t.D.E./.'.'./.'.XXJ.&.+.d.D.E.(..XXX%X(.&./ _ } +.[ L H Y / / _ 0./.Y.'.(.E.E.(././..XXX(.N.d./ R } d.Y.XX%X'.-X%XC.R } d.XX1X;X5X5X;X-X;X;X-X%XC.} [ k.C.C..XE.E.",
"E.N.N.H B %.t.N.Y.J.C.x.d.4.} H 3 A / &.C.'.'.%XE.(..X.X(.E.Y.Y.J.J.C.0.H m R +.1.4.x.x.0.t.C.J.%X;X9X;X-X(.t.R 4.i.i.4.%.[ _ R [ L / k.'.%XXX-X1XdXuXuX5X-X;X.Xd.'.9X-X.X} 0.E./.XX9XhXcXhXdXdXdX(.Y..X1X9XuXdXuXeXXXn.>.A j Y d.XX/.J.1.N.;X9XuXuXdXhXcXbXbXMXMXhX;X(.1._ n.E.%X-X;X5X9X9XeXeX1X(.0.x.;XuXhXuXhX'.x.x.Y.(.(.(.XX(./.'..XXX-X9XuX1X%XeX;Xn.k.(.XXXX'.(.E.E.(.'.Y.E.x.1.d.Y.XX;X;XE.} A L _ x..XXX%X1X%XN.%.R / i.C./.(././.'.%XE.0.1.1.d.D.D.(.'./.'.-XN.} [ 0.>.4.4.>.>.4.0.4./ %.D.E..X.X'.'.XX'.'..XJ.1.R H &.%.&.1.d.Y..X.X'.d.[ L %.k..X-X-X1X5X;X-X-X-XXXC.[ _ d.D.Y.(./.E.Y.",
"'.E.J._ >.n.n.(.XX.X(.E.Y.D.i.%.A A >.D.J./.%X%X;X;X-X%XXXXXXXXXE.'.%XJ.+._ t.D.J.J./.(.J.C.D.N.C.k.k.k.0.&.%.0.J./.'./.N.t.} L L Y +.d.(.5X9X5X5XuX9XuXhXuX9X.Xi.(.uX;X;X4.d./.1XeXhXbXMXbXbXMXdX9X%XJ.N.XX.Xk.n.x.4.&.>.&.1.i.i.k.4.N.D.'.1XeXdXdXdXhXcXbXbXbXbXdXXXD.4.0.'.-X5X5X5X9X9X9X5X5X1X(.i.N.1XdXhXdX-Xn.n.'..X.X'.C././.'.%X;X;X;X5XeX5X1X%XE.D..X-X'.'..X.XXX-X9XuXeX;X'.C.k.J.-X5X/.4.A L A l &.d.C.J.D.k.+.H _ 0.n.E.(.E./..X'.J.4.Y 1.C.D.Y.Y.(././.'.XX&.>.t.N.N.D.D.C.D.Y.E.J.i.%.D.XX;X%X%X.X'.-X%XN.[ m H [ n.C.N.t.1.1.d.N.0.H l _ [ t.D./.%X%XXX(.(./.Y.N.i.1.i.C.Y.XX%XJ.(./.",
"/.XX/.>.x.J.C.-X-X-X%XXX-X-X'.D.x._ / k.Y.D.Y.%X%XXX.X.XXX%X%X-X%XXX-X/.0.4.N.J.(./.(..X.X'.E.D.n.0.H j m &.N.E.(.%X1X5X1X-X/.N.t./ L 4.(.5XeXuX9XdX9XeXuXeX9X%X0.(.eX1X9XD.D.XX5XeXdXhXcXcXcXbXbXMXeXD.} 0.d.%.k.C.C.J.D.n.N.C..Xn.&.1.(.9X1X1XdXdXhXhXcXbXbXMXcXeX(.k.t.D.-X;X5X5X5X9XeXeX9X5X9X1XY.E.XX.XXX%XN.4.J.5X'.Y.XX.X/.(.%X9XuX9X5X9XeX-XeXN.k.-X1XXX-X;X1X1X;X1XeXhX1X-X/.t.+.n..XY.1.[ L _ H m R H Y / R [ } +.i.n.C.(.(.J.(.-XJ.} L } E.XXD./.XX/.Y..X%XY.} n.Y.Y.E././.E.(.XXXX'.J.&.C.-X9X5X9X-X.X%XC.Y 3 f [ 0.C././.C.0.[ [ >.} Y [ t.[ 1.d.k.d.N.C.k.4.0.d.x.C.(.E.E.-X-X'.XX'.(.",
"E..XD.1.C.E./.1X;X1X;X-X1X5X;X.X;X'.d.0.J.(.E..X.XXX-X;X;X;X;X;X-X(..X(.k.n.(.(.'.(.'..X%X%X.X(..XE._ B H t..XXX1X5X9X9XuXdX9X%X'.t.} 0.E..X-X9XeXcXuXuXeX9X9X%X>./.9X1X;XJ.d.x.'.%X5XuXdXhXbXMXSXhX5X(.[ } i.C.J.XXXXXX(.Y.%X-XXX%XE._ N.1X5XeXeXeXuXdXhXcXcXbXdX5X/.d.N..X%X-X9X9X5XeXuXuXeX5XuXeX.X'.XXE.E./.N.0.Y.dX1X'.XXXX%X%X;XeXuXuXuXdX5X/.E.4.C.eX5X.X;X1X1X-XXX%X1XuXuX.X0.L Y >.1.R 1.i.d.i.4.>.%.Y B H m / 4.x.E.D.E././.E./.J.1.A _ N.;X;XJ.Y.XX/./.%X%Xk.i.E.(.E.(..X.X.XXX%X(.J.0./ 4.C.%X1X1X;X(.N.} f 0 A +.1.C.Y./.E.N.%.Y [ R R +.1.[ [ } [ [ %.%.[ [ 1.N./..X;X.X.X9XXXE.9X'.(.",
"'.(.d.%.N.Y.'.XX%X;X-X-X;X9X5X-X1X'.(.E.k.i.J.XX'..X%X%X%X%X%X%X;X.X%X.XN.J.;X;X%X%X%X%X-X%XXXXXXX.X0.i._ Y d.(.;X5XeXdXbXMXdX1X-X-X/.x.n.'.;X-X-X;X%X5XuX5X'.d./ E.uXhXuX(.>.} d.C.(.;X9XuXdXhXbXuX5X%X>.>.k.J./.%XXX;X-XXX1XXX.X;X.XB d.1X;X1X1X1X5X9XeXuXdXhXeX-X/.x.E.;XXX;XuXeXeXeXdXdXeX5X9X5X(.XXeX1X1X;X%Xd.k.;XcXuX5X;X;X;X5XuXdXuXeXuX;XC.&.1.%X5X5X%X;X1X5X1X%XXX-X1X;Xn._ R [ Y / d.E.1X5X.X.X'.C.x.d.t._ _ 1.n.(.J..XE.E..XJ.&.Y Y d.(.XX-X'.C././.'..X'.0./.E.J././.'.XX.X(.D.4._ %.R +.&.N.D.N.n.1.Y l H _ %.t.C.(.(.E./.Y.1.H L 1.%.4.i.D.k.d.t.D.t._ Y &.n.J.C.(.XX%X%X-XXX.X-X.X'.",
"'.'.>.>.(.(.(.1X;X;X;X;X-X-X%XXX.X1X-X.X/.0._ 4.E./././.'.-X;X-X-X1X5XJ.n..X%X;X9X5X;X%X-X5X1XXX;XD.d.d.n.%.A 0.N..X1XuXMXMXhXcX9XuX-XC.x.N.XX'.XXXX.XE.n.t.4.1./ E.eX9X5XXXk.+.R _ &.d.Y.%X5XeX5XhXdXN.&.k.J./..X1X9X;X1XeX5XXX-XdXJ.A _ '.uX;X%X5X-X9XhXeX9XeX5XXXE.1.J.-X1X5XdXuXeXeXeXuXdXhXdXuX1XY./.1X%X-X-X0.R 0.;XMXbXuXcXdXbX;XMXeX5X;Xn.+.A x..XuX5XJ.%X.X-X1X%XXX(.n.0.+.} >.+.t.x.Y.'.XX%X.X/.E.'.%X-X.XE.n.4.t.D.XX/./.XX(.1.A A L &.C.'.'.'.%X-X.X%X1Xt.D.-X%XXX-XXXXX'..XY._ m >.t.N.N.C.x.k.t.m 0 j B / 0.d.d.n.(.D.E.E.E.d.j d.E.(.'.'.'.(./.E.'.(.&./ t.C.E..X'.;X-X%X1X;X.XXXXXXX",
"XXx.R >.Y./.%X9X;X;X1X9XuXuXeX9X;X-XXX/.%XJ.L f B 1./.%X.X'.XX-X%XXXD.+.0.n./.%X-X-X;X1X;X-XXXXXC.C.E.XXXX0.j H x.E.XX1XuXdXuXhXeXbXuXXX/.t.k.C.i.d.i.4.+./ Y Y H n.eXdX;X%Xn.Y [ _ R Y / &.x.Y.E.Y.i.} +.x.(.E.%X1X9X9X9XeXuXuX-X%XC.[ L +.D.5X1X5X%X%X.XXX9X9X-XE.J.d.-XeX9X;XeXeXeXeXuXdXhXcXdXhX1X/.k.C.x.(.J.&.B L 1.C..X5XdXeXMXMXeX-XC.4.} &.} k.'.%XXX(.eX%X-XuX9XY.0.+.+.4.i.0._ t.E.%XXX%X-XXX(.(..X-X%X%X%X'.N.1.k.%X-X.X'.N.+.Y Y L H k.C.D.;X9X-X9X;XY.i.XX1X5X5X.X%X-X%Xn.[ [ t.k.n.J.J.Y.J.J.n.R B / +.0.N.C.C.J.E.J.E.J.E.N.H d.E..X-X-X.X'.%X1X-X%X4./ 0.D.'.XX-X5X-X'.%X-XXX%XXXXX",
"x.R f [ x./.1X1X;X-X-X-X1X9X9X5X1X-X;X(..XD.m 0 l L %.d.Y..X.X/.(.D.1.R 0.} 1.d.x./.XXE.D.D.N.i.D.Y.(.XX-Xx.m p [ N..XXX1XuXdXhXuXSXhX9X%X+./ 0.0.i.k.x.x.x.x.n.>.0.XXdXeXeXE.H B Y } &.>.4.d.N.N.i.Y H } d././..XXX;XuXhXuX5X1X5XE.n.4.H p _ C.-X5X5X-XE.E.-X(.E.n.x.i.XXeXdXuXuXuXeXuXuXdXhXcXbXhX-XN.i.k.i.C.J.k.t.t.t.0.t.x.N.C.(./.N.t._ _ k.J.t.1./.XX%X-XXXXX1XuX%Xd.&.t.i.Y./.n.+.i.'.1X%X;X;X-XXX.X%X;X-X5X9X5X'.4.&.N.XX.XE.d.%.+.} Y H &.k.C./.-X1X5XC.>.&.J..XeXuX%X.X'.x.[ / t.D.D.J.E.E./.'..XJ.+.[ 0.n.D.(./.Y.(./.E.E.D.E.C._ d././.(.(.(..XXX-X.X-Xk.&.n.'.;X%XXX-XXX'.%X%X(.Y.%X%X",
"_ l 0 l [ n.XX.X;X-X%XXXXX-X5XeX5X;X1X%X(.t.A L } t.N.k.1.>.t.x.0.>.[ [ t.[ &.&.Y &.0.1.>.4.1.+.N..X1X.XN.} j j B 0./.%X5X9X9XhX5XeX5X5X;Xt.d.(.J.Y.E././.E.E.E.Y.0.C.9XuXeX.X&.%.0.n.J.J.J.J.Y.D.k.%._ } &.i.Y.'.-X9XhXcXdX5X;X9X/.N.t.R l B A i.E./.D.k.d.N.d.k.D.E./..X9X9X5XdXdXdXdXdXdXhXhXbXdX%X4.N.D.'.Y.J.C.C./..X'.(.'.n.d.>.Y x.d._ &.D.(.N.>./.;X5X%X9X;X/.N.x.1.>.k.(..X(.D.4.t.'.;X;X1X5X1X-X-X;X1X1XdXeX5X;Xk.R R t.k.n.x.n.C.C.d.n.1.&.0.n.(.'.N.n.x.i.4.i.Y.Y.D.C.>.Y [ t.n.N.D.E.E.Y.E.'..XN.+.>.N.E./.(.E.Y.(..X'.(.E.E.k.[ k.XX'.(.(..X-X-X-X1XXX>.H [ d./..X;X1X;X;X1X5X%X(.J.C.",
"_ / A l H +.t.N.'.XX-X%X'.'.%X1X%XeX5X-XN._ +.i.Y./.(./.E.N.1.R } [ _ +.&.4.N.0._ R _ >.1.} } >.D..X/.d.} H A L H _ 4.Y.;X;X;XuX;X'.J.D.C.t.J..X5X5X1X;X%X.X(./.(.k.n.%X5X;X.XC.J.Y.E./.(.(./.E.E.C.C.t.>.%._ x./.;X9X1X;X5X9X1XE.J.N.4.R R _ A L t.4.%.4.i.C./.-XdX%XXXD.9XdXhXeXuXuXdXhXcXcXbXbXuXXXt.J.E.1X;X-X.X'.XX%X%X.X.X(./.N._ t.t./ 0.J.(.E.%.&.x.'.E.N.d.} L L L _ t.E.(.E.C.0.0..X1X5X9X9X9X5X1X1X1X5XuX9XeX9Xx.H m 4.k.J.(..XXX.X.X.XE.i.&.1.1.0.N..X%X.Xk.&.%.>.4.+.B [ x.d.x.Y.D./.E.Y.J.(.(.d.} i.Y.'./.E.Y.Y.(..X'.'.'.E.1.+.D.(..XXXXXXXXX-X1X-XD.R p f B } 1.D.E..X%X-X%X/.n.[ / ",
"4.i.t.1.1._ m _ d.C.'.%X%XXX%X-X%X5XY.n.4.%.C.E..X-X1X5X1X%XJ.d.4./ _ t.4.i.C.n.+.R / +.+.R Y } x.x.&.[ +.>.t.0.>.1.+.%.n.'./.J.1.[ R } t.x.;XeX;X-X-X-X;X-X%X.X.XC.k.J.;XeXXXD.Y./.'.XX-X-X.X(.XXE.XXJ.D.k.Y 0.J..X%X%X;XeX;XY.N.E.J.&.l m R _ f %.[ } N./.XXdX-XeXXX;XE.eXdX9X5X9XuXhXbXMXMXSXSX5XN.C.(.'.XX5XXX%X;X1X1X;X-X;XE..XXX4.f R L 4.'..X'.+.l } N.n.C.N.x.k.0./ H R x.'.%XE.t.1.XX5X9XeXeXeXeX9X5X5X1X5XeXcX5X4.H _ Y.XX-X-X-XXX.X%X'.%X-XN.Y l 4.-X-XXX1XXX0.Y +.+.H } d.n.x.D./.Y./.E.E.J.(./.t.+.n.'.%X(./././.'././.(..XE.+.1./.E./.'.%X-X-X%XXXC.k.&.>.>._ _ / %.>.t.i.t.t.0.%.&.&.",
"k.N.Y.Y./.i.m l Y [ 4.n.E.'.'.'.J.k.[ %.k.J.XXE.9XuXuX9X1X1X-X.XN.[ %.i.n.k.k.k./ } &.&.%.&.>.4./ 4.i.N.D.J..X'./.(.d./ [ 4.>.} 0.1.%.t.E.Y.-XeXeX9X5X5X9X5X;X%X.Xd.} 1./.1X(.t.(.'.XX%X%X%X-X-X;XXX-X'.XXC.Y [ n.E.%X;X1XXXC.4.C./.n.R r 6 p l m +.+.i..XXX.X%XXX(.N.J.n.Y.5XuXeXuXdXcXbXbXbXbXeX'.4./.-X-X.X1X9XeXeX5X1X1X5X9X%X'.Y.+.l d.>.1.J.E.'.i./ d.D.N.Y.C.D.'.XXE.0.Y &.D.%XXXn.%.(.1XeXeXeXuXuXeX9X5X5X1XuXhX(.[ A %.J.-X;XXX%X;X%X-X1X'.1XXX&.} J.5X1X;X1X1XJ.R / L [ n.n.i.J.(.J.Y.E.Y.E.J././.0.>.C.%X;X.XXXXX'.'./.(./.(.Y.+.t.E.XX.XXX;X9X1X'.D.n.N.n.Y./.J.D.x.n.d.i.>.[ >.x.n.t.i.",
"N.C.E.J.'.(.%.A l f f B R [ _ R m H %.n.J.J.(.;X-X5XuXuXeX9X;XXXXXN.n.} i.k.4./ j A / [ R H R +.4.n.D..X%X%X9X1X'.(.n.1._ H R 4.N.D.N./.eX(./.-XcXdXuXuXuXeX1X-XE.} l Y 0.N.x.>.n.J..X%XXX.XXX%X-X-X%X'..Xk.m j } k.'.'.d./ L R %.4.R r j L A l 1.d.k.(.9X-X(.D./.C.D.J.x.&.E.-XcXcXbXbXcXhXdXuXJ.C.d.(.5X%X;XuX5X1X1X1X5X9X;XXX-X(.C.R >.%Xx.4.Y.(.'.k.} C./.'.%X.X.X/./.%X(.0.B } N.XXD.[ Y.1XeXeXeXuXuXeX9X5X9X9XuX5Xn.Y B / k..XXX/.XX1X%X(.1X-X-X%XY.n.(.dX9XSX1X%X-X&./ H d.n.N.C.D.D.J.J.D.J.Y.D./.E.0.4.N.%X1X%X-X-X.X(.(.XX(.E.J.%.i.N.(..X-X;XXXY.k.4.C.Y.D./..XXX-X(.Y.E.'.E.x.n.Y.D.C.N.",
"C.D.(.N.E.'.%.A _ [ %.1.0.1.} R p / i.Y./.E.'.%XuXhXcXbXbX5X-XeXdXeX;XXX.X/.x.>.4.x.t.1.[ A %.J.E.'.E.'.1X9XcXeX'.d.i.Y.D.&.%.x.d.t.n.(.(.n.1.>.(.;X9XhXeX;X%Xn.} l m 0 p Y Y t.1.} &.t.d.N.J.J.C.N.k.&./ +.} m L / [ [ / / [ %./ B 6 3 } d.R Y x.n.0.i.k.k.D.N.J.(.XX(.x./ k.'.%X9X1X;X-X.XJ.1.k.x.E.-X1XeX9X-X1X%X%XeX-X1X1X5XXX(.n.+.D.(.x.t..X-X%XC.0.Y.(.9XXX-X%X(./.(.(.E.&.Y i.J.%.L >.Y.9X9XeXdXhXuXeXeXhX5X'.D./ _ [ A L x.XX-X1X1X-X;X;X;X1XMXD.'.dXuXhX5X9XeX-XN.H >.J.J.J.Y.J.D.Y./.E.Y.Y.D.Y.d._ 0.Y.'.XX%X-X1X-X.XXX%X%X/.t.R [ i.C.J.Y.N.>./ &.x.N.(.(.%X;X%X-X'./.(..XXX.X/././.Y.J.",
"n.D.E.N..X.X>.&.k.J.E.Y.Y.(./.D.} +.k.(.XX%X%X-X1XeXuXdXhX5X%X1XuX5X.XE./..X'./.J..X'.'.D.4.i.Y.Y.;X5X9XeXdXcX1XC.d.d.J.Y.n.N./.Y.-X1X.X.X%XD.&./ >.n.E.J.N.n.0.4./ A 3 > B R 1.[ [ [ Y } 1./ m l f B / } 0.k.i.t.d.x.k.d.d.x.C.Y.x.4.} >.} A [ C.&./ t.J.J.J.E..X%X-X.Xn.Y } 1.4.4.4.n.x.>.+./ [ %.C.1XeX9X9X5X9X5X5X1XeX5X%X(.N.t./ L i.d.d.x.5X-X.XJ.d.C.(.1X%X%X'.J.J.(.XXXX/.1.%.%.[ A p B n.J.(.%X;X;X-X.X/.D.1.%.+.i.i.1.&.+.4.E.5X5X;X9X9X5X-X;XC.%XbXSXbXuXeXuX1XJ._ d.D.J.J.J.C.C.D.Y.Y./.'.'.XXN.+.0./..XXX(.(.XXXX(.-X(.(.N.Y f H R R } %.} _ _ &.t.n./..X;X-X'.XX'..X.XXX%XXX'./.E.Y.D.",
"i.k.N.D.%XY.1.J.C..X5X;X-X1X-X'.C.1.N.(.'.XX.X%X9XdXeX9XeX5XXX.XJ.E.E.E.(.%X;X;XeXdX1X;X(.k.N././.;X5XhXhXdX5XE.d.x.N.Y.'.%X1X9X-XuXdX5X5XuX-XC.} / >.x.J.'.'.(.XX(.N.+.B l m j 1.N.N.&.>.4.R H l j / k.E.(.XX;X/.(.'./.E.E.(.XX.X/.(.x.0.B R n.d.+.1.J..X/.Y.%X;X1X1X-XJ./ B B L L _ x.E.N.N.n.1./ +.n./.XX;X1X%X%X'.Y.1X%XJ.4.[ _ l Y i.i.D./.XXXX1XXXd.[ d.J.XX%XXX'.'..X.X(.(.Y.4.H A B j R &.i.N.N.n.k.1._ } 1.%.%.t.n.d.C.E.n.0.1.t.J.-X;XuX9X'.k.d.XXeXcXhXeXeXuX9XE.+.d.Y.E./.E.Y.J.J.Y.C.D.Y.E.'.n.[ +.N.(..XJ.C./.(.J.E.E.C.>.H L / L } 4.x.n.n.x.t.%.t.D.'.;XXX'.-X;XXXXX%XXX.X(.Y.D.Y.D.",
"k.k.D./.(.k.4.XXXX;XuXhXdX1X%X.XN.%.J.XX(..X(.-X5XhXdXeXuX1XY.k.1.x./.XX%X;X1X;XeXuX5X1X/.i.x.D.-X-X1XcX9X%X/.D.'.XX%XXX%X1X5X;X9X5X5XuXuX9X1X5X/.t.d.N.E.-X-X;XXX1X%XY.1._ %.} N.D.i.4.k.x.1.R r j } J.XXXX.X%XXX%XXX.X'.'.XX-X%XXX;XD.1.r +.(.k.n..XXX.X.X(.5X;X1X5X5X(.+.m m f m B +.n./.XXE.XXJ.C.N.0.1.t.d.k.k.k.t.d.4.} A f m H 1.J.(.XXXXXX'.XX.Xn./ &.[ d.n.J.'.%X-XXX'..X;XN.m j / %.x.x./.XX.X(./.n.1.Y _ >.k.D.n.i./.1X(.E.D.4.&.d.C.D.D.d.R 4.XX5XcXhX9X;X;X1XJ.+.4.x.D.E./.(.(.(./.'.(.E.E./.x.} [ [ %.4.i.d.x.J.'.(.'.t./ [ R H +.x.D.E.(.'.'.J.x.>.i.E.-XXX'.XXXX'.%X-XXX'.(.(.(.J.C.",
"d.N.'.(.J.J.'.uXdXuXuXdXdX9X-X.Xd.[ C.%X.X%X(.XX'.1X9XeXdX1XN.>.d.Y.-X1X1X9XuXdXuXuX5X;XD.0.N.(.5XeXhXhXE.E./.%XuXuXeX9X5X5X1X;X9XuXuXeX9X9XuXdX-XJ.'.%X%X5X5XuXdXeXXXD.[ A 0.x././.k.C././.J._ f H >.C..X%X%X-X;X;X;X-X%X-X;X1X5X5X5XY.4.B n.%XXXXX;X'.'.1X;X5X1X9X9X5X(.%.l H _ &._ R +.k.Y.n.'./.(..X.X'.x._ L Y %.4.H m A B r 6 Y x..X;X.X%X-X.X'./.n.[ %./ [ [ &.i.D.'.%X-X%XD.&.m R x.C.C.Y.%X5X5X5XeX;X/.k.H / d.Y.D.C..X'./..X'.N.d.d.4.[ [ / m 1.'.;XcXMXuX-XXX;XC.+.&.t.n.Y.E././.E.D.C.E.(.(.Y.d.>.1.Y m H >.1.[ >.J.D.k.[ Y / l A n.D.J./.%X-X.X(.(.%.} d.E.(..X%X%X;X9X9XXXY.E.'.XXC.N.",
"N./.%XE.C.;XcXdXeXhXhXeX9XeX%XJ.0.R >.n.J.XXXX;XeXuX5X-X;X(.k.4.E.-XeXuX9XeXdXhXcXdX1XXXn.t.E.;X5XeXeXXXi.'.-X;XeXeXeXuXuXuXuXdX9XdXcXhXdXhXcXbX(.J.'.-X1XuXdXdXeX.Xn.1.m l k.'./.XX'.XX'.'.Y.Y _ >.t.k.J.'.XX-X;X1X1X1X5X5X5X5X1X5XXXJ.4._ XXeX5X-X%X.X-X9X5X5XuXdXuX1XY.+.p H 1.n.x.t.>.1.i.0.4.n.'.%XXX%X/.i.A m %.C.>.t.n.n._ 3 H D.XX-X(.;X%X-X-X'.N._ Y Y A m A _ 1.d.n.C.k./ Y +.k.(..XXXXX1XeXeXuXhXuX5X1XR _ k.Y.J.J.(.J..XXXJ.N./.(.n.R A A Y &.D..XeXuXuX9X1X9XN._ / >.t.d.t.1.>.+./ t.J.(./.i.R H A / _ 1.k.d.%._ } R Y / / B L t./.'.'.%X5X5XXX'..X>.B A R _ 0.n.D.'.XX(.n.i.n./..XD.C.",
".X'.D.x.D.-X9X%X9XcXMXdX9X;X/.k.0.[ [ &.i.Y.XX5XcXeX.XY.Y.n.t.i.'.1XdXdXeXeXeXeXuX9X9XeX'.N./..X%XXX(.N.1.;XeX;XdXhXdXuXuXuXuXeX9XuXhXMXSXMXdX5X(.(.XX9XeXuXeX'.D.i.>.} A _ C./.%X%X%X%X1X1XN./ i.C.C.N.Y.(..X-X-X-X1X5X9X9X5X1X;X1XE.C.} R XX9X-X-X-X1X5X1X9X9XdXhXeX1XE.4.l _ k.E.'..X/.J.Y.N.0.>.>.t.x./.E.d.f l >.D.N.E.%X'.N.A H Y.%X-XXX;X-XXX(.XX/.1.B / 4.>.4.x.D.C.x.k./ B +.n./.XX-X9X%X;X5XeXdXhXhXdXhX4.x.Y.E.J.J././.(..X%XXXY.D./.1.L B &._ >.J.-X.X5X9X;X%X1.L Y Y [ [ L A L H m H } %.4.%.Y L l L >.N.J.E.J.k.%./ Y _ R A >.E./.;XXX.X.X.XXX-X;Xk.A l l j L [ %.4.4.+.Y _ d.(.%X'.(.",
"/.t./ >./.%X%X1XdXdXdX5X'.N.i.t.D.D.n.k.i.t.x.C.t.t.0.d.D.D.C./.-XeXdXuX9XeXdXdXcXuXeXdX%XE.XX.XE.J.J.N.1.1XdXuXeXhXhXeXeXdXdX9XuXcXbXbXMXbX-Xn.} k.(.1XXXE.D.>.L m L / _ k.XX'.'.E.-X.X-X.X4.d.D.(.(.E./.J.N.J.%X-X1XeXuXuX9X1X-X-XD.D.R A .X9X1X9X%X;X1X1XdXeXuXuX5X5X.Xn.R 1.J.(.E./.XX;X1X/..XC.d.4.+._ L j B >.XX%X'./.;X;X'.+.L Y.XX-X;X'.'.(.'.;X(.t./ E.XX/.E./.Y.d.+./ A B } k.XXdX5X;X5X9XuXcXbXcXhXcXbXn.E.(.'.'.'.XX(.XXXXXX;X'.D.J.(.1.R d.B m 1.n./.-X%XD.k.H B _ H _ [ / [ t.N.N./.J.k.C.E.J.n.+.[ %.i.D.(./.Y.J.N.} f f R 0.Y.;X-X-X%X.X%X1X-X'.N.+.t.N.n.C.N.x.1.+.A r B 4.J.E.5X;X",
"f p B _ %.1.N..X.X;X-XD.0.4.n./.'.-X%XE.D.C.t._ m A 1.(.5X/.N.%X;X;X9XhXdXeXuXcXbXdX1XuX-XJ.XXeX%X;X-XD.t.J.eXcXcXcX5XeXuXeXbXuXuXPXMXMXdXD.%.A m B >.4.n././.%.j A j j d.J.E..X%X;X.X%X5Xt.t.E./.(.(.(.(.E.J.J.i.i.uXeXhX9XdXeX-X/.J.4.j L D.-X1XeX9X-X%X5XdXdXdX9XdX;X;XY.[ i..XXX%X;X5X1X%X'.XX-X(.C.t._ p R 0..XXX'.XX%X5X1X%X4.H Y.XX;X%X;XXX-X.X1X1.Y %X1X-X.X.X'.'.'.d.m m Y n.5X-X-X9X5X;XeX9XeXcXhXdXbXeXJ.XX(..XXX(.%X-X%XXX%XXX(.E.Y.J.J.[ %.A Y %.1.N.x.i.t.i.k.k.d._ B 0.N.E..X%X(.XX.X.X.XXXXX(.E.n.>.>.Y./.J..X(./._ m L L } x.Y.'.1X5X%X%X1XXXC.D.E.%X-X'.J.E.XX%X%.m A m m [ t.i.0.",
"/ +.&.[ m j [ k.t.t.1.+.[ >.N..X1X5X5X1X-X'.C.i.R [ D.1X-X/.J.%XdXeX9XuXeXeXdXMXSXbX9X9X1X'.'.XX%X;X9X'.>.+.J.dXuXcXcXHXbX9XcXMXHXHX1XD.0.%.&.1.+.m L } d.Y.XXC.+.B l [ E./.(.-X.X%X1XeX.X1.d.E.(.(.'..X'.(.E.Y.n.>.n.XXdX9X;X1XE.E.N.} p r } n.%X-X1X9X9X9X9X9X5XXXXXY.k./ L Y.%X;X5X5XeXuX5X-X%X;XXX(.D.0.H } N.-X;X-X1X;X9X9X1Xd.R Y.%X;X-X5X-X1X/._ Y D.-X'.XX;X5X1X;X-X/.d.[ i.%X1X5XuXcXdX1XuXhXMXHXMXeX5XE.t.(..X-X1X-XXX-X%X-X;X;X-X.X'./..X/ L _ x.C.t.k.k.d.k.N.Y./.(.D.} i./.-X%X;X;XXX.X.XXX%XXX'.E.N.d.[ 4.'.XXXX%XE.+.L L B R t.N.E.'.%X;X9X1XJ.4.Y.1X;X1XXX/.-X(.t.R L } / L [ 1.} _ ",
"k.N.x.&.H l B L j l / 0.i.0.x..X9X5X9XdXuX1XXX.X1.} C.5X1X%X.X;XhXeX5X9XeXuXhXMXbXbXdX9XdX;XC.n.E.Y./.J.+.m R t.E.5XdXcXbXbXcX9X1XD.k.N.(.1X;X.Xn.H A 1.Y.(.%X(.0.l H d.(.J./.'.%XXX;X5Xk.4.J.'.'..XXXXXXX.X'.(.D.0.} 4.J.XXE.(.C.k.R l Y Y A R n.D.(.;X5X5X;X%X(.E.N.i.+.j m d.Y..X-X-X%X;X5X1X;X1X%XXX'.C.+.t..X1X1X5XeX1X5X9XeXN.Y 4.n.E.Y./.D.4.R l 0..XE.;XXX;X5X5X5X;X%X%XN.Y.uX5XuX9XeXcXuXeXcXPXSXhXuXeXd.} D.XX1X5X;X%X5X1X-X-X;X1X;X-X.X%X_ H 1.'.XXY.(./.E.Y.J.J.E./.'.>.d.XXeX;X%X-XXXXX%X%X%XXX(.E.(./.} Y x./.E./.>.+.>.&.A B [ %./.E.XXuX;Xk.&.>.n.XX;X1X%X'.Y.t.%.%.i.D.n.d.k.N.D.C.",
"J.J.n.1.+.%.[ L m j / d.0.Y [ C.;X1X9XeX5X-X%X;XC.%.i.%X9X-X'.5XeX9X5XeXhXcXhXhXcXcXdX5XuX%Xi.x.D.D.J.C.k.i.0.4.4.N.C.C.E.'.(.E.>.[ C.9XMXPXhXuX%X0.%.J.;XXXXX/.>.f } (..XY.%X%XXX-X%XY.} i.'.%X.XXX%X-X-X%XXXXXN.x.[ B _ 1.&.t.>.&.L m / R B H H &.d.k.N.E.J.x.0.&.R %._ > 0 _ >.k.(.1X1X;X5XuX9X5XXX.X'.Y.0.C.1X;X;X9X9X;X-X1X9Xx.j j R 4.>.&./ Y p R E.XX.X;X;X1X-X;X9X;X%X9X1X'.PXhXhX9X9XhXuX9XhXMXbXbXdXXX%.R 0.Y.%X;X-XeX1X5X9XeXdXdX9X-X%XC.Y +.n.'.XX%X%X%X%X'./.Y.E.(.E.1.t..X9X5X;X%X-X-X-X-X%X.X/.Y.Y.J.[ f B &.k.t.C.n.Y.(.Y.D.d.+.&.N./.D.n.C.C.x.1.>.C.N.k.x.Y L %.t.C././.E.(.'.(.E.",
"C.Y.C.4.&.0.d.t.i.4.i.n.4.L L &.J..X1X1X%XXX.X.X'.k.d.E.;XXX/.9XdXuXuXdXcXbXcXdXbXcXhX9X9X/.d.(.%X1X;X'.(.XX%X.X.X/.D.N.k.+.+.n.4.k.eXMXdXdXuXhXbX.Xx.'.;X%X-X(.0.j %.XX-XE.XX'..X5XE.%.H x.'.XXXX%X-X;X;X;X%X%X(.E.%.l A l l R &.4.1.+./ A A L m } 1.+.[ %.+.Y f %./ m B / 1.} l H 4..XeX5X1X9XuXeX%XXXXX(.d.E.eX-X;X9X5X-XXX-XeXt.m L >.k.0.4.+.} Y k.XXXX5X1XeX9X1X5XeX1X;XcX5X/.PXdX9X9XuX%X9XuXbXcXcXbXXX%.Y / } 1.n.E.(.eXuXeX-X.X.XXX'.J.E._ l i.E.'.XX%XXX%X-X%X.X.XXX-X(.i.0.(.1X1X5XeX1X1X;X%X.X(.E.Y.E./.&.l H 0.Y.Y..X(.'.XXXX%X/.k.+.+.} &.C.;X1X.XD.%.+.+._ +.m +.4.x.D.Y.(.XXXX.X(./.",
"D.(.(.N.k.N.J.D.J./.(./.E.J.k.&.>.d.J.(.XX%X%XXX(.N.t.d..X9X%X1XMXMXcXdXhXcXbXhXuXcXSXMXeXJ.x.%X9XdXeX;X-X%X.X%X9X-XXX%X;XJ.i.E.E.;XMXcXhXHXSXhXbX9XJ..X%X-X1X(.N.l / /.5X'.XX.X5XXX%.6 B J..X(.%X-X;X1X;X-X%XXXJ.N./ j } 0.C./.XX'..X'.D.N.N.k.t.x.N.i.%./ B p 6 0 0 Y &.>.k.N.H j B 1./.%X;X5X9XeX5X5X5XXXn.'.uX-X5X9X1X;X%X;XXX_ H d././.D./.D./ 1.XX1X-X;XeX5X9XeXeXeX1XeXSX;Xk.5XcXuXeXhX1XuXhXbXdX%XD.4.R _ 0.>._ / 1.t.n.'.(.D.x.n.D.n.0.+.f H N./.(.-X;X1X1X1X;X-X%X-X-X.Xd.1.'.5X-X-X9X1X;X-X.X(.E.E./.'.'.[ f &.D.'.-X.X-X5X;X.X'.%X-XY.R m k.1X;XXX1X;XN.R } R / &.n.x.Y./.(.;X5X-XXX.X'.",
"/.'.(.E.E.'./.J.J./.E.J.'.5X%XD.&.} +.0.C.E./.(.k.>.+.%.C.;X%X(.uXhXcXdXdXcXbXhX5XcXHXSX-Xn.D.%X1X9X9XeXhX9X;X5XhXhXuX9XhX%X4.>.'.uXbXMXMXbXbXdXdXuXE.%X1X5X5XE.n.A B 0..X'.XXXX/.0.m O / /.XX'.%X-X;X;X;X%XXX.XXXE.[ } x..X;X5X;X;X1X1X.X'.XX.X.X-X-X'.D.i.R 0 p m Y 4.N.D.Y.J.k.4.[ _ 1.J.-X9X1XeX9X9X5X%XD.-XeX%X9X5X-X1X;X1Xi.f L x.J.D.J.(.E.+.C.1X;XeX9X9XeX5XeXuXeXeXhXcX'.&.N.cXMXdXSXSXbXhX-XD.0.} } 4.0.x.x.0.A H R R f H [ >.d.x.1.Y f f +.J.(..X;X1X;X-X-X-X;X;X-X-X'.k.%./.5X1XXXXX%X%X.X(.E.E.(.XX;XJ.H f >.J.%X1XXXXXXX-X-X%X%X-X'.i.>.D.5X9X;X;X.X/._ [ L +.i.x.N././.'.;X1X%XXX.X'.",
"/.E.J.C.J./.(./.Y.Y.J.Y..X;X-X.XD.} l H %.4.t.d.+.Y [ } &.x.C.n.(.;XdXhXhXbXcXdXuXSXcX1XC.0.E.;X1XuXuXeXdXeXeXbXdXdXuX9XuX'.1.i.uXhX5XSXPXcXcXMXcXhXY.%X5XeX9X/.t.Y f j } %.&.&.R l H B 4.J.'.XX%X-X;X;X-X%X.X'./.k.R J.%X;X.X1XdXuX9X1X1X1X1X;X.X9XeX-XXX(.>.6 m +.x.N.k.x.C.D.Y./.N.} L &.D.'.1X9X1X;X-XXXY.eX1XXX9X1X.X;X;X;Xi.A &.N.x.D.'..X1Xi./.hX1X;XuXMXSXeXeXhXcXSXMX5X1.A _ (.5X9XhXcXcXdXN.L Y 1.i.t.k.t.C.(.R l L H L [ >.t.C./.N.>.f B &.C.-X5X-X%X-X%XXXXX%X%XXX'..XD.%.C.-XdXeXXX.X.X(.E.Y.E..X;X/.[ > 6 B 0.XX.X'..XXX%X.X(.XX5X5XY.N.(.9XeX1X;XXX%Xd.+.Y n.D.C.Y..X.X.X1X5X;X5X.X(.",
"E.Y.E.C.N.Y.J.E.Y.D.XX-X1XXX/.0.R [ 1.i.n.J./.'.J.Y.C.n.k.C.(.C.>.(.eXhXSXHXMXbXHXhXeXE.4.k.XX.X5X9XuXhXhXhXdXeXuXcXdXdXeXXXi.E.uXcXSXMXbXbXbXcXSX1X(.1XuX9X1XE.0.Y B Y _ +._ m H B j p H C.E.'.XX.X.XXX-X%X.X(.J.t.+.'..X;X;X-XuXeX9X5X5X9XuXhXeX9X1XdX5X.X1.H t.d.x.N.D.D.J.D.(.XXY.0.+.m +.C.J.(.%X9X'.t.XX5X;X-X%X;X5X1X%X.X4./.(.E.Y.J..X-XeXn.x.cX5X-X-XhXSXPXSXbXSXSX-Xk.L l m _ 1.>.&.4.1.%.&.Y 0.n.x.k.D.C.(./.%.H B } Y.D.N.N.D.Y.E./.t.R _ t.'.eXXXXX-X%XXX'..X-X%X%X%X1.m L D.5X;XeX5X5X-X-XeX;XY.C.[ R R R B B >.(.-X5X-X.X-X%X%X9XdXD.XXeXuXuX;XdXeX1XN.m 0.J.Y.'.%XXX'..X%X;X1X;X(.(.",
"J.x.N.N.C.J.C.N.J.E.-X/.C.d.0.R _ >.n./.XX%X%XXX%X;X%XXX(..X-XJ.0.D.'.%X1XeX5X;X1XJ.k.N.i.J.'.'.uX9XuXcXcXdXdXbXhXdXuX9X.Xn.i.9XeXMXPXHXcXSXSXdXHX1X(.1X9X9X9X/.0.t.d.d.d.D.E.N.1.0.[ 6 3 t.J.E.(.(.'..X%X.X/.Y.D.[ i.J.Y.-X;XuX5X9XeXuXeX9X5X5X5X5XeXdX5X/.+.>.x.n.N.D.J.Y.Y.Y.'./.D.&.l 0 / / d.J.Y.C.t.1.1XdX1X-X1X1X;X9X;XD.k..X.XE.J.J.'.%X%Xi.[ 1XcXuX9XbXMXbXbXcX%Xx.>.>.t.t.i.d.d.>.L r > m &.&.N.J.n.x.n.n.E.D./ B H 1.E.(..XXX'./.E.Y.'.4.j +.XX1X-X%XXX%X%X.X'.XXXXXXn._ m p m +.t.N.C./.J.n.N.i.[ H R } 4.d.i.4.&.+.Y.XX1XuXdXeX;X-X'.n.-XdXdXuX-XeX1X1XY.Y k./.'.%X-XXX'.'..XXXXXXX(.(.",
"J.0.d.D.(.-X-X-X.XD.k.&.[ / _ L %.d./.1XuXeX5X;X%X;X-X-X.X'.'.x.1.1.t.x.C.Y.E.D.i.4.%.0.+.Y.%X;X-X5XuXhXhXuXeXdXhX;X.XJ.k.[ 1.5XuXcXHXbXuXcXHXbXhXXX(.5X9X9X9XJ.t.C./.J.x.C.Y.D.N.k.k.0.L j m 4.C.D.Y.(.(./.Y.C.1.L n.'./.%X;X9X5X5X5X9X9X9X9X9X9X5XuX1X(.d.[ Y.J.J.J.J.Y.E./.(.XX'.C.[ j j _ B [ i.0._ A +.1XdX1X;X9X1X%XeX-X0.D.;X-X(.E.J.'.XX(.4.3 >.XX5X5XdX-XE.i.+.[ >.k.C.k.Y.'.(.(./.i.H 3 R k.k.N.x.d.x.D.Y.'.C.H p j [ D./.%X-X.X/./.(./.Y._ Y x./.-X.X'.XX%XXXXX-X;X%XD.m p A H +.4.0.>.t.1.R l f B / &.0.0.t.N.E.N.0.>.0.C.'.XX-X;XXX0.i.;XdXdXuX-X1X;X5X/.} k.J.E..X;X%X.X.X.X.X'.(././.",
"n.>.n.XX-X%XE.C.d.} / +.+.L A L i.N.(.-X5X5X1X1X%X;X;X;X%XXX'.k.1.+.1.k.x.J.(./..X'.n.1.B >.N.Y.'.5X1X.XXX;X5X9X1XC.t.+.} B +.D.%X%XeXSXSXbXhXuX.XC.J.5X9X9X1Xx.J./..X'.Y.C.N.x.D.C.J.Y.x.+.j 3 r j / 1.1.%._ B R &.i.1X-X%X5X%X5X1X1X1X5X9X9X9X9X1X-XJ.1.[ &.XX/.E.E.Y.E./.(.'.'..X0.B l j l p r Y Y f p >.eXbX5X;X;X-X;X5XE.+.J.5X5X%X.X/.'..XXX0.O & L &.+._ R H f j +.Y.'.N.N./..X(.'.;X(.4.m 1.D.x.d.i.k.D.J.E.XXY./ B B [ _ 0.E.;X1XXX/.Y.n.'./.+.&.D.(.(.'..X.X%X-X5X9X'.+.l / 4.4.d.D.Y.(./.J.k.[ j f Y 0.d.0.4.N..X'.Y.x.} [ 4.k.D.n.} R 1.XX9XuXhX;X%X/.XXD.[ 0.n.Y.XX-X%XXXXX.X.X'.'.(.(.",
"+.R 1.n.k.0.[ _ H A R >.%.H B _ n.J.(..XXXXXXXXXXX-X%X-X%X%X%Xn.&.%.i.N.n.J..XXX-X.X'.'.C.d.4.+.&.x.N.n.C.N.i.i.i.+./ A Y R t.x.i.t.d.J.%X-X.X/.n.t.i.(.;X5X-Xi.N.(.%X-X%X.X(.E.J./.J.n.J.E.i.H l j H _ _ %.0.1.%.N.1./.;XXXeX1X;X;X1X5X5X;XXX(.'.(.D.0.L L n.'././.E.Y.E./.(.(.J.n.R B L Y Y Y L / A r p 0.5XdX1X;X.X%X9X%Xi.} C.1X9X5X1XXXXX.XD._ l L +.n.i.0.L f p _ x.E.J.C..X.XXX'.'.-XXXx.L i.C.n.d.i.k.C.E./.(.d.m p 6 f m R 4.D.XX%X'.E.'.(.-XJ.x.k./.'.XX.X/.XX-X5X1Xk.j +.N.N.N.'.%X-X'.Y.J.(.E.k.+.L t.n.x.d.n.C.D.(.k.4.k.n.1.&.&.H A &.Y.%XeXcX5XXX(.XXn._ } >.n.E.(.'.'..X'.'..X.X-X%X",
"m j L R / R L } R / L R L L L } C.Y.'.XX.X(./.E./.(./.'.'.XXXXx.[ 1.x.N.x.N.E.'.-X'.E.J.E.(.(.J.t.&.L B R L / i.x.k.t._ B L &._ R [ B j >.D.C.x.k.1.+.k.'.;XXXi.} J.;XXX.X%XXX'.Y.E.J.C.J.C.D.d.l B &.x.x.N.J.x.n.D.d.0.1X1X5XeX.X(.Y.D.C.n.i.1.d.x.t.+.A R (.Y.E.E.E.E.E././.(.D.&.H } %.i.C.n.C.d._ f r 4.XX1X1X%X/.%XdX(.>.+.n.;XeXeXeX1X-X.Xn.l R d.N.E.D.Y.C.R j } n.D.E.%X'./.XX-X%X9X5XY.%.D.J.C.k.d.k.n.E.E.Y.0.A Y Y [ / Y R >.C..X-X-X;X'.(.%XJ.%.'.'.;XXXY.'.XX%X(._ } n.E.C.'.5XXXXX;X%XXX.X%X%XN._ t.N.N.x.x.t.k..XN.1.0.N.C.J.d.Y A &.N.(.9XbXeX%X9XeXC.[ R _ 4.x.C.D.Y./././.(.'.E.D."
};
